;FLAVOR:Marlin
;TIME:2486
;Filament used: 1.02925m
;Layer height: 0.2
;MINX:96.985
;MINY:86.996
;MINZ:0.2
;MAXX:138.045
;MAXY:129.01
;MAXZ:19
;Generated with Cura_SteamEngine 4.9.0
M140 S80
M105
M190 S80
M104 S240
M105
M109 S240
M82 ;absolute extrusion mode
M201 X500.00 Y500.00 Z100.00 E5000.00 ;Setup machine max acceleration
M203 X500.00 Y500.00 Z10.00 E50.00 ;Setup machine max feedrate
M204 P500.00 R1000.00 T500.00 ;Setup Print/Retract/Travel acceleration
M205 X8.00 Y8.00 Z0.40 E5.00 ;Setup Jerk
M220 S100 ;Reset Feedrate
M221 S100 ;Reset Flowrate

G28 ;Home

G92 E0 ;Reset Extruder
G1 Z2.0 F3000 ;Move Z Axis up
G1 X10.1 Y20 Z0.28 F5000.0 ;Move to start position
G1 X10.1 Y200.0 Z0.12 F1500.0 E15 ;Draw the first line
G1 X10.6 Y200.0 Z0.12 F5000.0 ;Move to side a little
G1 X10.6 Y20 Z0.12 F1500.0 E30 ;Draw the second line
G92 E0 ;Reset Extruder
G1 Z3.0 F3000 ;Move Z Axis up
G92 E0
G92 E0
G1 F900 E-3
;LAYER_COUNT:95
;LAYER:0
M106 S25.5
G0 F6000 X102.426 Y93.594 Z0.2
;TYPE:SKIRT
G1 F900 E0
G1 X102.674 Y93.327 E0.00909
G1 X102.956 Y93.033 E0.01925
G1 X103.596 Y92.418 E0.04139
G1 X104.051 Y92.016 E0.05654
G1 X104.304 Y91.799 E0.06485
G1 X104.686 Y91.482 E0.07724
G1 X105.433 Y90.915 E0.10063
G1 X106.05 Y90.488 E0.11935
G1 X106.333 Y90.299 E0.12784
G1 X106.692 Y90.067 E0.1385
G1 X107.48 Y89.604 E0.1613
G1 X108.016 Y89.319 E0.17644
G1 X108.306 Y89.171 E0.18456
G1 X108.766 Y88.944 E0.19736
G1 X109.637 Y88.561 E0.22109
G1 X110.385 Y88.271 E0.24111
G1 X110.708 Y88.152 E0.24969
G1 X111.078 Y88.022 E0.25948
G1 X111.969 Y87.751 E0.28271
G1 X112.573 Y87.596 E0.29826
G1 X112.891 Y87.52 E0.30642
G1 X113.399 Y87.406 E0.3194
G1 X114.321 Y87.241 E0.34277
G1 X114.998 Y87.15 E0.35981
G1 X115.3 Y87.114 E0.3674
G1 X115.754 Y87.066 E0.37878
G1 X116.711 Y87.007 E0.4027
G1 X117.393 Y86.996 E0.41972
G1 X117.722 Y86.996 E0.42792
G1 X118.136 Y87.002 E0.43825
G1 X119.087 Y87.058 E0.46202
G1 X120.034 Y87.156 E0.48577
G1 X120.317 Y87.189 E0.49287
G1 X120.57 Y87.222 E0.49924
G1 X121.483 Y87.382 E0.52236
G1 X122.144 Y87.527 E0.53924
G1 X122.5 Y87.611 E0.54836
G1 X122.927 Y87.72 E0.55936
G1 X123.807 Y87.985 E0.58228
G1 X124.524 Y88.235 E0.60122
G1 X124.863 Y88.36 E0.61024
G1 X125.256 Y88.512 E0.62075
G1 X126.123 Y88.892 E0.64436
G1 X126.743 Y89.197 E0.6616
G1 X127.036 Y89.346 E0.6698
G1 X127.479 Y89.581 E0.68231
G1 X128.259 Y90.038 E0.70486
G1 X128.778 Y90.372 E0.72025
G1 X129.044 Y90.55 E0.72824
G1 X129.43 Y90.815 E0.73992
G1 X130.189 Y91.386 E0.76361
G1 X130.796 Y91.887 E0.78324
G1 X131.053 Y92.107 E0.79168
G1 X131.344 Y92.363 E0.80135
G1 X132.026 Y93.017 E0.82492
G1 X132.493 Y93.507 E0.84181
G1 X132.7 Y93.731 E0.84941
G1 X132.998 Y94.062 E0.86052
G1 X133.593 Y94.784 E0.88386
G1 X134.043 Y95.381 E0.90251
G1 X134.25 Y95.665 E0.91128
G1 X134.528 Y96.06 E0.92333
G1 X135.138 Y97.033 E0.95197
G1 X135.635 Y97.929 E0.97753
G1 X136.068 Y98.8 E1.0018
G1 X136.431 Y99.622 E1.02421
G1 X136.573 Y99.96 E1.03336
G1 X136.683 Y100.234 E1.04072
G1 X137 Y101.137 E1.0646
G1 X137.201 Y101.804 E1.08197
G1 X137.297 Y102.143 E1.09076
G1 X137.418 Y102.598 E1.10251
G1 X137.612 Y103.475 E1.12491
G1 X137.794 Y104.505 E1.151
G1 X137.849 Y104.856 E1.15987
G1 X137.95 Y105.55 E1.17736
G1 X138.044 Y106.472 E1.20048
G1 X138.045 Y107.709 E1.23134
G1 X138.002 Y108.464 E1.2502
G1 X137.98 Y108.766 E1.25775
G1 X137.901 Y109.693 E1.28096
G1 X137.774 Y110.664 E1.30539
G1 X137.63 Y111.473 E1.32589
G1 X137.546 Y111.892 E1.33655
G1 X137.478 Y112.202 E1.34446
G1 X137.256 Y113.051 E1.36635
G1 X137.045 Y113.739 E1.38431
G1 X136.939 Y114.066 E1.39288
G1 X136.781 Y114.528 E1.40506
G1 X136.44 Y115.398 E1.42837
G1 X136.179 Y115.988 E1.44446
G1 X136.055 Y116.257 E1.45185
G1 X135.839 Y116.711 E1.46439
G1 X135.394 Y117.55 E1.48809
G1 X135.077 Y118.088 E1.50366
G1 X134.917 Y118.35 E1.51132
G1 X134.682 Y118.724 E1.52234
G1 X134.125 Y119.528 E1.54674
G1 X133.599 Y120.217 E1.56836
G1 X133.376 Y120.499 E1.57733
G1 X133.107 Y120.828 E1.58793
G1 X132.5 Y121.509 E1.61069
G1 X132.107 Y121.914 E1.62476
G1 X131.872 Y122.149 E1.63305
G1 X131.52 Y122.49 E1.64528
G1 X130.869 Y123.071 E1.66704
G1 X130.418 Y123.442 E1.68161
G1 X130.147 Y123.658 E1.69026
G1 X129.695 Y124.006 E1.70449
G1 X128.942 Y124.536 E1.72746
G1 X128.359 Y124.91 E1.74473
G1 X128.066 Y125.091 E1.75333
G1 X127.696 Y125.312 E1.76408
G1 X126.864 Y125.761 E1.78766
G1 X125.202 Y126.565 E1.83372
G1 X123.821 Y127.229 E1.87194
G1 X123.525 Y127.379 E1.88022
G1 X122.781 Y127.745 E1.9009
G1 X122.186 Y128.015 E1.9172
G1 X121.787 Y128.182 E1.92799
G1 X120.918 Y128.503 E1.9511
G1 X120.023 Y128.748 E1.97425
G1 X119.111 Y128.914 E1.99737
G1 X118.188 Y129.002 E2.0205
G1 X117.292 Y129.01 E2.04285
G1 X117.043 Y129.002 E2.04906
G1 X116.118 Y128.933 E2.0722
G1 X115.203 Y128.784 E2.09533
G1 X114.292 Y128.553 E2.11877
G1 X114.016 Y128.47 E2.12596
G1 X113.141 Y128.165 E2.14908
G1 X112.418 Y127.846 E2.16879
G1 X111.717 Y127.505 E2.18824
G1 X110.426 Y126.858 E2.22426
G1 X108.855 Y126.114 E2.26762
G1 X108.209 Y125.803 E2.2855
G1 X107.398 Y125.369 E2.30845
G1 X106.874 Y125.059 E2.32364
G1 X106.591 Y124.886 E2.33191
G1 X106.233 Y124.659 E2.34248
G1 X105.453 Y124.114 E2.36622
G1 X104.799 Y123.613 E2.38677
G1 X104.514 Y123.387 E2.39584
G1 X104.156 Y123.093 E2.4074
G1 X103.47 Y122.479 E2.43037
G1 X103.056 Y122.075 E2.4448
G1 X102.852 Y121.87 E2.45201
G1 X102.516 Y121.524 E2.46404
G1 X101.888 Y120.817 E2.48763
G1 X101.457 Y120.287 E2.50467
G1 X101.263 Y120.042 E2.51247
G1 X100.952 Y119.636 E2.52522
G1 X100.426 Y118.885 E2.5481
G1 X100.076 Y118.337 E2.56432
G1 X99.883 Y118.023 E2.57351
G1 X99.676 Y117.673 E2.58365
G1 X99.25 Y116.878 E2.60615
G1 X98.92 Y116.195 E2.62507
G1 X98.761 Y115.851 E2.63453
G1 X98.576 Y115.431 E2.64598
G1 X98.24 Y114.571 E2.66901
G1 X98.027 Y113.947 E2.68546
G1 X97.926 Y113.635 E2.69364
G1 X97.774 Y113.141 E2.70653
G1 X97.542 Y112.253 E2.72942
G1 X97.404 Y111.615 E2.74571
G1 X97.338 Y111.284 E2.75413
G1 X97.248 Y110.794 E2.76655
G1 X97.119 Y109.872 E2.78978
G1 X97.056 Y109.211 E2.80634
G1 X97.029 Y108.868 E2.81492
G1 X97.003 Y108.456 E2.82522
G1 X96.985 Y107.542 E2.84803
G1 X97.001 Y106.816 E2.86614
G1 X97.013 Y106.481 E2.8745
G1 X97.038 Y106.012 E2.88622
G1 X97.129 Y105.078 E2.90963
G1 X97.231 Y104.357 E2.92779
G1 X97.28 Y104.041 E2.93577
G1 X97.345 Y103.663 E2.94534
G1 X97.557 Y102.7 E2.96993
G1 X97.763 Y101.932 E2.98977
G1 X97.854 Y101.614 E2.99802
G1 X97.974 Y101.216 E3.00839
G1 X98.273 Y100.356 E3.0311
G1 X98.587 Y99.568 E3.05226
G1 X98.778 Y99.108 E3.06469
G1 X99.052 Y98.472 E3.08196
G1 X99.455 Y97.637 E3.10509
G1 X100.11 Y96.573 E3.13626
G1 X100.684 Y95.752 E3.16124
G1 X100.949 Y95.389 E3.17246
G1 X101.338 Y94.87 E3.18864
G1 X101.934 Y94.143 E3.21209
G1 X102.426 Y93.594 E3.23048
G0 F6000 X102.65 Y93.794
G1 F900 X102.89 Y93.534 E3.2393
G1 X103.172 Y93.24 E3.24946
G1 X103.795 Y92.643 E3.27099
G1 X104.25 Y92.241 E3.28613
G1 X104.496 Y92.03 E3.29422
G1 X104.878 Y91.713 E3.3066
G1 X105.604 Y91.162 E3.32934
G1 X106.221 Y90.735 E3.34805
G1 X106.496 Y90.551 E3.35631
G1 X106.855 Y90.319 E3.36697
G1 X107.621 Y89.869 E3.38913
G1 X108.157 Y89.584 E3.40427
G1 X108.439 Y89.44 E3.41217
G1 X108.899 Y89.213 E3.42497
G1 X109.745 Y88.841 E3.44802
G1 X110.493 Y88.551 E3.46803
G1 X110.807 Y88.435 E3.47638
G1 X111.177 Y88.305 E3.48617
G1 X112.043 Y88.042 E3.50874
G1 X112.647 Y87.887 E3.5243
G1 X112.957 Y87.813 E3.53225
G1 X113.465 Y87.699 E3.54524
G1 X114.361 Y87.538 E3.56795
G1 X115.038 Y87.447 E3.58499
G1 X115.331 Y87.412 E3.59235
G1 X115.785 Y87.364 E3.60373
G1 X116.715 Y87.307 E3.62698
G1 X117.397 Y87.296 E3.64399
G1 X117.717 Y87.296 E3.65197
G1 X118.131 Y87.302 E3.6623
G1 X119.056 Y87.357 E3.68542
G1 X120.003 Y87.455 E3.70917
G1 X120.279 Y87.487 E3.7161
G1 X120.532 Y87.52 E3.72246
G1 X121.419 Y87.675 E3.74492
G1 X122.08 Y87.82 E3.7618
G1 X122.426 Y87.902 E3.77067
G1 X122.853 Y88.011 E3.78167
G1 X123.709 Y88.269 E3.80397
G1 X124.426 Y88.519 E3.82291
G1 X124.755 Y88.64 E3.83166
G1 X125.148 Y88.792 E3.84217
G1 X125.991 Y89.161 E3.86512
G1 X126.611 Y89.466 E3.88236
G1 X126.895 Y89.611 E3.89031
G1 X127.338 Y89.846 E3.90282
G1 X128.096 Y90.29 E3.92474
G1 X128.615 Y90.624 E3.94013
G1 X128.875 Y90.797 E3.94792
G1 X129.261 Y91.062 E3.9596
G1 X129.998 Y91.618 E3.98263
G1 X130.605 Y92.119 E4.00226
G1 X130.855 Y92.332 E4.01046
G1 X131.146 Y92.588 E4.02012
G1 X131.809 Y93.224 E4.04304
G1 X132.276 Y93.714 E4.05993
G1 X132.477 Y93.932 E4.06732
G1 X132.775 Y94.263 E4.07843
G1 X133.354 Y94.965 E4.10113
G1 X133.804 Y95.562 E4.11978
G1 X134.005 Y95.838 E4.1283
G1 X134.283 Y96.233 E4.14035
G1 X134.875 Y97.178 E4.16817
G1 X135.372 Y98.074 E4.19372
G1 X135.793 Y98.922 E4.21734
G1 X136.156 Y99.744 E4.23976
G1 X136.295 Y100.072 E4.24864
G1 X136.405 Y100.346 E4.25601
G1 X136.713 Y101.224 E4.27922
G1 X136.914 Y101.891 E4.2966
G1 X137.007 Y102.22 E4.30512
G1 X137.128 Y102.675 E4.31687
G1 X137.317 Y103.527 E4.33864
G1 X137.498 Y104.552 E4.3646
G1 X137.552 Y104.899 E4.37336
G1 X137.653 Y105.593 E4.39086
G1 X137.745 Y106.503 E4.41367
G1 X137.745 Y107.692 E4.44333
G1 X137.702 Y108.447 E4.4622
G1 X137.681 Y108.74 E4.46952
G1 X137.602 Y109.667 E4.49273
G1 X137.478 Y110.611 E4.51648
G1 X137.334 Y111.42 E4.53698
G1 X137.253 Y111.828 E4.54736
G1 X137.185 Y112.138 E4.55527
G1 X136.969 Y112.963 E4.57655
G1 X136.758 Y113.651 E4.5945
G1 X136.655 Y113.969 E4.60284
G1 X136.497 Y114.431 E4.61502
G1 X136.166 Y115.277 E4.63768
G1 X135.905 Y115.867 E4.65377
G1 X135.784 Y116.129 E4.66097
G1 X135.568 Y116.583 E4.67351
G1 X135.135 Y117.398 E4.69653
G1 X134.818 Y117.936 E4.71211
G1 X134.663 Y118.191 E4.71955
G1 X134.428 Y118.565 E4.73057
G1 X133.886 Y119.346 E4.75429
G1 X133.36 Y120.035 E4.77591
G1 X133.144 Y120.309 E4.78461
G1 X132.875 Y120.638 E4.79521
G1 X132.285 Y121.3 E4.81733
G1 X131.892 Y121.705 E4.83141
G1 X131.663 Y121.934 E4.83949
G1 X131.311 Y122.275 E4.85172
G1 X130.679 Y122.839 E4.87285
G1 X130.228 Y123.21 E4.88741
G1 X129.964 Y123.42 E4.89583
G1 X129.512 Y123.768 E4.91006
G1 X128.78 Y124.284 E4.9324
G1 X128.197 Y124.658 E4.94968
G1 X127.913 Y124.833 E4.958
G1 X127.543 Y125.054 E4.96875
G1 X126.733 Y125.491 E4.99171
G1 X125.072 Y126.294 E5.03773
G1 X123.704 Y126.952 E5.0756
G1 X123.393 Y127.11 E5.0843
G1 X122.649 Y127.476 E5.10498
G1 X122.071 Y127.739 E5.12082
G1 X121.672 Y127.906 E5.13161
G1 X120.814 Y128.221 E5.15441
G1 X119.932 Y128.461 E5.17721
G1 X119.032 Y128.622 E5.20002
G1 X118.122 Y128.705 E5.22281
G1 X117.301 Y128.711 E5.24329
G1 X117.052 Y128.703 E5.24951
G1 X116.141 Y128.633 E5.2723
G1 X115.239 Y128.485 E5.2951
G1 X114.379 Y128.265 E5.31725
G1 X114.103 Y128.182 E5.32444
G1 X113.24 Y127.881 E5.34723
G1 X112.549 Y127.576 E5.36608
G1 X111.852 Y127.237 E5.38541
G1 X110.573 Y126.596 E5.4211
G1 X108.985 Y125.844 E5.46493
G1 X108.339 Y125.533 E5.48281
G1 X107.551 Y125.111 E5.50511
G1 X107.027 Y124.801 E5.5203
G1 X106.752 Y124.632 E5.52835
G1 X106.394 Y124.405 E5.53892
G1 X105.635 Y123.876 E5.562
G1 X104.981 Y123.375 E5.58255
G1 X104.704 Y123.155 E5.59138
G1 X104.346 Y122.861 E5.60293
G1 X103.68 Y122.264 E5.62524
G1 X103.266 Y121.86 E5.63967
G1 X103.067 Y121.661 E5.64669
G1 X102.731 Y121.315 E5.65872
G1 X102.12 Y120.628 E5.68166
G1 X101.689 Y120.098 E5.6987
G1 X101.501 Y119.86 E5.70627
G1 X101.19 Y119.454 E5.71902
G1 X100.679 Y118.724 E5.74125
G1 X100.329 Y118.176 E5.75747
G1 X100.141 Y117.871 E5.76641
G1 X99.934 Y117.521 E5.77655
G1 X99.52 Y116.747 E5.79845
G1 X99.19 Y116.064 E5.81737
G1 X99.036 Y115.73 E5.82654
G1 X98.851 Y115.31 E5.83799
G1 X98.524 Y114.474 E5.86039
G1 X98.311 Y113.85 E5.87683
G1 X98.213 Y113.547 E5.88478
G1 X98.061 Y113.053 E5.89767
G1 X97.835 Y112.189 E5.91995
G1 X97.697 Y111.551 E5.93623
G1 X97.633 Y111.23 E5.9444
G1 X97.543 Y110.74 E5.95682
G1 X97.418 Y109.843 E5.97942
G1 X97.355 Y109.182 E5.99598
G1 X97.329 Y108.849 E6.00431
G1 X97.303 Y108.437 E6.01461
G1 X97.285 Y107.549 E6.03676
G1 X97.301 Y106.823 E6.05488
G1 X97.313 Y106.497 E6.06302
G1 X97.338 Y106.028 E6.07473
G1 X97.426 Y105.12 E6.09749
G1 X97.528 Y104.399 E6.11565
G1 X97.576 Y104.092 E6.1234
G1 X97.641 Y103.714 E6.13297
G1 X97.847 Y102.778 E6.15688
G1 X98.053 Y102.01 E6.17671
G1 X98.141 Y101.7 E6.18475
G1 X98.261 Y101.302 E6.19512
G1 X98.552 Y100.466 E6.2172
G1 X98.864 Y99.683 E6.23823
G1 X99.054 Y99.226 E6.25058
G1 X99.328 Y98.59 E6.26785
G1 X99.726 Y97.767 E6.29065
G1 X100.356 Y96.744 E6.32062
G1 X100.825 Y96.072 E6.34107
G1 X101.085 Y95.711 E6.35216
G1 X101.189 Y95.569 E6.35655
G1 X101.578 Y95.05 E6.37273
G1 X102.158 Y94.343 E6.39555
G1 X102.65 Y93.794 E6.41394
G0 F6000 X102.873 Y93.994
G1 F900 X103.107 Y93.742 E6.42251
G1 X103.389 Y93.448 E6.43268
G1 X103.994 Y92.868 E6.45358
G1 X104.449 Y92.466 E6.46873
G1 X104.687 Y92.261 E6.47656
G1 X105.069 Y91.944 E6.48895
G1 X105.775 Y91.409 E6.51104
G1 X106.392 Y90.982 E6.52976
G1 X106.659 Y90.803 E6.53778
G1 X107.018 Y90.571 E6.54844
G1 X107.762 Y90.134 E6.56997
G1 X108.298 Y89.849 E6.58511
G1 X108.571 Y89.709 E6.59276
G1 X109.031 Y89.482 E6.60556
G1 X109.854 Y89.12 E6.62799
G1 X110.602 Y88.83 E6.648
G1 X110.906 Y88.718 E6.65608
G1 X111.276 Y88.588 E6.66586
G1 X112.118 Y88.333 E6.68781
G1 X112.722 Y88.178 E6.70336
G1 X113.023 Y88.105 E6.71109
G1 X113.531 Y87.991 E6.72408
G1 X114.401 Y87.835 E6.74612
G1 X115.078 Y87.744 E6.76316
G1 X115.363 Y87.71 E6.77032
G1 X115.817 Y87.662 E6.78171
G1 X116.72 Y87.607 E6.80428
G1 X117.402 Y87.596 E6.82129
G1 X117.713 Y87.596 E6.82905
G1 X118.127 Y87.602 E6.83938
G1 X119.025 Y87.655 E6.86182
G1 X119.972 Y87.753 E6.88557
G1 X120.24 Y87.784 E6.8923
G1 X120.493 Y87.817 E6.89866
G1 X121.355 Y87.968 E6.92049
G1 X122.016 Y88.113 E6.93737
G1 X122.351 Y88.192 E6.94596
G1 X122.778 Y88.301 E6.95695
G1 X123.61 Y88.552 E6.97863
G1 X124.327 Y88.802 E6.99757
G1 X124.646 Y88.919 E7.00605
G1 X125.039 Y89.071 E7.01656
G1 X125.858 Y89.43 E7.03887
G1 X126.478 Y89.735 E7.0561
G1 X126.754 Y89.876 E7.06383
G1 X127.197 Y90.111 E7.07634
G1 X127.934 Y90.543 E7.09765
G1 X128.453 Y90.877 E7.11305
G1 X128.705 Y91.044 E7.12059
G1 X129.091 Y91.309 E7.13227
G1 X129.807 Y91.849 E7.15464
G1 X130.414 Y92.35 E7.17427
G1 X130.657 Y92.557 E7.18224
G1 X130.948 Y92.813 E7.19191
G1 X131.592 Y93.431 E7.21417
G1 X132.059 Y93.921 E7.23106
G1 X132.254 Y94.133 E7.23824
G1 X132.552 Y94.464 E7.24935
G1 X133.114 Y95.145 E7.27138
G1 X133.564 Y95.742 E7.29003
G1 X133.759 Y96.01 E7.29829
G1 X134.037 Y96.405 E7.31034
G1 X134.613 Y97.324 E7.3374
G1 X135.11 Y98.22 E7.36296
G1 X135.519 Y99.043 E7.38588
G1 X135.882 Y99.865 E7.4083
G1 X136.016 Y100.184 E7.41693
G1 X136.126 Y100.458 E7.42429
G1 X136.425 Y101.31 E7.44682
G1 X136.626 Y101.977 E7.46419
G1 X136.717 Y102.297 E7.47249
G1 X136.838 Y102.752 E7.48424
G1 X137.022 Y103.58 E7.5054
G1 X137.171 Y104.416 E7.52658
G1 X137.255 Y104.942 E7.53987
G1 X137.356 Y105.636 E7.55736
G1 X137.446 Y106.533 E7.57985
G1 X137.446 Y107.675 E7.60834
G1 X137.403 Y108.43 E7.6272
G1 X137.382 Y108.715 E7.63433
G1 X137.303 Y109.642 E7.65754
G1 X137.183 Y110.559 E7.68061
G1 X137.039 Y111.368 E7.7011
G1 X136.96 Y111.764 E7.71118
G1 X136.892 Y112.074 E7.71909
G1 X136.682 Y112.875 E7.73975
G1 X136.471 Y113.563 E7.7577
G1 X136.371 Y113.871 E7.76578
G1 X136.213 Y114.333 E7.77796
G1 X135.891 Y115.155 E7.79998
G1 X135.63 Y115.745 E7.81607
G1 X135.514 Y116 E7.82306
G1 X135.298 Y116.454 E7.8356
G1 X134.877 Y117.246 E7.85798
G1 X134.56 Y117.784 E7.87356
G1 X134.409 Y118.031 E7.88078
G1 X134.174 Y118.405 E7.8918
G1 X133.648 Y119.164 E7.91483
G1 X133.122 Y119.853 E7.93645
G1 X132.912 Y120.119 E7.94491
G1 X132.643 Y120.448 E7.95551
G1 X132.069 Y121.091 E7.97701
G1 X131.676 Y121.496 E7.99109
G1 X131.454 Y121.718 E7.99892
G1 X131.102 Y122.059 E8.01114
G1 X130.488 Y122.608 E8.03169
G1 X130.037 Y122.979 E8.04626
G1 X129.781 Y123.182 E8.05441
G1 X129.329 Y123.53 E8.06864
G1 X128.618 Y124.031 E8.09033
G1 X128.035 Y124.405 E8.10761
G1 X127.759 Y124.576 E8.11571
G1 X127.389 Y124.797 E8.12646
G1 X126.603 Y125.221 E8.14874
G1 X124.942 Y126.024 E8.19476
G1 X123.555 Y126.691 E8.23315
G1 X123.26 Y126.841 E8.24141
G1 X122.516 Y127.207 E8.26209
G1 X121.955 Y127.462 E8.27746
G1 X121.556 Y127.629 E8.28825
G1 X120.71 Y127.94 E8.31074
G1 X119.84 Y128.174 E8.33321
