;FLAVOR:Marlin
;TIME:1925
;Filament used: 0.939223m
;Layer height: 0.2
;MINX:40.45
;MINY:43.032
;MINZ:0.2
;MAXX:83.95
;MAXY:86.532
;MAXZ:17
;Generated with Cura_SteamEngine 4.9.0
M140 S75
M105
M190 S75
M104 S240
M105
M109 S240
M82 ;absolute extrusion mode
M201 X500.00 Y500.00 Z100.00 E5000.00 ;Setup machine max acceleration
M203 X500.00 Y500.00 Z10.00 E50.00 ;Setup machine max feedrate
M204 P500.00 R1000.00 T500.00 ;Setup Print/Retract/Travel acceleration
M205 X8.00 Y8.00 Z0.40 E5.00 ;Setup Jerk
M220 S100 ;Reset Feedrate
M221 S100 ;Reset Flowrate

G28 ;Home

G92 E0 ;Reset Extruder
G1 Z2.0 F3000 ;Move Z Axis up
G1 X10.1 Y20 Z0.28 F5000.0 ;Move to start position
G1 X10.1 Y200.0 Z0.12 F1500.0 E15 ;Draw the first line
G1 X10.6 Y200.0 Z0.12 F5000.0 ;Move to side a little
G1 X10.6 Y20 Z0.12 F1500.0 E30 ;Draw the second line
G92 E0 ;Reset Extruder
G1 Z3.0 F3000 ;Move Z Axis up
G92 E0
G92 E0
G1 F900 E-3
;LAYER_COUNT:85
;LAYER:0
M106 S25.5
G0 F6000 X43.643 Y46.155 Z0.2
;TYPE:SKIRT
G1 F900 E0
G1 X44.329 Y45.531 E0.02313
G1 X45.066 Y44.969 E0.04625
G1 X45.849 Y44.473 E0.06937
G1 X46.672 Y44.045 E0.09251
G1 X47.528 Y43.691 E0.11562
G1 X48.412 Y43.411 E0.13875
G1 X49.317 Y43.209 E0.16188
G1 X50.236 Y43.085 E0.18501
G1 X50.908 Y43.045 E0.20181
G1 X51.229 Y43.036 E0.20982
G1 X51.53 Y43.032 E0.21733
G1 X72.493 Y43.032 E0.74025
G1 X73.345 Y43.043 E0.76151
G1 X74.271 Y43.096 E0.78464
G1 X75.188 Y43.229 E0.80776
G1 X76.091 Y43.441 E0.8309
G1 X76.972 Y43.729 E0.85402
G1 X77.825 Y44.092 E0.87714
G1 X78.644 Y44.528 E0.90029
G1 X79.422 Y45.032 E0.92341
G1 X80.153 Y45.601 E0.94652
G1 X80.833 Y46.232 E0.96966
G1 X81.456 Y46.918 E0.99277
G1 X82.018 Y47.656 E1.01591
G1 X82.514 Y48.439 E1.03903
G1 X82.94 Y49.263 E1.06217
G1 X83.294 Y50.119 E1.08528
G1 X83.573 Y51.004 E1.10843
G1 X83.775 Y51.909 E1.13156
G1 X83.898 Y52.828 E1.15469
G1 X83.937 Y53.49 E1.17123
G1 X83.946 Y53.81 E1.17922
G1 X83.95 Y54.112 E1.18675
G1 X83.949 Y75.179 E1.71227
G1 X83.94 Y75.906 E1.73041
G1 X83.889 Y76.832 E1.75354
G1 X83.758 Y77.75 E1.77667
G1 X83.548 Y78.653 E1.7998
G1 X83.261 Y79.534 E1.82291
G1 X82.9 Y80.388 E1.84604
G1 X82.466 Y81.208 E1.86918
G1 X81.963 Y81.987 E1.89231
G1 X81.395 Y82.719 E1.91543
G1 X80.766 Y83.4 E1.93855
G1 X80.081 Y84.025 E1.96168
G1 X79.344 Y84.588 E1.98482
G1 X78.562 Y85.085 E2.00793
G1 X77.739 Y85.513 E2.03107
G1 X76.883 Y85.869 E2.0542
G1 X76 Y86.15 E2.07731
G1 X75.095 Y86.353 E2.10045
G1 X74.176 Y86.478 E2.12358
G1 X73.492 Y86.519 E2.14068
G1 X73.171 Y86.528 E2.14869
G1 X72.87 Y86.532 E2.1562
G1 X51.768 Y86.531 E2.68259
G1 X51.07 Y86.522 E2.7
G1 X50.145 Y86.47 E2.72311
G1 X49.227 Y86.339 E2.74624
G1 X48.324 Y86.129 E2.76937
G1 X47.442 Y85.842 E2.79251
G1 X46.589 Y85.479 E2.81563
G1 X45.77 Y85.045 E2.83875
G1 X44.991 Y84.542 E2.86188
G1 X44.258 Y83.974 E2.88502
G1 X43.578 Y83.344 E2.90814
G1 X42.954 Y82.659 E2.93125
G1 X42.391 Y81.922 E2.95439
G1 X41.894 Y81.139 E2.97752
G1 X41.466 Y80.316 E3.00066
G1 X41.111 Y79.46 E3.02378
G1 X40.831 Y78.576 E3.04691
G1 X40.628 Y77.672 E3.07002
G1 X40.504 Y76.753 E3.09316
G1 X40.463 Y76.063 E3.1104
G1 X40.454 Y75.73 E3.11871
G1 X40.45 Y75.44 E3.12594
G1 X40.451 Y54.311 E3.65301
G1 X40.46 Y53.646 E3.6696
G1 X40.512 Y52.72 E3.69273
G1 X40.645 Y51.802 E3.71587
G1 X40.855 Y50.899 E3.739
G1 X41.143 Y50.018 E3.76212
G1 X41.505 Y49.165 E3.78523
G1 X41.94 Y48.346 E3.80837
G1 X42.444 Y47.567 E3.83151
G1 X43.013 Y46.835 E3.85464
G1 X43.643 Y46.155 E3.87776
G0 F6000 X43.936 Y46.287
G1 F900 X44.62 Y45.68 E3.90058
G1 X45.354 Y45.135 E3.92338
G1 X46.133 Y44.657 E3.94618
G1 X46.95 Y44.248 E3.96897
G1 X47.801 Y43.912 E3.99179
G1 X48.677 Y43.652 E4.01459
G1 X49.573 Y43.47 E4.03739
G1 X50.916 Y43.345 E4.07104
G1 X51.237 Y43.336 E4.07905
G1 X51.53 Y43.332 E4.08636
G1 X72.493 Y43.332 E4.60929
G1 X73.341 Y43.343 E4.63044
G1 X74.253 Y43.396 E4.65323
G1 X75.158 Y43.529 E4.67605
G1 X76.047 Y43.74 E4.69884
G1 X76.915 Y44.028 E4.72165
G1 X77.754 Y44.391 E4.74446
G1 X78.558 Y44.825 E4.76725
G1 X79.321 Y45.329 E4.79006
G1 X80.037 Y45.897 E4.81286
G1 X80.701 Y46.525 E4.83565
G1 X81.307 Y47.209 E4.85845
G1 X81.851 Y47.944 E4.88126
G1 X82.329 Y48.723 E4.90406
G1 X82.737 Y49.541 E4.92686
G1 X83.072 Y50.392 E4.94968
G1 X83.332 Y51.268 E4.97247
G1 X83.513 Y52.164 E4.99527
G1 X83.637 Y53.498 E5.02869
G1 X83.646 Y53.818 E5.03668
G1 X83.65 Y54.112 E5.04401
G1 X83.649 Y75.175 E5.56943
G1 X83.64 Y75.902 E5.58757
G1 X83.589 Y76.815 E5.61038
G1 X83.458 Y77.72 E5.63319
G1 X83.249 Y78.61 E5.65599
G1 X82.962 Y79.478 E5.6788
G1 X82.601 Y80.317 E5.70158
G1 X82.168 Y81.122 E5.72438
G1 X81.666 Y81.886 E5.74719
G1 X81.1 Y82.604 E5.76999
G1 X80.472 Y83.269 E5.79281
G1 X79.789 Y83.876 E5.8156
G1 X79.056 Y84.422 E5.8384
G1 X78.278 Y84.901 E5.86119
G1 X77.461 Y85.311 E5.884
G1 X76.611 Y85.648 E5.90681
G1 X75.735 Y85.909 E5.92961
G1 X74.839 Y86.092 E5.95242
G1 X73.484 Y86.219 E5.98637
G1 X73.163 Y86.228 E5.99438
G1 X72.87 Y86.232 E6.00169
G1 X51.772 Y86.231 E6.52798
G1 X51.074 Y86.222 E6.54539
G1 X50.162 Y86.17 E6.56818
G1 X49.257 Y86.039 E6.59099
G1 X48.367 Y85.829 E6.6138
G1 X47.499 Y85.542 E6.63661
G1 X46.66 Y85.181 E6.65939
G1 X45.855 Y84.747 E6.6822
G1 X45.091 Y84.245 E6.70501
G1 X44.374 Y83.678 E6.72781
G1 X43.71 Y83.05 E6.75061
G1 X43.102 Y82.367 E6.77342
G1 X42.557 Y81.634 E6.7962
G1 X42.078 Y80.855 E6.81902
G1 X41.669 Y80.038 E6.84181
G1 X41.333 Y79.188 E6.86461
G1 X41.072 Y78.311 E6.88743
G1 X40.889 Y77.416 E6.91022
G1 X40.763 Y76.055 E6.94432
G1 X40.754 Y75.722 E6.95263
G1 X40.75 Y75.44 E6.95966
G1 X40.751 Y54.315 E7.48663
G1 X40.76 Y53.65 E7.50322
G1 X40.812 Y52.737 E7.52603
G1 X40.944 Y51.832 E7.54884
G1 X41.155 Y50.943 E7.57163
G1 X41.442 Y50.075 E7.59444
G1 X41.804 Y49.236 E7.61723
G1 X42.238 Y48.431 E7.64005
G1 X42.741 Y47.668 E7.66284
G1 X43.308 Y46.951 E7.68565
G1 X43.936 Y46.287 E7.70844
G0 F6000 X44.23 Y46.421
G1 F900 X44.911 Y45.831 E7.73092
G1 X45.641 Y45.304 E7.75338
G1 X46.416 Y44.844 E7.77586
G1 X47.228 Y44.454 E7.79833
G1 X48.072 Y44.138 E7.82081
G1 X48.94 Y43.898 E7.84328
G1 X49.826 Y43.736 E7.86574
G1 X50.925 Y43.645 E7.89325
G1 X51.246 Y43.636 E7.90126
G1 X51.53 Y43.632 E7.90835
G1 X72.493 Y43.632 E8.43127
G1 X73.336 Y43.643 E8.4523
G1 X74.236 Y43.696 E8.47479
G1 X75.127 Y43.828 E8.49726
G1 X76.003 Y44.039 E8.51974
G1 X76.856 Y44.327 E8.5422
G1 X77.681 Y44.689 E8.56467
G1 X78.471 Y45.123 E8.58716
G1 X79.219 Y45.626 E8.60964
G1 X79.919 Y46.192 E8.6321
G1 X80.566 Y46.819 E8.65457
G1 X81.156 Y47.5 E8.67705
G1 X81.682 Y48.231 E8.69951
G1 X82.142 Y49.006 E8.72199
G1 X82.531 Y49.818 E8.74445
G1 X82.846 Y50.662 E8.76693
G1 X83.086 Y51.531 E8.78941
G1 X83.247 Y52.417 E8.81188
G1 X83.337 Y53.507 E8.83916
G1 X83.346 Y53.827 E8.84715
G1 X83.35 Y54.112 E8.85426
G1 X83.349 Y75.172 E9.3796
G1 X83.34 Y75.899 E9.39774
G1 X83.289 Y76.798 E9.4202
G1 X83.158 Y77.689 E9.44266
G1 X82.949 Y78.566 E9.46515
G1 X82.663 Y79.42 E9.48762
G1 X82.302 Y80.246 E9.51011
G1 X81.87 Y81.036 E9.53257
G1 X81.369 Y81.785 E9.55504
G1 X80.804 Y82.486 E9.5775
G1 X80.179 Y83.135 E9.59998
G1 X79.498 Y83.725 E9.62246
G1 X78.768 Y84.253 E9.64493
G1 X77.994 Y84.714 E9.6674
G1 X77.183 Y85.105 E9.68986
G1 X76.34 Y85.422 E9.71233
G1 X75.472 Y85.663 E9.7348
G1 X74.586 Y85.827 E9.75728
G1 X73.475 Y85.919 E9.78508
G1 X73.154 Y85.928 E9.7931
G1 X72.87 Y85.932 E9.80018
G1 X51.776 Y85.931 E10.32637
G1 X51.078 Y85.922 E10.34379
G1 X50.179 Y85.871 E10.36625
G1 X49.287 Y85.739 E10.38874
G1 X48.411 Y85.53 E10.41121
G1 X47.557 Y85.243 E10.43368
G1 X46.732 Y84.882 E10.45614
G1 X45.942 Y84.449 E10.47862
G1 X45.193 Y83.948 E10.50109
G1 X44.492 Y83.382 E10.52357
G1 X43.844 Y82.757 E10.54603
G1 X43.253 Y82.076 E10.56852
G1 X42.726 Y81.346 E10.59098
G1 X42.265 Y80.572 E10.61345
G1 X41.875 Y79.76 E10.63592
G1 X41.558 Y78.917 E10.65839
G1 X41.317 Y78.048 E10.68088
G1 X41.155 Y77.162 E10.70335
G1 X41.063 Y76.047 E10.73126
G1 X41.054 Y75.714 E10.73957
G1 X41.05 Y75.44 E10.74641
G1 X41.051 Y54.319 E11.27327
G1 X41.06 Y53.654 E11.28986
G1 X41.112 Y52.754 E11.31235
G1 X41.244 Y51.863 E11.33482
G1 X41.454 Y50.987 E11.35729
G1 X41.741 Y50.133 E11.37976
G1 X42.103 Y49.308 E11.40224
G1 X42.536 Y48.518 E11.42471
G1 X43.038 Y47.77 E11.44718
G1 X43.604 Y47.069 E11.46966
G1 X44.23 Y46.421 E11.49213
G1 F900 E8.49213
;MESH:SHablon_cover.stl
G0 F6000 X56.259 Y69.449
G0 X56.388 Y67.895
G0 X58.028 Y69.322
G0 X58.334 Y69.872
G0 X58.803 Y71.677
;TYPE:WALL-INNER
G1 F900 E11.49213
G1 X58.915 Y71.229 E11.50365
G1 X58.952 Y70.772 E11.51509
G1 X58.912 Y70.312 E11.52661
G1 X58.796 Y69.866 E11.5381
G1 X58.605 Y69.444 E11.54966
G1 X58.349 Y69.064 E11.56109
G1 X58.034 Y68.731 E11.57252
G1 X57.667 Y68.452 E11.58402
G1 X57.255 Y68.24 E11.59558
G1 X56.817 Y68.102 E11.60703
G1 X56.376 Y68.036 E11.61816
G1 X56.119 Y68.032 E11.62457
G1 X55.672 Y68.082 E11.63579
G1 X55.23 Y68.206 E11.64724
G1 X54.813 Y68.404 E11.65875
G1 X54.437 Y68.669 E11.67023
G1 X54.111 Y68.991 E11.68166
G1 X53.84 Y69.365 E11.69318
G1 X53.635 Y69.781 E11.70475
G1 X53.506 Y70.222 E11.71621
G1 X53.45 Y70.676 E11.72762
G1 X53.47 Y71.139 E11.73918
G1 X53.568 Y71.589 E11.75067
G1 X53.74 Y72.015 E11.76213
G1 X53.98 Y72.409 E11.77364
G1 X54.282 Y72.755 E11.7851
G1 X54.638 Y73.048 E11.7966
G1 X55.039 Y73.277 E11.80812
G1 X55.472 Y73.435 E11.81961
G1 X55.924 Y73.518 E11.83108
G1 X56.382 Y73.527 E11.8425
G1 X56.84 Y73.459 E11.85406
G1 X57.277 Y73.315 E11.86553
G1 X57.686 Y73.099 E11.87707
G1 X58.051 Y72.818 E11.88856
G1 X58.364 Y72.482 E11.90002
G1 X58.616 Y72.098 E11.91147
G1 X58.803 Y71.677 E11.92296
G0 F6000 X58.518 Y71.579
G1 F900 X58.618 Y71.18 E11.93323
G1 X58.651 Y70.773 E11.94341
G1 X58.615 Y70.363 E11.95368
G1 X58.512 Y69.966 E11.96391
G1 X58.342 Y69.591 E11.97418
G1 X58.114 Y69.252 E11.98437
G1 X57.833 Y68.955 E11.99457
G1 X57.506 Y68.707 E12.00481
G1 X57.14 Y68.518 E12.01508
G1 X56.75 Y68.395 E12.02528
G1 X56.351 Y68.336 E12.03535
G1 X56.133 Y68.332 E12.04078
G1 X55.73 Y68.377 E12.0509
G1 X55.336 Y68.488 E12.06111
G1 X54.965 Y68.664 E12.07135
G1 X54.63 Y68.9 E12.08158
G1 X54.339 Y69.187 E12.09177
G1 X54.098 Y69.52 E12.10203
G1 X53.916 Y69.89 E12.11231
G1 X53.801 Y70.283 E12.12253
G1 X53.751 Y70.688 E12.13271
G1 X53.769 Y71.1 E12.14299
G1 X53.856 Y71.5 E12.1532
G1 X54.009 Y71.88 E12.16342
G1 X54.223 Y72.231 E12.17368
G1 X54.492 Y72.539 E12.18388
G1 X54.809 Y72.8 E12.19412
G1 X55.166 Y73.004 E12.20438
G1 X55.551 Y73.145 E12.21461
G1 X55.954 Y73.219 E12.22483
G1 X56.363 Y73.227 E12.23503
G1 X56.77 Y73.166 E12.2453
G1 X57.159 Y73.038 E12.25551
G1 X57.523 Y72.846 E12.26578
G1 X57.848 Y72.595 E12.27602
G1 X58.127 Y72.296 E12.28622
G1 X58.352 Y71.954 E12.29644
G1 X58.518 Y71.579 E12.30667
G0 F6000 X58.233 Y71.481
;TYPE:WALL-OUTER
G1 F900 X58.321 Y71.131 E12.31567
G1 X58.35 Y70.774 E12.3246
G1 X58.318 Y70.414 E12.33362
G1 X58.228 Y70.066 E12.34258
G1 X58.079 Y69.738 E12.35157
G1 X57.879 Y69.44 E12.36052
G1 X57.632 Y69.179 E12.36949
G1 X57.345 Y68.962 E12.37846
G1 X57.025 Y68.796 E12.38746
G1 X56.683 Y68.688 E12.3964
G1 X56.326 Y68.636 E12.4054
G1 X56.146 Y68.632 E12.40989
G1 X55.788 Y68.672 E12.41888
G1 X55.442 Y68.77 E12.42785
G1 X55.117 Y68.924 E12.43682
G1 X54.823 Y69.131 E12.44579
G1 X54.567 Y69.383 E12.45475
G1 X54.356 Y69.675 E12.46374
G1 X54.197 Y69.999 E12.47274
G1 X54.096 Y70.344 E12.48171
G1 X54.052 Y70.7 E12.49066
G1 X54.068 Y71.061 E12.49967
G1 X54.144 Y71.412 E12.50863
G1 X54.278 Y71.745 E12.51758
G1 X54.466 Y72.053 E12.52658
G1 X54.702 Y72.323 E12.53553
G1 X54.98 Y72.552 E12.54451
G1 X55.293 Y72.731 E12.55351
G1 X55.63 Y72.855 E12.56247
G1 X55.984 Y72.92 E12.57144
G1 X56.343 Y72.927 E12.5804
G1 X56.7 Y72.873 E12.58941
G1 X57.041 Y72.761 E12.59836
G1 X57.36 Y72.593 E12.60735
G1 X57.645 Y72.373 E12.61634
G1 X57.89 Y72.11 E12.6253
G1 X58.088 Y71.81 E12.63427
G1 X58.233 Y71.481 E12.64324
G0 F6000 X58.545 Y71.588
G1 F900 E9.64324
G0 F6000 X58.95 Y71.67
G0 X57.461 Y71.217
G0 X58.95 Y76.447
G0 X58.95 Y74.872
G0 X72.45 Y75.032
;TYPE:WALL-INNER
G1 F900 E12.64324
G1 X51.95 Y75.032 E13.15461
G1 X51.95 Y54.532 E13.66599
G1 X72.45 Y54.532 E14.17736
G1 X72.45 Y75.032 E14.68873
G0 F6000 X72.75 Y75.332
G1 F900 X51.65 Y75.332 E15.21508
G1 X51.65 Y54.232 E15.74142
G1 X72.75 Y54.232 E16.26776
G1 X72.75 Y75.332 E16.7941
G0 F6000 X73.05 Y75.632
;TYPE:WALL-OUTER
G1 F900 X51.35 Y75.632 E17.33541
G1 X51.35 Y53.932 E17.87672
G1 X73.05 Y53.932 E18.41803
G1 X73.05 Y75.632 E18.95934
G0 F6000 X72.83 Y75.412
G0 X72.39 Y74.742
G0 X72.16 Y74.742
;TYPE:SKIN
G1 F900 X52.24 Y74.742 E19.45624
G1 X52.24 Y54.822 E19.95315
G1 X72.16 Y54.822 E20.45006
G1 X72.16 Y74.742 E20.94696
G1 F900 E17.94696
G0 F6000 X72.39 Y74.742
G0 X58.861 Y74.872
G0 X58.74 Y72.166
G0 X58.861 Y71.697
G0 X59.078 Y71.772
G1 F900 E20.94696
G1 X59.203 Y71.276 E20.95972
G1 X59.244 Y70.771 E20.97236
G1 X59.198 Y70.262 E20.98511
G1 X59.07 Y69.769 E20.99781
G1 X58.859 Y69.302 E21.0106
G1 X58.576 Y68.882 E21.02323
G1 X58.229 Y68.514 E21.03585
G1 X57.822 Y68.206 E21.04858
G1 X57.366 Y67.971 E21.06138
G1 X56.883 Y67.818 E21.07402
G1 X56.399 Y67.746 E21.08622
G1 X56.105 Y67.742 E21.09356
G1 X55.616 Y67.796 E21.10583
G1 X55.128 Y67.933 E21.11847
G1 X54.666 Y68.153 E21.13124
G1 X54.25 Y68.446 E21.14393
G1 X53.89 Y68.801 E21.15654
G1 X53.591 Y69.214 E21.16926
G1 X53.364 Y69.675 E21.18208
G1 X53.221 Y70.164 E21.19479
G1 X53.16 Y70.664 E21.20735
G1 X53.182 Y71.176 E21.22014
G1 X53.29 Y71.674 E21.23285
G1 X53.481 Y72.146 E21.24555
G1 X53.746 Y72.581 E21.25826
G1 X54.079 Y72.964 E21.27092
G1 X54.473 Y73.288 E21.28364
G1 X54.917 Y73.541 E21.29639
G1 X55.395 Y73.716 E21.30909
G1 X55.895 Y73.808 E21.32177
G1 X56.401 Y73.817 E21.33439
G1 X56.907 Y73.742 E21.34715
G1 X57.391 Y73.583 E21.35986
G1 X57.843 Y73.344 E21.37262
G1 X58.247 Y73.033 E21.38533
G1 X58.593 Y72.662 E21.39799
G1 X58.871 Y72.237 E21.41066
G1 X59.078 Y71.772 E21.42335
G1 F900 E18.42335
G0 F6000 X58.861 Y71.697
G0 X57.462 Y72.753
G0 X56.744 Y73.057
G0 X54.558 Y73.164
G0 X54.558 Y74.872
G0 X52.559 Y74.972
G0 X52.559 Y74.62
G1 F900 E21.42335
G1 X52.359 Y74.421 E21.43039
G0 F6000 X52.359 Y73.997
G1 F900 X52.983 Y74.62 E21.45239
G0 F6000 X53.407 Y74.62
G1 F900 X52.359 Y73.573 E21.48934
G0 F6000 X52.359 Y73.148
G1 F900 X53.832 Y74.62 E21.54129
G0 F6000 X54.256 Y74.62
G1 F900 X52.359 Y72.724 E21.60819
G0 F6000 X52.359 Y72.3
G1 F900 X54.68 Y74.62 E21.69005
G0 F6000 X55.104 Y74.62
G1 F900 X52.359 Y71.875 E21.78689
G0 F6000 X52.359 Y71.451
G1 F900 X55.529 Y74.62 E21.8987
G0 F6000 X55.953 Y74.62
G1 F900 X55.05 Y73.718 E21.93054
G0 F6000 X55.638 Y73.882
G1 F900 X56.377 Y74.62 E21.95659
G0 F6000 X56.801 Y74.62
G1 F900 X56.112 Y73.931 E21.9809
G0 F6000 X56.523 Y73.918
G1 F900 X57.226 Y74.62 E22.00568
G0 F6000 X57.65 Y74.62
G1 F900 X56.894 Y73.865 E22.03233
G0 F6000 X57.219 Y73.766
G1 F900 X58.074 Y74.62 E22.06248
G0 F6000 X58.498 Y74.62
G1 F900 X57.525 Y73.647 E22.0968
G0 F6000 X57.803 Y73.5
G1 F900 X58.923 Y74.62 E22.13632
G0 F6000 X59.347 Y74.62
G1 F900 X58.057 Y73.33 E22.18182
G0 F6000 X58.296 Y73.145
G1 F900 X59.771 Y74.62 E22.23386
G0 F6000 X60.196 Y74.62
G1 F900 X58.505 Y72.93 E22.2935
G0 F6000 X58.706 Y72.706
G1 F900 X60.62 Y74.62 E22.36102
G0 F6000 X61.044 Y74.62
G1 F900 X58.873 Y72.45 E22.43759
G0 F6000 X59.027 Y72.179
G1 F900 X61.468 Y74.62 E22.5237
G0 F6000 X61.893 Y74.62
G1 F900 X59.157 Y71.885 E22.6202
G0 F6000 X59.254 Y71.557
G1 F900 X62.317 Y74.62 E22.72826
G0 F6000 X62.741 Y74.62
G1 F900 X59.327 Y71.207 E22.84868
G0 F6000 X59.36 Y70.815
G1 F900 X63.165 Y74.62 E22.98291
G0 F6000 X63.59 Y74.62
G1 F900 X59.326 Y70.357 E23.13332
G0 F6000 X59.205 Y69.811
G1 F900 X64.014 Y74.62 E23.30297
G0 F6000 X64.438 Y74.62
G1 F900 X58.766 Y68.948 E23.50306
G0 F6000 X58.474 Y69.143
G0 X57.819 Y68.491
G0 X58.031 Y68.213
G1 F900 X52.359 Y62.542 E23.70314
G0 F6000 X52.359 Y62.966
G1 F900 X57.177 Y67.783 E23.87309
G0 F6000 X56.626 Y67.657
G1 F900 X52.359 Y63.39 E24.02362
G0 F6000 X52.359 Y63.814
G1 F900 X56.166 Y67.622 E24.15794
G0 F6000 X55.777 Y67.656
G1 F900 X52.359 Y64.239 E24.2785
G0 F6000 X52.359 Y64.663
G1 F900 X55.421 Y67.725 E24.38652
G0 F6000 X55.089 Y67.817
G1 F900 X52.359 Y65.087 E24.48283
G0 F6000 X52.359 Y65.512
G1 F900 X54.801 Y67.953 E24.56896
