(G-CODE GENERATED BY FLATCAM v8.993 - www.flatcam.org - Version Date: 2020/06/05)

(Name: CW.drl_cnc)
(Type: G-code from Excellon)
(Units: MM)

(Created on Wednesday, 08 December 2021 at 16:14)

(This preprocessor is the default preprocessor used by FlatCAM.)
(It is made to work with MACH3 compatible motion controllers.)


(TOOLS DIAMETER: )
(Tool: 1 -> Dia: 0.8)
(Tool: 2 -> Dia: 1.0)
(Tool: 3 -> Dia: 1.8)
(Tool: 4 -> Dia: 3.0)

(FEEDRATE Z: )
(Tool: 1 -> Feedrate: 70.0)
(Tool: 2 -> Feedrate: 70.0)
(Tool: 3 -> Feedrate: 70.0)
(Tool: 4 -> Feedrate: 70.0)

(FEEDRATE RAPIDS: )
(Tool: 1 -> Feedrate Rapids: 1500)
(Tool: 2 -> Feedrate Rapids: 1500)
(Tool: 3 -> Feedrate Rapids: 1500)
(Tool: 4 -> Feedrate Rapids: 1500)

(Z_CUT: )
(Tool: 1 -> Z_Cut: -1.9000000000000001)
(Tool: 2 -> Z_Cut: -1.9000000000000001)
(Tool: 3 -> Z_Cut: -1.9000000000000001)
(Tool: 4 -> Z_Cut: -1.9000000000000001)

(Tools Offset: )
(Tool: 1 -> Offset Z: -0.0)
(Tool: 2 -> Offset Z: -0.0)
(Tool: 3 -> Offset Z: -0.0)

(Z_MOVE: )
(Tool: 1 -> Z_Move: 2)
(Tool: 2 -> Z_Move: 2)
(Tool: 3 -> Z_Move: 2)
(Tool: 4 -> Z_Move: 2)

(Z Toolchange: 25.0 mm)
(X,Y Toolchange: 0.00, 0.00 mm)
(Z Start: None mm)
(Z End: 2.0 mm)
(Steps per circle: 128)
(Preprocessor Excellon: default)

(X range:  -43.2500 ...   -1.6800  mm)
(Y range:    1.4000 ...   38.4900  mm)

(Spindle Speed: 10000.0 RPM)
G21
G90
G94



G01 F70.00

M5
G00 Z25.0000
T1
G00 X0.0000 Y0.0000                
M6
(MSG, Change to Tool Dia = 0.80 ||| Total drills for tool T1 = 19)
M0
G00 Z25.0000

M03 S10000
G00 X-27.3000 Y14.1300
G01 Z-1.9000
G01 Z0
G00 Z2.0000
G00 X-23.5000 Y14.1300
G01 Z-1.9000
G01 Z0
G00 Z2.0000
G00 X-19.6800 Y14.1300
G01 Z-1.9000
G01 Z0
G00 Z2.0000
G00 X-23.5000 Y17.9400
G01 Z-1.9000
G01 Z0
G00 Z2.0000
G00 X-20.3200 Y20.9600
G01 Z-1.9000
G01 Z0
G00 Z2.0000
G00 X-17.7800 Y20.9600
G01 Z-1.9000
G01 Z0
G00 Z2.0000
G00 X-17.7800 Y28.5800
G01 Z-1.9000
G01 Z0
G00 Z2.0000
G00 X-20.3200 Y28.5800
G01 Z-1.9000
G01 Z0
G00 Z2.0000
G00 X-19.6800 Y31.9100
G01 Z-1.9000
G01 Z0
G00 Z2.0000
G00 X-19.6800 Y35.7200
G01 Z-1.9000
G01 Z0
G00 Z2.0000
G00 X-23.5000 Y35.7200
G01 Z-1.9000
G01 Z0
G00 Z2.0000
G00 X-23.5000 Y31.9100
G01 Z-1.9000
G01 Z0
G00 Z2.0000
G00 X-27.3000 Y31.9100
G01 Z-1.9000
G01 Z0
G00 Z2.0000
G00 X-27.3000 Y35.7200
G01 Z-1.9000
G01 Z0
G00 Z2.0000
G00 X-31.1200 Y35.7200
G01 Z-1.9000
G01 Z0
G00 Z2.0000
G00 X-31.1200 Y31.9100
G01 Z-1.9000
G01 Z0
G00 Z2.0000
G00 X-30.4800 Y28.5800
G01 Z-1.9000
G01 Z0
G00 Z2.0000
G00 X-30.4800 Y20.9600
G01 Z-1.9000
G01 Z0
G00 Z2.0000
G00 X-27.3000 Y17.9400
G01 Z-1.9000
G01 Z0
G00 Z2.0000
G01 F70.00

M5
G00 Z25.0000
T2
G00 X0.0000 Y0.0000                
M6
(MSG, Change to Tool Dia = 1.00 ||| Total drills for tool T2 = 6)
M0
G00 Z25.0000

M03 S10000
G00 X-13.1800 Y1.9000
G01 Z-1.9000
G01 Z0
G00 Z2.0000
G00 X-13.1800 Y5.4000
G01 Z-1.9000
G01 Z0
G00 Z2.0000
G00 X-13.1800 Y8.8900
G01 Z-1.9000
G01 Z0
G00 Z2.0000
G00 X-7.4600 Y8.8900
G01 Z-1.9000
G01 Z0
G00 Z2.0000
G00 X-7.4600 Y5.4000
G01 Z-1.9000
G01 Z0
G00 Z2.0000
G00 X-7.4600 Y1.9000
G01 Z-1.9000
G01 Z0
G00 Z2.0000
G01 F70.00

M5
G00 Z25.0000
T3
G00 X0.0000 Y0.0000                
M6
(MSG, Change to Tool Dia = 1.80 ||| Total drills for tool T3 = 6)
M0
G00 Z25.0000

M03 S10000
G00 X-11.7500 Y20.0000
G01 Z-1.9000
G01 Z0
G00 Z2.0000
G00 X-11.7500 Y24.7600
G01 Z-1.9000
G01 Z0
G00 Z2.0000
G00 X-11.7500 Y29.5300
G01 Z-1.9000
G01 Z0
G00 Z2.0000
G00 X-6.6700 Y29.5300
G01 Z-1.9000
G01 Z0
G00 Z2.0000
G00 X-6.6700 Y24.7600
G01 Z-1.9000
G01 Z0
G00 Z2.0000
G00 X-6.6700 Y20.0000
G01 Z-1.9000
G01 Z0
G00 Z2.0000
M05
G00 Z2.00

