(G-CODE GENERATED BY FLATCAM v8.993 - www.flatcam.org - Version Date: 2020/06/05)

(Name: CW.drl_mill_cnc)
(Type: G-code from Geometry)
(Units: MM)

(Created on Wednesday, 08 December 2021 at 16:15)

(This preprocessor is the default preprocessor used by FlatCAM.)
(It is made to work with MACH3 compatible motion controllers.)

(TOOL DIAMETER: 2.0 mm)
(Feedrate_XY: 120.0 mm/min)
(Feedrate_Z: 70.0 mm/min)
(Feedrate rapids 1500.0 mm/min)

(Z_Cut: -1.9 mm)
(DepthPerCut: 0.1 mm <=>19 passes)
(Z_Move: 2.0 mm)
(Z Start: None mm)
(Z End: 25.0 mm)
(Steps per circle: 128)
(Preprocessor Geometry: default)

(X range:  -42.2500 ...   -2.6800  mm)
(Y range:    2.6800 ...   37.4900  mm)

(Spindle Speed: 10000 RPM)
G21
G90
G94



G01 F120.00
G00 Z2.0000

M03 S10000
G00 X-2.6800 Y3.1800
G01 F70.00
G01 Z-0.1000
G01 F120.00
G01 X-2.6824 Y3.1310
G01 X-2.6896 Y3.0825
G01 X-2.7015 Y3.0349
G01 X-2.7181 Y2.9887
G01 X-2.7390 Y2.9443
G01 X-2.7643 Y2.9022
G01 X-2.7935 Y2.8628
G01 X-2.8264 Y2.8264
G01 X-2.8628 Y2.7935
G01 X-2.9022 Y2.7643
G01 X-2.9443 Y2.7390
G01 X-2.9887 Y2.7181
G01 X-3.0349 Y2.7015
G01 X-3.0825 Y2.6896
G01 X-3.1310 Y2.6824
G01 X-3.1800 Y2.6800
G01 X-3.2290 Y2.6824
G01 X-3.2775 Y2.6896
G01 X-3.3251 Y2.7015
G01 X-3.3713 Y2.7181
G01 X-3.4157 Y2.7390
G01 X-3.4578 Y2.7643
G01 X-3.4972 Y2.7935
G01 X-3.5336 Y2.8264
G01 X-3.5665 Y2.8628
G01 X-3.5957 Y2.9022
G01 X-3.6210 Y2.9443
G01 X-3.6419 Y2.9887
G01 X-3.6585 Y3.0349
G01 X-3.6704 Y3.0825
G01 X-3.6776 Y3.1310
G01 X-3.6800 Y3.1800
G01 X-3.6776 Y3.2290
G01 X-3.6704 Y3.2775
G01 X-3.6585 Y3.3251
G01 X-3.6419 Y3.3713
G01 X-3.6210 Y3.4157
G01 X-3.5957 Y3.4578
G01 X-3.5665 Y3.4972
G01 X-3.5336 Y3.5336
G01 X-3.4972 Y3.5665
G01 X-3.4578 Y3.5957
G01 X-3.4157 Y3.6210
G01 X-3.3713 Y3.6419
G01 X-3.3251 Y3.6585
G01 X-3.2775 Y3.6704
G01 X-3.2290 Y3.6776
G01 X-3.1800 Y3.6800
G01 X-3.1310 Y3.6776
G01 X-3.0825 Y3.6704
G01 X-3.0349 Y3.6585
G01 X-2.9887 Y3.6419
G01 X-2.9443 Y3.6210
G01 X-2.9022 Y3.5957
G01 X-2.8628 Y3.5665
G01 X-2.8264 Y3.5336
G01 X-2.7935 Y3.4972
G01 X-2.7643 Y3.4578
G01 X-2.7390 Y3.4157
G01 X-2.7181 Y3.3713
G01 X-2.7015 Y3.3251
G01 X-2.6896 Y3.2775
G01 X-2.6824 Y3.2290
G01 X-2.6800 Y3.1800
G00 X-2.6800 Y3.1800
G01 F70.00
G01 Z-0.2000
G01 F120.00
G01 X-2.6824 Y3.1310
G01 X-2.6896 Y3.0825
G01 X-2.7015 Y3.0349
G01 X-2.7181 Y2.9887
G01 X-2.7390 Y2.9443
G01 X-2.7643 Y2.9022
G01 X-2.7935 Y2.8628
G01 X-2.8264 Y2.8264
G01 X-2.8628 Y2.7935
G01 X-2.9022 Y2.7643
G01 X-2.9443 Y2.7390
G01 X-2.9887 Y2.7181
G01 X-3.0349 Y2.7015
G01 X-3.0825 Y2.6896
G01 X-3.1310 Y2.6824
G01 X-3.1800 Y2.6800
G01 X-3.2290 Y2.6824
G01 X-3.2775 Y2.6896
G01 X-3.3251 Y2.7015
G01 X-3.3713 Y2.7181
G01 X-3.4157 Y2.7390
G01 X-3.4578 Y2.7643
G01 X-3.4972 Y2.7935
G01 X-3.5336 Y2.8264
G01 X-3.5665 Y2.8628
G01 X-3.5957 Y2.9022
G01 X-3.6210 Y2.9443
G01 X-3.6419 Y2.9887
G01 X-3.6585 Y3.0349
G01 X-3.6704 Y3.0825
G01 X-3.6776 Y3.1310
G01 X-3.6800 Y3.1800
G01 X-3.6776 Y3.2290
G01 X-3.6704 Y3.2775
G01 X-3.6585 Y3.3251
G01 X-3.6419 Y3.3713
G01 X-3.6210 Y3.4157
G01 X-3.5957 Y3.4578
G01 X-3.5665 Y3.4972
G01 X-3.5336 Y3.5336
G01 X-3.4972 Y3.5665
G01 X-3.4578 Y3.5957
G01 X-3.4157 Y3.6210
G01 X-3.3713 Y3.6419
G01 X-3.3251 Y3.6585
G01 X-3.2775 Y3.6704
G01 X-3.2290 Y3.6776
G01 X-3.1800 Y3.6800
G01 X-3.1310 Y3.6776
G01 X-3.0825 Y3.6704
G01 X-3.0349 Y3.6585
G01 X-2.9887 Y3.6419
G01 X-2.9443 Y3.6210
G01 X-2.9022 Y3.5957
G01 X-2.8628 Y3.5665
G01 X-2.8264 Y3.5336
G01 X-2.7935 Y3.4972
G01 X-2.7643 Y3.4578
G01 X-2.7390 Y3.4157
G01 X-2.7181 Y3.3713
G01 X-2.7015 Y3.3251
G01 X-2.6896 Y3.2775
G01 X-2.6824 Y3.2290
G01 X-2.6800 Y3.1800
G00 X-2.6800 Y3.1800
G01 F70.00
G01 Z-0.3000
G01 F120.00
G01 X-2.6824 Y3.1310
G01 X-2.6896 Y3.0825
G01 X-2.7015 Y3.0349
G01 X-2.7181 Y2.9887
G01 X-2.7390 Y2.9443
G01 X-2.7643 Y2.9022
G01 X-2.7935 Y2.8628
G01 X-2.8264 Y2.8264
G01 X-2.8628 Y2.7935
G01 X-2.9022 Y2.7643
G01 X-2.9443 Y2.7390
G01 X-2.9887 Y2.7181
G01 X-3.0349 Y2.7015
G01 X-3.0825 Y2.6896
G01 X-3.1310 Y2.6824
G01 X-3.1800 Y2.6800
G01 X-3.2290 Y2.6824
G01 X-3.2775 Y2.6896
G01 X-3.3251 Y2.7015
G01 X-3.3713 Y2.7181
G01 X-3.4157 Y2.7390
G01 X-3.4578 Y2.7643
G01 X-3.4972 Y2.7935
G01 X-3.5336 Y2.8264
G01 X-3.5665 Y2.8628
G01 X-3.5957 Y2.9022
G01 X-3.6210 Y2.9443
G01 X-3.6419 Y2.9887
G01 X-3.6585 Y3.0349
G01 X-3.6704 Y3.0825
G01 X-3.6776 Y3.1310
G01 X-3.6800 Y3.1800
G01 X-3.6776 Y3.2290
G01 X-3.6704 Y3.2775
G01 X-3.6585 Y3.3251
G01 X-3.6419 Y3.3713
G01 X-3.6210 Y3.4157
G01 X-3.5957 Y3.4578
G01 X-3.5665 Y3.4972
G01 X-3.5336 Y3.5336
G01 X-3.4972 Y3.5665
G01 X-3.4578 Y3.5957
G01 X-3.4157 Y3.6210
G01 X-3.3713 Y3.6419
G01 X-3.3251 Y3.6585
G01 X-3.2775 Y3.6704
G01 X-3.2290 Y3.6776
G01 X-3.1800 Y3.6800
G01 X-3.1310 Y3.6776
G01 X-3.0825 Y3.6704
G01 X-3.0349 Y3.6585
G01 X-2.9887 Y3.6419
G01 X-2.9443 Y3.6210
G01 X-2.9022 Y3.5957
G01 X-2.8628 Y3.5665
G01 X-2.8264 Y3.5336
G01 X-2.7935 Y3.4972
G01 X-2.7643 Y3.4578
G01 X-2.7390 Y3.4157
G01 X-2.7181 Y3.3713
G01 X-2.7015 Y3.3251
G01 X-2.6896 Y3.2775
G01 X-2.6824 Y3.2290
G01 X-2.6800 Y3.1800
G00 X-2.6800 Y3.1800
G01 F70.00
G01 Z-0.4000
G01 F120.00
G01 X-2.6824 Y3.1310
G01 X-2.6896 Y3.0825
G01 X-2.7015 Y3.0349
G01 X-2.7181 Y2.9887
G01 X-2.7390 Y2.9443
G01 X-2.7643 Y2.9022
G01 X-2.7935 Y2.8628
G01 X-2.8264 Y2.8264
G01 X-2.8628 Y2.7935
G01 X-2.9022 Y2.7643
G01 X-2.9443 Y2.7390
G01 X-2.9887 Y2.7181
G01 X-3.0349 Y2.7015
G01 X-3.0825 Y2.6896
G01 X-3.1310 Y2.6824
G01 X-3.1800 Y2.6800
G01 X-3.2290 Y2.6824
G01 X-3.2775 Y2.6896
G01 X-3.3251 Y2.7015
G01 X-3.3713 Y2.7181
G01 X-3.4157 Y2.7390
G01 X-3.4578 Y2.7643
G01 X-3.4972 Y2.7935
G01 X-3.5336 Y2.8264
G01 X-3.5665 Y2.8628
G01 X-3.5957 Y2.9022
G01 X-3.6210 Y2.9443
G01 X-3.6419 Y2.9887
G01 X-3.6585 Y3.0349
G01 X-3.6704 Y3.0825
G01 X-3.6776 Y3.1310
G01 X-3.6800 Y3.1800
G01 X-3.6776 Y3.2290
G01 X-3.6704 Y3.2775
G01 X-3.6585 Y3.3251
G01 X-3.6419 Y3.3713
G01 X-3.6210 Y3.4157
G01 X-3.5957 Y3.4578
G01 X-3.5665 Y3.4972
G01 X-3.5336 Y3.5336
G01 X-3.4972 Y3.5665
G01 X-3.4578 Y3.5957
G01 X-3.4157 Y3.6210
G01 X-3.3713 Y3.6419
G01 X-3.3251 Y3.6585
G01 X-3.2775 Y3.6704
G01 X-3.2290 Y3.6776
G01 X-3.1800 Y3.6800
G01 X-3.1310 Y3.6776
G01 X-3.0825 Y3.6704
G01 X-3.0349 Y3.6585
G01 X-2.9887 Y3.6419
G01 X-2.9443 Y3.6210
G01 X-2.9022 Y3.5957
G01 X-2.8628 Y3.5665
G01 X-2.8264 Y3.5336
G01 X-2.7935 Y3.4972
G01 X-2.7643 Y3.4578
G01 X-2.7390 Y3.4157
G01 X-2.7181 Y3.3713
G01 X-2.7015 Y3.3251
G01 X-2.6896 Y3.2775
G01 X-2.6824 Y3.2290
G01 X-2.6800 Y3.1800
G00 X-2.6800 Y3.1800
G01 F70.00
G01 Z-0.5000
G01 F120.00
G01 X-2.6824 Y3.1310
G01 X-2.6896 Y3.0825
G01 X-2.7015 Y3.0349
G01 X-2.7181 Y2.9887
G01 X-2.7390 Y2.9443
G01 X-2.7643 Y2.9022
G01 X-2.7935 Y2.8628
G01 X-2.8264 Y2.8264
G01 X-2.8628 Y2.7935
G01 X-2.9022 Y2.7643
G01 X-2.9443 Y2.7390
G01 X-2.9887 Y2.7181
G01 X-3.0349 Y2.7015
G01 X-3.0825 Y2.6896
G01 X-3.1310 Y2.6824
G01 X-3.1800 Y2.6800
G01 X-3.2290 Y2.6824
G01 X-3.2775 Y2.6896
G01 X-3.3251 Y2.7015
G01 X-3.3713 Y2.7181
G01 X-3.4157 Y2.7390
G01 X-3.4578 Y2.7643
G01 X-3.4972 Y2.7935
G01 X-3.5336 Y2.8264
G01 X-3.5665 Y2.8628
G01 X-3.5957 Y2.9022
G01 X-3.6210 Y2.9443
G01 X-3.6419 Y2.9887
G01 X-3.6585 Y3.0349
G01 X-3.6704 Y3.0825
G01 X-3.6776 Y3.1310
G01 X-3.6800 Y3.1800
G01 X-3.6776 Y3.2290
G01 X-3.6704 Y3.2775
G01 X-3.6585 Y3.3251
G01 X-3.6419 Y3.3713
G01 X-3.6210 Y3.4157
G01 X-3.5957 Y3.4578
G01 X-3.5665 Y3.4972
G01 X-3.5336 Y3.5336
G01 X-3.4972 Y3.5665
G01 X-3.4578 Y3.5957
G01 X-3.4157 Y3.6210
G01 X-3.3713 Y3.6419
G01 X-3.3251 Y3.6585
G01 X-3.2775 Y3.6704
G01 X-3.2290 Y3.6776
G01 X-3.1800 Y3.6800
G01 X-3.1310 Y3.6776
G01 X-3.0825 Y3.6704
G01 X-3.0349 Y3.6585
G01 X-2.9887 Y3.6419
G01 X-2.9443 Y3.6210
G01 X-2.9022 Y3.5957
G01 X-2.8628 Y3.5665
G01 X-2.8264 Y3.5336
G01 X-2.7935 Y3.4972
G01 X-2.7643 Y3.4578
G01 X-2.7390 Y3.4157
G01 X-2.7181 Y3.3713
G01 X-2.7015 Y3.3251
G01 X-2.6896 Y3.2775
G01 X-2.6824 Y3.2290
G01 X-2.6800 Y3.1800
G00 X-2.6800 Y3.1800
G01 F70.00
G01 Z-0.6000
G01 F120.00
G01 X-2.6824 Y3.1310
G01 X-2.6896 Y3.0825
G01 X-2.7015 Y3.0349
G01 X-2.7181 Y2.9887
G01 X-2.7390 Y2.9443
G01 X-2.7643 Y2.9022
G01 X-2.7935 Y2.8628
G01 X-2.8264 Y2.8264
G01 X-2.8628 Y2.7935
G01 X-2.9022 Y2.7643
G01 X-2.9443 Y2.7390
G01 X-2.9887 Y2.7181
G01 X-3.0349 Y2.7015
G01 X-3.0825 Y2.6896
G01 X-3.1310 Y2.6824
G01 X-3.1800 Y2.6800
G01 X-3.2290 Y2.6824
G01 X-3.2775 Y2.6896
G01 X-3.3251 Y2.7015
G01 X-3.3713 Y2.7181
G01 X-3.4157 Y2.7390
G01 X-3.4578 Y2.7643
G01 X-3.4972 Y2.7935
G01 X-3.5336 Y2.8264
G01 X-3.5665 Y2.8628
G01 X-3.5957 Y2.9022
G01 X-3.6210 Y2.9443
G01 X-3.6419 Y2.9887
G01 X-3.6585 Y3.0349
G01 X-3.6704 Y3.0825
G01 X-3.6776 Y3.1310
G01 X-3.6800 Y3.1800
G01 X-3.6776 Y3.2290
G01 X-3.6704 Y3.2775
G01 X-3.6585 Y3.3251
G01 X-3.6419 Y3.3713
G01 X-3.6210 Y3.4157
G01 X-3.5957 Y3.4578
G01 X-3.5665 Y3.4972
G01 X-3.5336 Y3.5336
G01 X-3.4972 Y3.5665
G01 X-3.4578 Y3.5957
G01 X-3.4157 Y3.6210
G01 X-3.3713 Y3.6419
G01 X-3.3251 Y3.6585
G01 X-3.2775 Y3.6704
G01 X-3.2290 Y3.6776
G01 X-3.1800 Y3.6800
G01 X-3.1310 Y3.6776
G01 X-3.0825 Y3.6704
G01 X-3.0349 Y3.6585
G01 X-2.9887 Y3.6419
G01 X-2.9443 Y3.6210
G01 X-2.9022 Y3.5957
G01 X-2.8628 Y3.5665
G01 X-2.8264 Y3.5336
G01 X-2.7935 Y3.4972
G01 X-2.7643 Y3.4578
G01 X-2.7390 Y3.4157
G01 X-2.7181 Y3.3713
G01 X-2.7015 Y3.3251
G01 X-2.6896 Y3.2775
G01 X-2.6824 Y3.2290
G01 X-2.6800 Y3.1800
G00 X-2.6800 Y3.1800
G01 F70.00
G01 Z-0.7000
G01 F120.00
G01 X-2.6824 Y3.1310
G01 X-2.6896 Y3.0825
G01 X-2.7015 Y3.0349
G01 X-2.7181 Y2.9887
G01 X-2.7390 Y2.9443
G01 X-2.7643 Y2.9022
G01 X-2.7935 Y2.8628
G01 X-2.8264 Y2.8264
G01 X-2.8628 Y2.7935
G01 X-2.9022 Y2.7643
G01 X-2.9443 Y2.7390
G01 X-2.9887 Y2.7181
G01 X-3.0349 Y2.7015
G01 X-3.0825 Y2.6896
G01 X-3.1310 Y2.6824
G01 X-3.1800 Y2.6800
G01 X-3.2290 Y2.6824
G01 X-3.2775 Y2.6896
G01 X-3.3251 Y2.7015
G01 X-3.3713 Y2.7181
G01 X-3.4157 Y2.7390
G01 X-3.4578 Y2.7643
G01 X-3.4972 Y2.7935
G01 X-3.5336 Y2.8264
G01 X-3.5665 Y2.8628
G01 X-3.5957 Y2.9022
G01 X-3.6210 Y2.9443
G01 X-3.6419 Y2.9887
G01 X-3.6585 Y3.0349
G01 X-3.6704 Y3.0825
G01 X-3.6776 Y3.1310
G01 X-3.6800 Y3.1800
G01 X-3.6776 Y3.2290
G01 X-3.6704 Y3.2775
G01 X-3.6585 Y3.3251
G01 X-3.6419 Y3.3713
G01 X-3.6210 Y3.4157
G01 X-3.5957 Y3.4578
G01 X-3.5665 Y3.4972
G01 X-3.5336 Y3.5336
G01 X-3.4972 Y3.5665
G01 X-3.4578 Y3.5957
G01 X-3.4157 Y3.6210
G01 X-3.3713 Y3.6419
G01 X-3.3251 Y3.6585
G01 X-3.2775 Y3.6704
G01 X-3.2290 Y3.6776
G01 X-3.1800 Y3.6800
G01 X-3.1310 Y3.6776
G01 X-3.0825 Y3.6704
G01 X-3.0349 Y3.6585
G01 X-2.9887 Y3.6419
G01 X-2.9443 Y3.6210
G01 X-2.9022 Y3.5957
G01 X-2.8628 Y3.5665
G01 X-2.8264 Y3.5336
G01 X-2.7935 Y3.4972
G01 X-2.7643 Y3.4578
G01 X-2.7390 Y3.4157
G01 X-2.7181 Y3.3713
G01 X-2.7015 Y3.3251
G01 X-2.6896 Y3.2775
G01 X-2.6824 Y3.2290
G01 X-2.6800 Y3.1800
G00 X-2.6800 Y3.1800
G01 F70.00
G01 Z-0.8000
G01 F120.00
G01 X-2.6824 Y3.1310
G01 X-2.6896 Y3.0825
G01 X-2.7015 Y3.0349
G01 X-2.7181 Y2.9887
G01 X-2.7390 Y2.9443
G01 X-2.7643 Y2.9022
G01 X-2.7935 Y2.8628
G01 X-2.8264 Y2.8264
G01 X-2.8628 Y2.7935
G01 X-2.9022 Y2.7643
G01 X-2.9443 Y2.7390
G01 X-2.9887 Y2.7181
G01 X-3.0349 Y2.7015
G01 X-3.0825 Y2.6896
G01 X-3.1310 Y2.6824
G01 X-3.1800 Y2.6800
G01 X-3.2290 Y2.6824
G01 X-3.2775 Y2.6896
G01 X-3.3251 Y2.7015
G01 X-3.3713 Y2.7181
G01 X-3.4157 Y2.7390
G01 X-3.4578 Y2.7643
G01 X-3.4972 Y2.7935
G01 X-3.5336 Y2.8264
G01 X-3.5665 Y2.8628
G01 X-3.5957 Y2.9022
G01 X-3.6210 Y2.9443
G01 X-3.6419 Y2.9887
G01 X-3.6585 Y3.0349
G01 X-3.6704 Y3.0825
G01 X-3.6776 Y3.1310
G01 X-3.6800 Y3.1800
G01 X-3.6776 Y3.2290
G01 X-3.6704 Y3.2775
G01 X-3.6585 Y3.3251
G01 X-3.6419 Y3.3713
G01 X-3.6210 Y3.4157
G01 X-3.5957 Y3.4578
G01 X-3.5665 Y3.4972
G01 X-3.5336 Y3.5336
G01 X-3.4972 Y3.5665
G01 X-3.4578 Y3.5957
G01 X-3.4157 Y3.6210
G01 X-3.3713 Y3.6419
G01 X-3.3251 Y3.6585
G01 X-3.2775 Y3.6704
G01 X-3.2290 Y3.6776
G01 X-3.1800 Y3.6800
G01 X-3.1310 Y3.6776
G01 X-3.0825 Y3.6704
G01 X-3.0349 Y3.6585
G01 X-2.9887 Y3.6419
G01 X-2.9443 Y3.6210
G01 X-2.9022 Y3.5957
G01 X-2.8628 Y3.5665
G01 X-2.8264 Y3.5336
G01 X-2.7935 Y3.4972
G01 X-2.7643 Y3.4578
G01 X-2.7390 Y3.4157
G01 X-2.7181 Y3.3713
G01 X-2.7015 Y3.3251
G01 X-2.6896 Y3.2775
G01 X-2.6824 Y3.2290
G01 X-2.6800 Y3.1800
G00 X-2.6800 Y3.1800
G01 F70.00
G01 Z-0.9000
G01 F120.00
G01 X-2.6824 Y3.1310
G01 X-2.6896 Y3.0825
G01 X-2.7015 Y3.0349
G01 X-2.7181 Y2.9887
G01 X-2.7390 Y2.9443
G01 X-2.7643 Y2.9022
G01 X-2.7935 Y2.8628
G01 X-2.8264 Y2.8264
G01 X-2.8628 Y2.7935
G01 X-2.9022 Y2.7643
G01 X-2.9443 Y2.7390
G01 X-2.9887 Y2.7181
G01 X-3.0349 Y2.7015
G01 X-3.0825 Y2.6896
G01 X-3.1310 Y2.6824
G01 X-3.1800 Y2.6800
G01 X-3.2290 Y2.6824
G01 X-3.2775 Y2.6896
G01 X-3.3251 Y2.7015
G01 X-3.3713 Y2.7181
G01 X-3.4157 Y2.7390
G01 X-3.4578 Y2.7643
G01 X-3.4972 Y2.7935
G01 X-3.5336 Y2.8264
G01 X-3.5665 Y2.8628
G01 X-3.5957 Y2.9022
G01 X-3.6210 Y2.9443
G01 X-3.6419 Y2.9887
G01 X-3.6585 Y3.0349
G01 X-3.6704 Y3.0825
G01 X-3.6776 Y3.1310
G01 X-3.6800 Y3.1800
G01 X-3.6776 Y3.2290
G01 X-3.6704 Y3.2775
G01 X-3.6585 Y3.3251
G01 X-3.6419 Y3.3713
G01 X-3.6210 Y3.4157
G01 X-3.5957 Y3.4578
G01 X-3.5665 Y3.4972
G01 X-3.5336 Y3.5336
G01 X-3.4972 Y3.5665
G01 X-3.4578 Y3.5957
G01 X-3.4157 Y3.6210
G01 X-3.3713 Y3.6419
G01 X-3.3251 Y3.6585
G01 X-3.2775 Y3.6704
G01 X-3.2290 Y3.6776
G01 X-3.1800 Y3.6800
G01 X-3.1310 Y3.6776
G01 X-3.0825 Y3.6704
G01 X-3.0349 Y3.6585
G01 X-2.9887 Y3.6419
G01 X-2.9443 Y3.6210
G01 X-2.9022 Y3.5957
G01 X-2.8628 Y3.5665
G01 X-2.8264 Y3.5336
G01 X-2.7935 Y3.4972
G01 X-2.7643 Y3.4578
G01 X-2.7390 Y3.4157
G01 X-2.7181 Y3.3713
G01 X-2.7015 Y3.3251
G01 X-2.6896 Y3.2775
G01 X-2.6824 Y3.2290
G01 X-2.6800 Y3.1800
G00 X-2.6800 Y3.1800
G01 F70.00
G01 Z-1.0000
G01 F120.00
G01 X-2.6824 Y3.1310
G01 X-2.6896 Y3.0825
G01 X-2.7015 Y3.0349
G01 X-2.7181 Y2.9887
G01 X-2.7390 Y2.9443
G01 X-2.7643 Y2.9022
G01 X-2.7935 Y2.8628
G01 X-2.8264 Y2.8264
G01 X-2.8628 Y2.7935
G01 X-2.9022 Y2.7643
G01 X-2.9443 Y2.7390
G01 X-2.9887 Y2.7181
G01 X-3.0349 Y2.7015
G01 X-3.0825 Y2.6896
G01 X-3.1310 Y2.6824
G01 X-3.1800 Y2.6800
G01 X-3.2290 Y2.6824
G01 X-3.2775 Y2.6896
G01 X-3.3251 Y2.7015
G01 X-3.3713 Y2.7181
G01 X-3.4157 Y2.7390
G01 X-3.4578 Y2.7643
G01 X-3.4972 Y2.7935
G01 X-3.5336 Y2.8264
G01 X-3.5665 Y2.8628
G01 X-3.5957 Y2.9022
G01 X-3.6210 Y2.9443
G01 X-3.6419 Y2.9887
G01 X-3.6585 Y3.0349
G01 X-3.6704 Y3.0825
G01 X-3.6776 Y3.1310
G01 X-3.6800 Y3.1800
G01 X-3.6776 Y3.2290
G01 X-3.6704 Y3.2775
G01 X-3.6585 Y3.3251
G01 X-3.6419 Y3.3713
G01 X-3.6210 Y3.4157
G01 X-3.5957 Y3.4578
G01 X-3.5665 Y3.4972
G01 X-3.5336 Y3.5336
G01 X-3.4972 Y3.5665
G01 X-3.4578 Y3.5957
G01 X-3.4157 Y3.6210
G01 X-3.3713 Y3.6419
G01 X-3.3251 Y3.6585
G01 X-3.2775 Y3.6704
G01 X-3.2290 Y3.6776
G01 X-3.1800 Y3.6800
G01 X-3.1310 Y3.6776
G01 X-3.0825 Y3.6704
G01 X-3.0349 Y3.6585
G01 X-2.9887 Y3.6419
G01 X-2.9443 Y3.6210
G01 X-2.9022 Y3.5957
G01 X-2.8628 Y3.5665
G01 X-2.8264 Y3.5336
G01 X-2.7935 Y3.4972
G01 X-2.7643 Y3.4578
G01 X-2.7390 Y3.4157
G01 X-2.7181 Y3.3713
G01 X-2.7015 Y3.3251
G01 X-2.6896 Y3.2775
G01 X-2.6824 Y3.2290
G01 X-2.6800 Y3.1800
G00 X-2.6800 Y3.1800
G01 F70.00
G01 Z-1.1000
G01 F120.00
G01 X-2.6824 Y3.1310
G01 X-2.6896 Y3.0825
G01 X-2.7015 Y3.0349
G01 X-2.7181 Y2.9887
G01 X-2.7390 Y2.9443
G01 X-2.7643 Y2.9022
G01 X-2.7935 Y2.8628
G01 X-2.8264 Y2.8264
G01 X-2.8628 Y2.7935
G01 X-2.9022 Y2.7643
G01 X-2.9443 Y2.7390
G01 X-2.9887 Y2.7181
G01 X-3.0349 Y2.7015
G01 X-3.0825 Y2.6896
G01 X-3.1310 Y2.6824
G01 X-3.1800 Y2.6800
G01 X-3.2290 Y2.6824
G01 X-3.2775 Y2.6896
G01 X-3.3251 Y2.7015
G01 X-3.3713 Y2.7181
G01 X-3.4157 Y2.7390
G01 X-3.4578 Y2.7643
G01 X-3.4972 Y2.7935
G01 X-3.5336 Y2.8264
G01 X-3.5665 Y2.8628
G01 X-3.5957 Y2.9022
G01 X-3.6210 Y2.9443
G01 X-3.6419 Y2.9887
G01 X-3.6585 Y3.0349
G01 X-3.6704 Y3.0825
G01 X-3.6776 Y3.1310
G01 X-3.6800 Y3.1800
G01 X-3.6776 Y3.2290
G01 X-3.6704 Y3.2775
G01 X-3.6585 Y3.3251
G01 X-3.6419 Y3.3713
G01 X-3.6210 Y3.4157
G01 X-3.5957 Y3.4578
G01 X-3.5665 Y3.4972
G01 X-3.5336 Y3.5336
G01 X-3.4972 Y3.5665
G01 X-3.4578 Y3.5957
G01 X-3.4157 Y3.6210
G01 X-3.3713 Y3.6419
G01 X-3.3251 Y3.6585
G01 X-3.2775 Y3.6704
G01 X-3.2290 Y3.6776
G01 X-3.1800 Y3.6800
G01 X-3.1310 Y3.6776
G01 X-3.0825 Y3.6704
G01 X-3.0349 Y3.6585
G01 X-2.9887 Y3.6419
G01 X-2.9443 Y3.6210
G01 X-2.9022 Y3.5957
G01 X-2.8628 Y3.5665
G01 X-2.8264 Y3.5336
G01 X-2.7935 Y3.4972
G01 X-2.7643 Y3.4578
G01 X-2.7390 Y3.4157
G01 X-2.7181 Y3.3713
G01 X-2.7015 Y3.3251
G01 X-2.6896 Y3.2775
G01 X-2.6824 Y3.2290
G01 X-2.6800 Y3.1800
G00 X-2.6800 Y3.1800
G01 F70.00
G01 Z-1.2000
G01 F120.00
G01 X-2.6824 Y3.1310
G01 X-2.6896 Y3.0825
G01 X-2.7015 Y3.0349
G01 X-2.7181 Y2.9887
G01 X-2.7390 Y2.9443
G01 X-2.7643 Y2.9022
G01 X-2.7935 Y2.8628
G01 X-2.8264 Y2.8264
G01 X-2.8628 Y2.7935
G01 X-2.9022 Y2.7643
G01 X-2.9443 Y2.7390
G01 X-2.9887 Y2.7181
G01 X-3.0349 Y2.7015
G01 X-3.0825 Y2.6896
G01 X-3.1310 Y2.6824
G01 X-3.1800 Y2.6800
G01 X-3.2290 Y2.6824
G01 X-3.2775 Y2.6896
G01 X-3.3251 Y2.7015
G01 X-3.3713 Y2.7181
G01 X-3.4157 Y2.7390
G01 X-3.4578 Y2.7643
G01 X-3.4972 Y2.7935
G01 X-3.5336 Y2.8264
G01 X-3.5665 Y2.8628
G01 X-3.5957 Y2.9022
G01 X-3.6210 Y2.9443
G01 X-3.6419 Y2.9887
G01 X-3.6585 Y3.0349
G01 X-3.6704 Y3.0825
G01 X-3.6776 Y3.1310
G01 X-3.6800 Y3.1800
G01 X-3.6776 Y3.2290
G01 X-3.6704 Y3.2775
G01 X-3.6585 Y3.3251
G01 X-3.6419 Y3.3713
G01 X-3.6210 Y3.4157
G01 X-3.5957 Y3.4578
G01 X-3.5665 Y3.4972
G01 X-3.5336 Y3.5336
G01 X-3.4972 Y3.5665
G01 X-3.4578 Y3.5957
G01 X-3.4157 Y3.6210
G01 X-3.3713 Y3.6419
G01 X-3.3251 Y3.6585
G01 X-3.2775 Y3.6704
G01 X-3.2290 Y3.6776
G01 X-3.1800 Y3.6800
G01 X-3.1310 Y3.6776
G01 X-3.0825 Y3.6704
G01 X-3.0349 Y3.6585
G01 X-2.9887 Y3.6419
G01 X-2.9443 Y3.6210
G01 X-2.9022 Y3.5957
G01 X-2.8628 Y3.5665
G01 X-2.8264 Y3.5336
G01 X-2.7935 Y3.4972
G01 X-2.7643 Y3.4578
G01 X-2.7390 Y3.4157
G01 X-2.7181 Y3.3713
G01 X-2.7015 Y3.3251
G01 X-2.6896 Y3.2775
G01 X-2.6824 Y3.2290
G01 X-2.6800 Y3.1800
G00 X-2.6800 Y3.1800
G01 F70.00
G01 Z-1.3000
G01 F120.00
G01 X-2.6824 Y3.1310
G01 X-2.6896 Y3.0825
G01 X-2.7015 Y3.0349
G01 X-2.7181 Y2.9887
G01 X-2.7390 Y2.9443
G01 X-2.7643 Y2.9022
G01 X-2.7935 Y2.8628
G01 X-2.8264 Y2.8264
G01 X-2.8628 Y2.7935
G01 X-2.9022 Y2.7643
G01 X-2.9443 Y2.7390
G01 X-2.9887 Y2.7181
G01 X-3.0349 Y2.7015
G01 X-3.0825 Y2.6896
G01 X-3.1310 Y2.6824
G01 X-3.1800 Y2.6800
G01 X-3.2290 Y2.6824
G01 X-3.2775 Y2.6896
G01 X-3.3251 Y2.7015
G01 X-3.3713 Y2.7181
G01 X-3.4157 Y2.7390
G01 X-3.4578 Y2.7643
G01 X-3.4972 Y2.7935
G01 X-3.5336 Y2.8264
G01 X-3.5665 Y2.8628
G01 X-3.5957 Y2.9022
G01 X-3.6210 Y2.9443
G01 X-3.6419 Y2.9887
G01 X-3.6585 Y3.0349
G01 X-3.6704 Y3.0825
G01 X-3.6776 Y3.1310
G01 X-3.6800 Y3.1800
G01 X-3.6776 Y3.2290
G01 X-3.6704 Y3.2775
G01 X-3.6585 Y3.3251
G01 X-3.6419 Y3.3713
G01 X-3.6210 Y3.4157
G01 X-3.5957 Y3.4578
G01 X-3.5665 Y3.4972
G01 X-3.5336 Y3.5336
G01 X-3.4972 Y3.5665
G01 X-3.4578 Y3.5957
G01 X-3.4157 Y3.6210
G01 X-3.3713 Y3.6419
G01 X-3.3251 Y3.6585
G01 X-3.2775 Y3.6704
G01 X-3.2290 Y3.6776
G01 X-3.1800 Y3.6800
G01 X-3.1310 Y3.6776
G01 X-3.0825 Y3.6704
G01 X-3.0349 Y3.6585
G01 X-2.9887 Y3.6419
G01 X-2.9443 Y3.6210
G01 X-2.9022 Y3.5957
G01 X-2.8628 Y3.5665
G01 X-2.8264 Y3.5336
G01 X-2.7935 Y3.4972
G01 X-2.7643 Y3.4578
G01 X-2.7390 Y3.4157
G01 X-2.7181 Y3.3713
G01 X-2.7015 Y3.3251
G01 X-2.6896 Y3.2775
G01 X-2.6824 Y3.2290
G01 X-2.6800 Y3.1800
G00 X-2.6800 Y3.1800
G01 F70.00
G01 Z-1.4000
G01 F120.00
G01 X-2.6824 Y3.1310
G01 X-2.6896 Y3.0825
G01 X-2.7015 Y3.0349
G01 X-2.7181 Y2.9887
G01 X-2.7390 Y2.9443
G01 X-2.7643 Y2.9022
G01 X-2.7935 Y2.8628
G01 X-2.8264 Y2.8264
G01 X-2.8628 Y2.7935
G01 X-2.9022 Y2.7643
G01 X-2.9443 Y2.7390
G01 X-2.9887 Y2.7181
G01 X-3.0349 Y2.7015
G01 X-3.0825 Y2.6896
G01 X-3.1310 Y2.6824
G01 X-3.1800 Y2.6800
G01 X-3.2290 Y2.6824
G01 X-3.2775 Y2.6896
G01 X-3.3251 Y2.7015
G01 X-3.3713 Y2.7181
G01 X-3.4157 Y2.7390
G01 X-3.4578 Y2.7643
G01 X-3.4972 Y2.7935
G01 X-3.5336 Y2.8264
G01 X-3.5665 Y2.8628
G01 X-3.5957 Y2.9022
G01 X-3.6210 Y2.9443
G01 X-3.6419 Y2.9887
G01 X-3.6585 Y3.0349
G01 X-3.6704 Y3.0825
G01 X-3.6776 Y3.1310
G01 X-3.6800 Y3.1800
G01 X-3.6776 Y3.2290
G01 X-3.6704 Y3.2775
G01 X-3.6585 Y3.3251
G01 X-3.6419 Y3.3713
G01 X-3.6210 Y3.4157
G01 X-3.5957 Y3.4578
G01 X-3.5665 Y3.4972
G01 X-3.5336 Y3.5336
G01 X-3.4972 Y3.5665
G01 X-3.4578 Y3.5957
G01 X-3.4157 Y3.6210
G01 X-3.3713 Y3.6419
G01 X-3.3251 Y3.6585
G01 X-3.2775 Y3.6704
G01 X-3.2290 Y3.6776
G01 X-3.1800 Y3.6800
G01 X-3.1310 Y3.6776
G01 X-3.0825 Y3.6704
G01 X-3.0349 Y3.6585
G01 X-2.9887 Y3.6419
G01 X-2.9443 Y3.6210
G01 X-2.9022 Y3.5957
G01 X-2.8628 Y3.5665
G01 X-2.8264 Y3.5336
G01 X-2.7935 Y3.4972
G01 X-2.7643 Y3.4578
G01 X-2.7390 Y3.4157
G01 X-2.7181 Y3.3713
G01 X-2.7015 Y3.3251
G01 X-2.6896 Y3.2775
G01 X-2.6824 Y3.2290
G01 X-2.6800 Y3.1800
G00 X-2.6800 Y3.1800
G01 F70.00
G01 Z-1.5000
G01 F120.00
G01 X-2.6824 Y3.1310
G01 X-2.6896 Y3.0825
G01 X-2.7015 Y3.0349
G01 X-2.7181 Y2.9887
G01 X-2.7390 Y2.9443
G01 X-2.7643 Y2.9022
G01 X-2.7935 Y2.8628
G01 X-2.8264 Y2.8264
G01 X-2.8628 Y2.7935
G01 X-2.9022 Y2.7643
G01 X-2.9443 Y2.7390
G01 X-2.9887 Y2.7181
G01 X-3.0349 Y2.7015
G01 X-3.0825 Y2.6896
G01 X-3.1310 Y2.6824
G01 X-3.1800 Y2.6800
G01 X-3.2290 Y2.6824
G01 X-3.2775 Y2.6896
G01 X-3.3251 Y2.7015
G01 X-3.3713 Y2.7181
G01 X-3.4157 Y2.7390
G01 X-3.4578 Y2.7643
G01 X-3.4972 Y2.7935
G01 X-3.5336 Y2.8264
G01 X-3.5665 Y2.8628
G01 X-3.5957 Y2.9022
G01 X-3.6210 Y2.9443
G01 X-3.6419 Y2.9887
G01 X-3.6585 Y3.0349
G01 X-3.6704 Y3.0825
G01 X-3.6776 Y3.1310
G01 X-3.6800 Y3.1800
G01 X-3.6776 Y3.2290
G01 X-3.6704 Y3.2775
G01 X-3.6585 Y3.3251
G01 X-3.6419 Y3.3713
G01 X-3.6210 Y3.4157
G01 X-3.5957 Y3.4578
G01 X-3.5665 Y3.4972
G01 X-3.5336 Y3.5336
G01 X-3.4972 Y3.5665
G01 X-3.4578 Y3.5957
G01 X-3.4157 Y3.6210
G01 X-3.3713 Y3.6419
G01 X-3.3251 Y3.6585
G01 X-3.2775 Y3.6704
G01 X-3.2290 Y3.6776
G01 X-3.1800 Y3.6800
G01 X-3.1310 Y3.6776
G01 X-3.0825 Y3.6704
G01 X-3.0349 Y3.6585
G01 X-2.9887 Y3.6419
G01 X-2.9443 Y3.6210
G01 X-2.9022 Y3.5957
G01 X-2.8628 Y3.5665
G01 X-2.8264 Y3.5336
G01 X-2.7935 Y3.4972
G01 X-2.7643 Y3.4578
G01 X-2.7390 Y3.4157
G01 X-2.7181 Y3.3713
G01 X-2.7015 Y3.3251
G01 X-2.6896 Y3.2775
G01 X-2.6824 Y3.2290
G01 X-2.6800 Y3.1800
G00 X-2.6800 Y3.1800
G01 F70.00
G01 Z-1.6000
G01 F120.00
G01 X-2.6824 Y3.1310
G01 X-2.6896 Y3.0825
G01 X-2.7015 Y3.0349
G01 X-2.7181 Y2.9887
G01 X-2.7390 Y2.9443
G01 X-2.7643 Y2.9022
G01 X-2.7935 Y2.8628
G01 X-2.8264 Y2.8264
G01 X-2.8628 Y2.7935
G01 X-2.9022 Y2.7643
G01 X-2.9443 Y2.7390
G01 X-2.9887 Y2.7181
G01 X-3.0349 Y2.7015
G01 X-3.0825 Y2.6896
G01 X-3.1310 Y2.6824
G01 X-3.1800 Y2.6800
G01 X-3.2290 Y2.6824
G01 X-3.2775 Y2.6896
G01 X-3.3251 Y2.7015
G01 X-3.3713 Y2.7181
G01 X-3.4157 Y2.7390
G01 X-3.4578 Y2.7643
G01 X-3.4972 Y2.7935
G01 X-3.5336 Y2.8264
G01 X-3.5665 Y2.8628
G01 X-3.5957 Y2.9022
G01 X-3.6210 Y2.9443
G01 X-3.6419 Y2.9887
G01 X-3.6585 Y3.0349
G01 X-3.6704 Y3.0825
G01 X-3.6776 Y3.1310
G01 X-3.6800 Y3.1800
G01 X-3.6776 Y3.2290
G01 X-3.6704 Y3.2775
G01 X-3.6585 Y3.3251
G01 X-3.6419 Y3.3713
G01 X-3.6210 Y3.4157
G01 X-3.5957 Y3.4578
G01 X-3.5665 Y3.4972
G01 X-3.5336 Y3.5336
G01 X-3.4972 Y3.5665
G01 X-3.4578 Y3.5957
G01 X-3.4157 Y3.6210
G01 X-3.3713 Y3.6419
G01 X-3.3251 Y3.6585
G01 X-3.2775 Y3.6704
G01 X-3.2290 Y3.6776
G01 X-3.1800 Y3.6800
G01 X-3.1310 Y3.6776
G01 X-3.0825 Y3.6704
G01 X-3.0349 Y3.6585
G01 X-2.9887 Y3.6419
G01 X-2.9443 Y3.6210
G01 X-2.9022 Y3.5957
G01 X-2.8628 Y3.5665
G01 X-2.8264 Y3.5336
G01 X-2.7935 Y3.4972
G01 X-2.7643 Y3.4578
G01 X-2.7390 Y3.4157
G01 X-2.7181 Y3.3713
G01 X-2.7015 Y3.3251
G01 X-2.6896 Y3.2775
G01 X-2.6824 Y3.2290
G01 X-2.6800 Y3.1800
G00 X-2.6800 Y3.1800
G01 F70.00
G01 Z-1.7000
G01 F120.00
G01 X-2.6824 Y3.1310
G01 X-2.6896 Y3.0825
G01 X-2.7015 Y3.0349
G01 X-2.7181 Y2.9887
G01 X-2.7390 Y2.9443
G01 X-2.7643 Y2.9022
G01 X-2.7935 Y2.8628
G01 X-2.8264 Y2.8264
G01 X-2.8628 Y2.7935
G01 X-2.9022 Y2.7643
G01 X-2.9443 Y2.7390
G01 X-2.9887 Y2.7181
G01 X-3.0349 Y2.7015
G01 X-3.0825 Y2.6896
G01 X-3.1310 Y2.6824
G01 X-3.1800 Y2.6800
G01 X-3.2290 Y2.6824
G01 X-3.2775 Y2.6896
G01 X-3.3251 Y2.7015
G01 X-3.3713 Y2.7181
G01 X-3.4157 Y2.7390
G01 X-3.4578 Y2.7643
G01 X-3.4972 Y2.7935
G01 X-3.5336 Y2.8264
G01 X-3.5665 Y2.8628
G01 X-3.5957 Y2.9022
G01 X-3.6210 Y2.9443
G01 X-3.6419 Y2.9887
G01 X-3.6585 Y3.0349
G01 X-3.6704 Y3.0825
G01 X-3.6776 Y3.1310
G01 X-3.6800 Y3.1800
G01 X-3.6776 Y3.2290
G01 X-3.6704 Y3.2775
G01 X-3.6585 Y3.3251
G01 X-3.6419 Y3.3713
G01 X-3.6210 Y3.4157
G01 X-3.5957 Y3.4578
G01 X-3.5665 Y3.4972
G01 X-3.5336 Y3.5336
G01 X-3.4972 Y3.5665
G01 X-3.4578 Y3.5957
G01 X-3.4157 Y3.6210
G01 X-3.3713 Y3.6419
G01 X-3.3251 Y3.6585
G01 X-3.2775 Y3.6704
G01 X-3.2290 Y3.6776
G01 X-3.1800 Y3.6800
G01 X-3.1310 Y3.6776
G01 X-3.0825 Y3.6704
G01 X-3.0349 Y3.6585
G01 X-2.9887 Y3.6419
G01 X-2.9443 Y3.6210
G01 X-2.9022 Y3.5957
G01 X-2.8628 Y3.5665
G01 X-2.8264 Y3.5336
G01 X-2.7935 Y3.4972
G01 X-2.7643 Y3.4578
G01 X-2.7390 Y3.4157
G01 X-2.7181 Y3.3713
G01 X-2.7015 Y3.3251
G01 X-2.6896 Y3.2775
G01 X-2.6824 Y3.2290
G01 X-2.6800 Y3.1800
G00 X-2.6800 Y3.1800
G01 F70.00
G01 Z-1.8000
G01 F120.00
G01 X-2.6824 Y3.1310
G01 X-2.6896 Y3.0825
G01 X-2.7015 Y3.0349
G01 X-2.7181 Y2.9887
G01 X-2.7390 Y2.9443
G01 X-2.7643 Y2.9022
G01 X-2.7935 Y2.8628
G01 X-2.8264 Y2.8264
G01 X-2.8628 Y2.7935
G01 X-2.9022 Y2.7643
G01 X-2.9443 Y2.7390
G01 X-2.9887 Y2.7181
G01 X-3.0349 Y2.7015
G01 X-3.0825 Y2.6896
G01 X-3.1310 Y2.6824
G01 X-3.1800 Y2.6800
G01 X-3.2290 Y2.6824
G01 X-3.2775 Y2.6896
G01 X-3.3251 Y2.7015
G01 X-3.3713 Y2.7181
G01 X-3.4157 Y2.7390
G01 X-3.4578 Y2.7643
G01 X-3.4972 Y2.7935
G01 X-3.5336 Y2.8264
G01 X-3.5665 Y2.8628
G01 X-3.5957 Y2.9022
G01 X-3.6210 Y2.9443
G01 X-3.6419 Y2.9887
G01 X-3.6585 Y3.0349
G01 X-3.6704 Y3.0825
G01 X-3.6776 Y3.1310
G01 X-3.6800 Y3.1800
G01 X-3.6776 Y3.2290
G01 X-3.6704 Y3.2775
G01 X-3.6585 Y3.3251
G01 X-3.6419 Y3.3713
G01 X-3.6210 Y3.4157
G01 X-3.5957 Y3.4578
G01 X-3.5665 Y3.4972
G01 X-3.5336 Y3.5336
G01 X-3.4972 Y3.5665
G01 X-3.4578 Y3.5957
G01 X-3.4157 Y3.6210
G01 X-3.3713 Y3.6419
G01 X-3.3251 Y3.6585
G01 X-3.2775 Y3.6704
G01 X-3.2290 Y3.6776
G01 X-3.1800 Y3.6800
G01 X-3.1310 Y3.6776
G01 X-3.0825 Y3.6704
G01 X-3.0349 Y3.6585
G01 X-2.9887 Y3.6419
G01 X-2.9443 Y3.6210
G01 X-2.9022 Y3.5957
G01 X-2.8628 Y3.5665
G01 X-2.8264 Y3.5336
G01 X-2.7935 Y3.4972
G01 X-2.7643 Y3.4578
G01 X-2.7390 Y3.4157
G01 X-2.7181 Y3.3713
G01 X-2.7015 Y3.3251
G01 X-2.6896 Y3.2775
G01 X-2.6824 Y3.2290
G01 X-2.6800 Y3.1800
G00 X-2.6800 Y3.1800
G01 F70.00
G01 Z-1.9000
G01 F120.00
G01 X-2.6824 Y3.1310
G01 X-2.6896 Y3.0825
G01 X-2.7015 Y3.0349
G01 X-2.7181 Y2.9887
G01 X-2.7390 Y2.9443
G01 X-2.7643 Y2.9022
G01 X-2.7935 Y2.8628
G01 X-2.8264 Y2.8264
G01 X-2.8628 Y2.7935
G01 X-2.9022 Y2.7643
G01 X-2.9443 Y2.7390
G01 X-2.9887 Y2.7181
G01 X-3.0349 Y2.7015
G01 X-3.0825 Y2.6896
G01 X-3.1310 Y2.6824
G01 X-3.1800 Y2.6800
G01 X-3.2290 Y2.6824
G01 X-3.2775 Y2.6896
G01 X-3.3251 Y2.7015
G01 X-3.3713 Y2.7181
G01 X-3.4157 Y2.7390
G01 X-3.4578 Y2.7643
G01 X-3.4972 Y2.7935
G01 X-3.5336 Y2.8264
G01 X-3.5665 Y2.8628
G01 X-3.5957 Y2.9022
G01 X-3.6210 Y2.9443
G01 X-3.6419 Y2.9887
G01 X-3.6585 Y3.0349
G01 X-3.6704 Y3.0825
G01 X-3.6776 Y3.1310
G01 X-3.6800 Y3.1800
G01 X-3.6776 Y3.2290
G01 X-3.6704 Y3.2775
G01 X-3.6585 Y3.3251
G01 X-3.6419 Y3.3713
G01 X-3.6210 Y3.4157
G01 X-3.5957 Y3.4578
G01 X-3.5665 Y3.4972
G01 X-3.5336 Y3.5336
G01 X-3.4972 Y3.5665
G01 X-3.4578 Y3.5957
G01 X-3.4157 Y3.6210
G01 X-3.3713 Y3.6419
G01 X-3.3251 Y3.6585
G01 X-3.2775 Y3.6704
G01 X-3.2290 Y3.6776
G01 X-3.1800 Y3.6800
G01 X-3.1310 Y3.6776
G01 X-3.0825 Y3.6704
G01 X-3.0349 Y3.6585
G01 X-2.9887 Y3.6419
G01 X-2.9443 Y3.6210
G01 X-2.9022 Y3.5957
G01 X-2.8628 Y3.5665
G01 X-2.8264 Y3.5336
G01 X-2.7935 Y3.4972
G01 X-2.7643 Y3.4578
G01 X-2.7390 Y3.4157
G01 X-2.7181 Y3.3713
G01 X-2.7015 Y3.3251
G01 X-2.6896 Y3.2775
G01 X-2.6824 Y3.2290
G01 X-2.6800 Y3.1800
G00 Z2.0000
G00 X-2.6800 Y36.9900
G01 F70.00
G01 Z-0.1000
G01 F120.00
G01 X-2.6824 Y36.9410
G01 X-2.6896 Y36.8925
G01 X-2.7015 Y36.8449
G01 X-2.7181 Y36.7987
G01 X-2.7390 Y36.7543
G01 X-2.7643 Y36.7122
G01 X-2.7935 Y36.6728
G01 X-2.8264 Y36.6364
G01 X-2.8628 Y36.6035
G01 X-2.9022 Y36.5743
G01 X-2.9443 Y36.5490
G01 X-2.9887 Y36.5281
G01 X-3.0349 Y36.5115
G01 X-3.0825 Y36.4996
G01 X-3.1310 Y36.4924
G01 X-3.1800 Y36.4900
G01 X-3.2290 Y36.4924
G01 X-3.2775 Y36.4996
G01 X-3.3251 Y36.5115
G01 X-3.3713 Y36.5281
G01 X-3.4157 Y36.5490
G01 X-3.4578 Y36.5743
G01 X-3.4972 Y36.6035
G01 X-3.5336 Y36.6364
G01 X-3.5665 Y36.6728
G01 X-3.5957 Y36.7122
G01 X-3.6210 Y36.7543
G01 X-3.6419 Y36.7987
G01 X-3.6585 Y36.8449
G01 X-3.6704 Y36.8925
G01 X-3.6776 Y36.9410
G01 X-3.6800 Y36.9900
G01 X-3.6776 Y37.0390
G01 X-3.6704 Y37.0875
G01 X-3.6585 Y37.1351
G01 X-3.6419 Y37.1813
G01 X-3.6210 Y37.2257
G01 X-3.5957 Y37.2678
G01 X-3.5665 Y37.3072
G01 X-3.5336 Y37.3436
G01 X-3.4972 Y37.3765
G01 X-3.4578 Y37.4057
G01 X-3.4157 Y37.4310
G01 X-3.3713 Y37.4519
G01 X-3.3251 Y37.4685
G01 X-3.2775 Y37.4804
G01 X-3.2290 Y37.4876
G01 X-3.1800 Y37.4900
G01 X-3.1310 Y37.4876
G01 X-3.0825 Y37.4804
G01 X-3.0349 Y37.4685
G01 X-2.9887 Y37.4519
G01 X-2.9443 Y37.4310
G01 X-2.9022 Y37.4057
G01 X-2.8628 Y37.3765
G01 X-2.8264 Y37.3436
G01 X-2.7935 Y37.3072
G01 X-2.7643 Y37.2678
G01 X-2.7390 Y37.2257
G01 X-2.7181 Y37.1813
G01 X-2.7015 Y37.1351
G01 X-2.6896 Y37.0875
G01 X-2.6824 Y37.0390
G01 X-2.6800 Y36.9900
G00 X-2.6800 Y36.9900
G01 F70.00
G01 Z-0.2000
G01 F120.00
G01 X-2.6824 Y36.9410
G01 X-2.6896 Y36.8925
G01 X-2.7015 Y36.8449
G01 X-2.7181 Y36.7987
G01 X-2.7390 Y36.7543
G01 X-2.7643 Y36.7122
G01 X-2.7935 Y36.6728
G01 X-2.8264 Y36.6364
G01 X-2.8628 Y36.6035
G01 X-2.9022 Y36.5743
G01 X-2.9443 Y36.5490
G01 X-2.9887 Y36.5281
G01 X-3.0349 Y36.5115
G01 X-3.0825 Y36.4996
G01 X-3.1310 Y36.4924
G01 X-3.1800 Y36.4900
G01 X-3.2290 Y36.4924
G01 X-3.2775 Y36.4996
G01 X-3.3251 Y36.5115
G01 X-3.3713 Y36.5281
G01 X-3.4157 Y36.5490
G01 X-3.4578 Y36.5743
G01 X-3.4972 Y36.6035
G01 X-3.5336 Y36.6364
G01 X-3.5665 Y36.6728
G01 X-3.5957 Y36.7122
G01 X-3.6210 Y36.7543
G01 X-3.6419 Y36.7987
G01 X-3.6585 Y36.8449
G01 X-3.6704 Y36.8925
G01 X-3.6776 Y36.9410
G01 X-3.6800 Y36.9900
G01 X-3.6776 Y37.0390
G01 X-3.6704 Y37.0875
G01 X-3.6585 Y37.1351
G01 X-3.6419 Y37.1813
G01 X-3.6210 Y37.2257
G01 X-3.5957 Y37.2678
G01 X-3.5665 Y37.3072
G01 X-3.5336 Y37.3436
G01 X-3.4972 Y37.3765
G01 X-3.4578 Y37.4057
G01 X-3.4157 Y37.4310
G01 X-3.3713 Y37.4519
G01 X-3.3251 Y37.4685
G01 X-3.2775 Y37.4804
G01 X-3.2290 Y37.4876
G01 X-3.1800 Y37.4900
G01 X-3.1310 Y37.4876
G01 X-3.0825 Y37.4804
G01 X-3.0349 Y37.4685
G01 X-2.9887 Y37.4519
G01 X-2.9443 Y37.4310
G01 X-2.9022 Y37.4057
G01 X-2.8628 Y37.3765
G01 X-2.8264 Y37.3436
G01 X-2.7935 Y37.3072
G01 X-2.7643 Y37.2678
G01 X-2.7390 Y37.2257
G01 X-2.7181 Y37.1813
G01 X-2.7015 Y37.1351
G01 X-2.6896 Y37.0875
G01 X-2.6824 Y37.0390
G01 X-2.6800 Y36.9900
G00 X-2.6800 Y36.9900
G01 F70.00
G01 Z-0.3000
G01 F120.00
G01 X-2.6824 Y36.9410
G01 X-2.6896 Y36.8925
G01 X-2.7015 Y36.8449
G01 X-2.7181 Y36.7987
G01 X-2.7390 Y36.7543
G01 X-2.7643 Y36.7122
G01 X-2.7935 Y36.6728
G01 X-2.8264 Y36.6364
G01 X-2.8628 Y36.6035
G01 X-2.9022 Y36.5743
G01 X-2.9443 Y36.5490
G01 X-2.9887 Y36.5281
G01 X-3.0349 Y36.5115
G01 X-3.0825 Y36.4996
G01 X-3.1310 Y36.4924
G01 X-3.1800 Y36.4900
G01 X-3.2290 Y36.4924
G01 X-3.2775 Y36.4996
G01 X-3.3251 Y36.5115
G01 X-3.3713 Y36.5281
G01 X-3.4157 Y36.5490
G01 X-3.4578 Y36.5743
G01 X-3.4972 Y36.6035
G01 X-3.5336 Y36.6364
G01 X-3.5665 Y36.6728
G01 X-3.5957 Y36.7122
G01 X-3.6210 Y36.7543
G01 X-3.6419 Y36.7987
G01 X-3.6585 Y36.8449
G01 X-3.6704 Y36.8925
G01 X-3.6776 Y36.9410
G01 X-3.6800 Y36.9900
G01 X-3.6776 Y37.0390
G01 X-3.6704 Y37.0875
G01 X-3.6585 Y37.1351
G01 X-3.6419 Y37.1813
G01 X-3.6210 Y37.2257
G01 X-3.5957 Y37.2678
G01 X-3.5665 Y37.3072
G01 X-3.5336 Y37.3436
G01 X-3.4972 Y37.3765
G01 X-3.4578 Y37.4057
G01 X-3.4157 Y37.4310
G01 X-3.3713 Y37.4519
G01 X-3.3251 Y37.4685
G01 X-3.2775 Y37.4804
G01 X-3.2290 Y37.4876
G01 X-3.1800 Y37.4900
G01 X-3.1310 Y37.4876
G01 X-3.0825 Y37.4804
G01 X-3.0349 Y37.4685
G01 X-2.9887 Y37.4519
G01 X-2.9443 Y37.4310
G01 X-2.9022 Y37.4057
G01 X-2.8628 Y37.3765
G01 X-2.8264 Y37.3436
G01 X-2.7935 Y37.3072
G01 X-2.7643 Y37.2678
G01 X-2.7390 Y37.2257
G01 X-2.7181 Y37.1813
G01 X-2.7015 Y37.1351
G01 X-2.6896 Y37.0875
G01 X-2.6824 Y37.0390
G01 X-2.6800 Y36.9900
G00 X-2.6800 Y36.9900
G01 F70.00
G01 Z-0.4000
G01 F120.00
G01 X-2.6824 Y36.9410
G01 X-2.6896 Y36.8925
G01 X-2.7015 Y36.8449
G01 X-2.7181 Y36.7987
G01 X-2.7390 Y36.7543
G01 X-2.7643 Y36.7122
G01 X-2.7935 Y36.6728
G01 X-2.8264 Y36.6364
G01 X-2.8628 Y36.6035
G01 X-2.9022 Y36.5743
G01 X-2.9443 Y36.5490
G01 X-2.9887 Y36.5281
G01 X-3.0349 Y36.5115
G01 X-3.0825 Y36.4996
G01 X-3.1310 Y36.4924
G01 X-3.1800 Y36.4900
G01 X-3.2290 Y36.4924
G01 X-3.2775 Y36.4996
G01 X-3.3251 Y36.5115
G01 X-3.3713 Y36.5281
G01 X-3.4157 Y36.5490
G01 X-3.4578 Y36.5743
G01 X-3.4972 Y36.6035
G01 X-3.5336 Y36.6364
G01 X-3.5665 Y36.6728
G01 X-3.5957 Y36.7122
G01 X-3.6210 Y36.7543
G01 X-3.6419 Y36.7987
G01 X-3.6585 Y36.8449
G01 X-3.6704 Y36.8925
G01 X-3.6776 Y36.9410
G01 X-3.6800 Y36.9900
G01 X-3.6776 Y37.0390
G01 X-3.6704 Y37.0875
G01 X-3.6585 Y37.1351
G01 X-3.6419 Y37.1813
G01 X-3.6210 Y37.2257
G01 X-3.5957 Y37.2678
G01 X-3.5665 Y37.3072
G01 X-3.5336 Y37.3436
G01 X-3.4972 Y37.3765
G01 X-3.4578 Y37.4057
G01 X-3.4157 Y37.4310
G01 X-3.3713 Y37.4519
G01 X-3.3251 Y37.4685
G01 X-3.2775 Y37.4804
G01 X-3.2290 Y37.4876
G01 X-3.1800 Y37.4900
G01 X-3.1310 Y37.4876
G01 X-3.0825 Y37.4804
G01 X-3.0349 Y37.4685
G01 X-2.9887 Y37.4519
G01 X-2.9443 Y37.4310
G01 X-2.9022 Y37.4057
G01 X-2.8628 Y37.3765
G01 X-2.8264 Y37.3436
G01 X-2.7935 Y37.3072
G01 X-2.7643 Y37.2678
G01 X-2.7390 Y37.2257
G01 X-2.7181 Y37.1813
G01 X-2.7015 Y37.1351
G01 X-2.6896 Y37.0875
G01 X-2.6824 Y37.0390
G01 X-2.6800 Y36.9900
G00 X-2.6800 Y36.9900
G01 F70.00
G01 Z-0.5000
G01 F120.00
G01 X-2.6824 Y36.9410
G01 X-2.6896 Y36.8925
G01 X-2.7015 Y36.8449
G01 X-2.7181 Y36.7987
G01 X-2.7390 Y36.7543
G01 X-2.7643 Y36.7122
G01 X-2.7935 Y36.6728
G01 X-2.8264 Y36.6364
G01 X-2.8628 Y36.6035
G01 X-2.9022 Y36.5743
G01 X-2.9443 Y36.5490
G01 X-2.9887 Y36.5281
G01 X-3.0349 Y36.5115
G01 X-3.0825 Y36.4996
G01 X-3.1310 Y36.4924
G01 X-3.1800 Y36.4900
G01 X-3.2290 Y36.4924
G01 X-3.2775 Y36.4996
G01 X-3.3251 Y36.5115
G01 X-3.3713 Y36.5281
G01 X-3.4157 Y36.5490
G01 X-3.4578 Y36.5743
G01 X-3.4972 Y36.6035
G01 X-3.5336 Y36.6364
G01 X-3.5665 Y36.6728
G01 X-3.5957 Y36.7122
G01 X-3.6210 Y36.7543
G01 X-3.6419 Y36.7987
G01 X-3.6585 Y36.8449
G01 X-3.6704 Y36.8925
G01 X-3.6776 Y36.9410
G01 X-3.6800 Y36.9900
G01 X-3.6776 Y37.0390
G01 X-3.6704 Y37.0875
G01 X-3.6585 Y37.1351
G01 X-3.6419 Y37.1813
G01 X-3.6210 Y37.2257
G01 X-3.5957 Y37.2678
G01 X-3.5665 Y37.3072
G01 X-3.5336 Y37.3436
G01 X-3.4972 Y37.3765
G01 X-3.4578 Y37.4057
G01 X-3.4157 Y37.4310
G01 X-3.3713 Y37.4519
G01 X-3.3251 Y37.4685
G01 X-3.2775 Y37.4804
G01 X-3.2290 Y37.4876
G01 X-3.1800 Y37.4900
G01 X-3.1310 Y37.4876
G01 X-3.0825 Y37.4804
G01 X-3.0349 Y37.4685
G01 X-2.9887 Y37.4519
G01 X-2.9443 Y37.4310
G01 X-2.9022 Y37.4057
G01 X-2.8628 Y37.3765
G01 X-2.8264 Y37.3436
G01 X-2.7935 Y37.3072
G01 X-2.7643 Y37.2678
G01 X-2.7390 Y37.2257
G01 X-2.7181 Y37.1813
G01 X-2.7015 Y37.1351
G01 X-2.6896 Y37.0875
G01 X-2.6824 Y37.0390
G01 X-2.6800 Y36.9900
G00 X-2.6800 Y36.9900
G01 F70.00
G01 Z-0.6000
G01 F120.00
G01 X-2.6824 Y36.9410
G01 X-2.6896 Y36.8925
G01 X-2.7015 Y36.8449
G01 X-2.7181 Y36.7987
G01 X-2.7390 Y36.7543
G01 X-2.7643 Y36.7122
G01 X-2.7935 Y36.6728
G01 X-2.8264 Y36.6364
G01 X-2.8628 Y36.6035
G01 X-2.9022 Y36.5743
G01 X-2.9443 Y36.5490
G01 X-2.9887 Y36.5281
G01 X-3.0349 Y36.5115
G01 X-3.0825 Y36.4996
G01 X-3.1310 Y36.4924
G01 X-3.1800 Y36.4900
G01 X-3.2290 Y36.4924
G01 X-3.2775 Y36.4996
G01 X-3.3251 Y36.5115
G01 X-3.3713 Y36.5281
G01 X-3.4157 Y36.5490
G01 X-3.4578 Y36.5743
G01 X-3.4972 Y36.6035
G01 X-3.5336 Y36.6364
G01 X-3.5665 Y36.6728
G01 X-3.5957 Y36.7122
G01 X-3.6210 Y36.7543
G01 X-3.6419 Y36.7987
G01 X-3.6585 Y36.8449
G01 X-3.6704 Y36.8925
G01 X-3.6776 Y36.9410
G01 X-3.6800 Y36.9900
G01 X-3.6776 Y37.0390
G01 X-3.6704 Y37.0875
G01 X-3.6585 Y37.1351
G01 X-3.6419 Y37.1813
G01 X-3.6210 Y37.2257
G01 X-3.5957 Y37.2678
G01 X-3.5665 Y37.3072
G01 X-3.5336 Y37.3436
G01 X-3.4972 Y37.3765
G01 X-3.4578 Y37.4057
G01 X-3.4157 Y37.4310
G01 X-3.3713 Y37.4519
G01 X-3.3251 Y37.4685
G01 X-3.2775 Y37.4804
G01 X-3.2290 Y37.4876
G01 X-3.1800 Y37.4900
G01 X-3.1310 Y37.4876
G01 X-3.0825 Y37.4804
G01 X-3.0349 Y37.4685
G01 X-2.9887 Y37.4519
G01 X-2.9443 Y37.4310
G01 X-2.9022 Y37.4057
G01 X-2.8628 Y37.3765
G01 X-2.8264 Y37.3436
G01 X-2.7935 Y37.3072
G01 X-2.7643 Y37.2678
G01 X-2.7390 Y37.2257
G01 X-2.7181 Y37.1813
G01 X-2.7015 Y37.1351
G01 X-2.6896 Y37.0875
G01 X-2.6824 Y37.0390
G01 X-2.6800 Y36.9900
G00 X-2.6800 Y36.9900
G01 F70.00
G01 Z-0.7000
G01 F120.00
G01 X-2.6824 Y36.9410
G01 X-2.6896 Y36.8925
G01 X-2.7015 Y36.8449
G01 X-2.7181 Y36.7987
G01 X-2.7390 Y36.7543
G01 X-2.7643 Y36.7122
G01 X-2.7935 Y36.6728
G01 X-2.8264 Y36.6364
G01 X-2.8628 Y36.6035
G01 X-2.9022 Y36.5743
G01 X-2.9443 Y36.5490
G01 X-2.9887 Y36.5281
G01 X-3.0349 Y36.5115
G01 X-3.0825 Y36.4996
G01 X-3.1310 Y36.4924
G01 X-3.1800 Y36.4900
G01 X-3.2290 Y36.4924
G01 X-3.2775 Y36.4996
G01 X-3.3251 Y36.5115
G01 X-3.3713 Y36.5281
G01 X-3.4157 Y36.5490
G01 X-3.4578 Y36.5743
G01 X-3.4972 Y36.6035
G01 X-3.5336 Y36.6364
G01 X-3.5665 Y36.6728
G01 X-3.5957 Y36.7122
G01 X-3.6210 Y36.7543
G01 X-3.6419 Y36.7987
G01 X-3.6585 Y36.8449
G01 X-3.6704 Y36.8925
G01 X-3.6776 Y36.9410
G01 X-3.6800 Y36.9900
G01 X-3.6776 Y37.0390
G01 X-3.6704 Y37.0875
G01 X-3.6585 Y37.1351
G01 X-3.6419 Y37.1813
G01 X-3.6210 Y37.2257
G01 X-3.5957 Y37.2678
G01 X-3.5665 Y37.3072
G01 X-3.5336 Y37.3436
G01 X-3.4972 Y37.3765
G01 X-3.4578 Y37.4057
G01 X-3.4157 Y37.4310
G01 X-3.3713 Y37.4519
G01 X-3.3251 Y37.4685
G01 X-3.2775 Y37.4804
G01 X-3.2290 Y37.4876
G01 X-3.1800 Y37.4900
G01 X-3.1310 Y37.4876
G01 X-3.0825 Y37.4804
G01 X-3.0349 Y37.4685
G01 X-2.9887 Y37.4519
G01 X-2.9443 Y37.4310
G01 X-2.9022 Y37.4057
G01 X-2.8628 Y37.3765
G01 X-2.8264 Y37.3436
G01 X-2.7935 Y37.3072
G01 X-2.7643 Y37.2678
G01 X-2.7390 Y37.2257
G01 X-2.7181 Y37.1813
G01 X-2.7015 Y37.1351
G01 X-2.6896 Y37.0875
G01 X-2.6824 Y37.0390
G01 X-2.6800 Y36.9900
G00 X-2.6800 Y36.9900
G01 F70.00
G01 Z-0.8000
G01 F120.00
G01 X-2.6824 Y36.9410
G01 X-2.6896 Y36.8925
G01 X-2.7015 Y36.8449
G01 X-2.7181 Y36.7987
G01 X-2.7390 Y36.7543
G01 X-2.7643 Y36.7122
G01 X-2.7935 Y36.6728
G01 X-2.8264 Y36.6364
G01 X-2.8628 Y36.6035
G01 X-2.9022 Y36.5743
G01 X-2.9443 Y36.5490
G01 X-2.9887 Y36.5281
G01 X-3.0349 Y36.5115
G01 X-3.0825 Y36.4996
G01 X-3.1310 Y36.4924
G01 X-3.1800 Y36.4900
G01 X-3.2290 Y36.4924
G01 X-3.2775 Y36.4996
G01 X-3.3251 Y36.5115
G01 X-3.3713 Y36.5281
G01 X-3.4157 Y36.5490
G01 X-3.4578 Y36.5743
G01 X-3.4972 Y36.6035
G01 X-3.5336 Y36.6364
G01 X-3.5665 Y36.6728
G01 X-3.5957 Y36.7122
G01 X-3.6210 Y36.7543
G01 X-3.6419 Y36.7987
G01 X-3.6585 Y36.8449
G01 X-3.6704 Y36.8925
G01 X-3.6776 Y36.9410
G01 X-3.6800 Y36.9900
G01 X-3.6776 Y37.0390
G01 X-3.6704 Y37.0875
G01 X-3.6585 Y37.1351
G01 X-3.6419 Y37.1813
G01 X-3.6210 Y37.2257
G01 X-3.5957 Y37.2678
G01 X-3.5665 Y37.3072
G01 X-3.5336 Y37.3436
G01 X-3.4972 Y37.3765
G01 X-3.4578 Y37.4057
G01 X-3.4157 Y37.4310
G01 X-3.3713 Y37.4519
G01 X-3.3251 Y37.4685
G01 X-3.2775 Y37.4804
G01 X-3.2290 Y37.4876
G01 X-3.1800 Y37.4900
G01 X-3.1310 Y37.4876
G01 X-3.0825 Y37.4804
G01 X-3.0349 Y37.4685
G01 X-2.9887 Y37.4519
G01 X-2.9443 Y37.4310
G01 X-2.9022 Y37.4057
G01 X-2.8628 Y37.3765
G01 X-2.8264 Y37.3436
G01 X-2.7935 Y37.3072
G01 X-2.7643 Y37.2678
G01 X-2.7390 Y37.2257
G01 X-2.7181 Y37.1813
G01 X-2.7015 Y37.1351
G01 X-2.6896 Y37.0875
G01 X-2.6824 Y37.0390
G01 X-2.6800 Y36.9900
G00 X-2.6800 Y36.9900
G01 F70.00
G01 Z-0.9000
G01 F120.00
G01 X-2.6824 Y36.9410
G01 X-2.6896 Y36.8925
G01 X-2.7015 Y36.8449
G01 X-2.7181 Y36.7987
G01 X-2.7390 Y36.7543
G01 X-2.7643 Y36.7122
G01 X-2.7935 Y36.6728
G01 X-2.8264 Y36.6364
G01 X-2.8628 Y36.6035
G01 X-2.9022 Y36.5743
G01 X-2.9443 Y36.5490
G01 X-2.9887 Y36.5281
G01 X-3.0349 Y36.5115
G01 X-3.0825 Y36.4996
G01 X-3.1310 Y36.4924
G01 X-3.1800 Y36.4900
G01 X-3.2290 Y36.4924
G01 X-3.2775 Y36.4996
G01 X-3.3251 Y36.5115
G01 X-3.3713 Y36.5281
G01 X-3.4157 Y36.5490
G01 X-3.4578 Y36.5743
G01 X-3.4972 Y36.6035
G01 X-3.5336 Y36.6364
G01 X-3.5665 Y36.6728
G01 X-3.5957 Y36.7122
G01 X-3.6210 Y36.7543
G01 X-3.6419 Y36.7987
G01 X-3.6585 Y36.8449
G01 X-3.6704 Y36.8925
G01 X-3.6776 Y36.9410
G01 X-3.6800 Y36.9900
G01 X-3.6776 Y37.0390
G01 X-3.6704 Y37.0875
G01 X-3.6585 Y37.1351
G01 X-3.6419 Y37.1813
G01 X-3.6210 Y37.2257
G01 X-3.5957 Y37.2678
G01 X-3.5665 Y37.3072
G01 X-3.5336 Y37.3436
G01 X-3.4972 Y37.3765
G01 X-3.4578 Y37.4057
G01 X-3.4157 Y37.4310
G01 X-3.3713 Y37.4519
G01 X-3.3251 Y37.4685
G01 X-3.2775 Y37.4804
G01 X-3.2290 Y37.4876
G01 X-3.1800 Y37.4900
G01 X-3.1310 Y37.4876
G01 X-3.0825 Y37.4804
G01 X-3.0349 Y37.4685
G01 X-2.9887 Y37.4519
G01 X-2.9443 Y37.4310
G01 X-2.9022 Y37.4057
G01 X-2.8628 Y37.3765
G01 X-2.8264 Y37.3436
G01 X-2.7935 Y37.3072
G01 X-2.7643 Y37.2678
G01 X-2.7390 Y37.2257
G01 X-2.7181 Y37.1813
G01 X-2.7015 Y37.1351
G01 X-2.6896 Y37.0875
G01 X-2.6824 Y37.0390
G01 X-2.6800 Y36.9900
G00 X-2.6800 Y36.9900
G01 F70.00
G01 Z-1.0000
G01 F120.00
G01 X-2.6824 Y36.9410
G01 X-2.6896 Y36.8925
G01 X-2.7015 Y36.8449
G01 X-2.7181 Y36.7987
G01 X-2.7390 Y36.7543
G01 X-2.7643 Y36.7122
G01 X-2.7935 Y36.6728
G01 X-2.8264 Y36.6364
G01 X-2.8628 Y36.6035
G01 X-2.9022 Y36.5743
G01 X-2.9443 Y36.5490
G01 X-2.9887 Y36.5281
G01 X-3.0349 Y36.5115
G01 X-3.0825 Y36.4996
G01 X-3.1310 Y36.4924
G01 X-3.1800 Y36.4900
G01 X-3.2290 Y36.4924
G01 X-3.2775 Y36.4996
G01 X-3.3251 Y36.5115
G01 X-3.3713 Y36.5281
G01 X-3.4157 Y36.5490
G01 X-3.4578 Y36.5743
G01 X-3.4972 Y36.6035
G01 X-3.5336 Y36.6364
G01 X-3.5665 Y36.6728
G01 X-3.5957 Y36.7122
G01 X-3.6210 Y36.7543
G01 X-3.6419 Y36.7987
G01 X-3.6585 Y36.8449
G01 X-3.6704 Y36.8925
G01 X-3.6776 Y36.9410
G01 X-3.6800 Y36.9900
G01 X-3.6776 Y37.0390
G01 X-3.6704 Y37.0875
G01 X-3.6585 Y37.1351
G01 X-3.6419 Y37.1813
G01 X-3.6210 Y37.2257
G01 X-3.5957 Y37.2678
G01 X-3.5665 Y37.3072
G01 X-3.5336 Y37.3436
G01 X-3.4972 Y37.3765
G01 X-3.4578 Y37.4057
G01 X-3.4157 Y37.4310
G01 X-3.3713 Y37.4519
G01 X-3.3251 Y37.4685
G01 X-3.2775 Y37.4804
G01 X-3.2290 Y37.4876
G01 X-3.1800 Y37.4900
G01 X-3.1310 Y37.4876
G01 X-3.0825 Y37.4804
G01 X-3.0349 Y37.4685
G01 X-2.9887 Y37.4519
G01 X-2.9443 Y37.4310
G01 X-2.9022 Y37.4057
G01 X-2.8628 Y37.3765
G01 X-2.8264 Y37.3436
G01 X-2.7935 Y37.3072
G01 X-2.7643 Y37.2678
G01 X-2.7390 Y37.2257
G01 X-2.7181 Y37.1813
G01 X-2.7015 Y37.1351
G01 X-2.6896 Y37.0875
G01 X-2.6824 Y37.0390
G01 X-2.6800 Y36.9900
G00 X-2.6800 Y36.9900
G01 F70.00
G01 Z-1.1000
G01 F120.00
G01 X-2.6824 Y36.9410
G01 X-2.6896 Y36.8925
G01 X-2.7015 Y36.8449
G01 X-2.7181 Y36.7987
G01 X-2.7390 Y36.7543
G01 X-2.7643 Y36.7122
G01 X-2.7935 Y36.6728
G01 X-2.8264 Y36.6364
G01 X-2.8628 Y36.6035
G01 X-2.9022 Y36.5743
G01 X-2.9443 Y36.5490
G01 X-2.9887 Y36.5281
G01 X-3.0349 Y36.5115
G01 X-3.0825 Y36.4996
G01 X-3.1310 Y36.4924
G01 X-3.1800 Y36.4900
G01 X-3.2290 Y36.4924
G01 X-3.2775 Y36.4996
G01 X-3.3251 Y36.5115
G01 X-3.3713 Y36.5281
G01 X-3.4157 Y36.5490
G01 X-3.4578 Y36.5743
G01 X-3.4972 Y36.6035
G01 X-3.5336 Y36.6364
G01 X-3.5665 Y36.6728
G01 X-3.5957 Y36.7122
G01 X-3.6210 Y36.7543
G01 X-3.6419 Y36.7987
G01 X-3.6585 Y36.8449
G01 X-3.6704 Y36.8925
G01 X-3.6776 Y36.9410
G01 X-3.6800 Y36.9900
G01 X-3.6776 Y37.0390
G01 X-3.6704 Y37.0875
G01 X-3.6585 Y37.1351
G01 X-3.6419 Y37.1813
G01 X-3.6210 Y37.2257
G01 X-3.5957 Y37.2678
G01 X-3.5665 Y37.3072
G01 X-3.5336 Y37.3436
G01 X-3.4972 Y37.3765
G01 X-3.4578 Y37.4057
G01 X-3.4157 Y37.4310
G01 X-3.3713 Y37.4519
G01 X-3.3251 Y37.4685
G01 X-3.2775 Y37.4804
G01 X-3.2290 Y37.4876
G01 X-3.1800 Y37.4900
G01 X-3.1310 Y37.4876
G01 X-3.0825 Y37.4804
G01 X-3.0349 Y37.4685
G01 X-2.9887 Y37.4519
G01 X-2.9443 Y37.4310
G01 X-2.9022 Y37.4057
G01 X-2.8628 Y37.3765
G01 X-2.8264 Y37.3436
G01 X-2.7935 Y37.3072
G01 X-2.7643 Y37.2678
G01 X-2.7390 Y37.2257
G01 X-2.7181 Y37.1813
G01 X-2.7015 Y37.1351
G01 X-2.6896 Y37.0875
G01 X-2.6824 Y37.0390
G01 X-2.6800 Y36.9900
G00 X-2.6800 Y36.9900
G01 F70.00
G01 Z-1.2000
G01 F120.00
G01 X-2.6824 Y36.9410
G01 X-2.6896 Y36.8925
G01 X-2.7015 Y36.8449
G01 X-2.7181 Y36.7987
G01 X-2.7390 Y36.7543
G01 X-2.7643 Y36.7122
G01 X-2.7935 Y36.6728
G01 X-2.8264 Y36.6364
G01 X-2.8628 Y36.6035
G01 X-2.9022 Y36.5743
G01 X-2.9443 Y36.5490
G01 X-2.9887 Y36.5281
G01 X-3.0349 Y36.5115
G01 X-3.0825 Y36.4996
G01 X-3.1310 Y36.4924
G01 X-3.1800 Y36.4900
G01 X-3.2290 Y36.4924
G01 X-3.2775 Y36.4996
G01 X-3.3251 Y36.5115
G01 X-3.3713 Y36.5281
G01 X-3.4157 Y36.5490
G01 X-3.4578 Y36.5743
G01 X-3.4972 Y36.6035
G01 X-3.5336 Y36.6364
G01 X-3.5665 Y36.6728
G01 X-3.5957 Y36.7122
G01 X-3.6210 Y36.7543
G01 X-3.6419 Y36.7987
G01 X-3.6585 Y36.8449
G01 X-3.6704 Y36.8925
G01 X-3.6776 Y36.9410
G01 X-3.6800 Y36.9900
G01 X-3.6776 Y37.0390
G01 X-3.6704 Y37.0875
G01 X-3.6585 Y37.1351
G01 X-3.6419 Y37.1813
G01 X-3.6210 Y37.2257
G01 X-3.5957 Y37.2678
G01 X-3.5665 Y37.3072
G01 X-3.5336 Y37.3436
G01 X-3.4972 Y37.3765
G01 X-3.4578 Y37.4057
G01 X-3.4157 Y37.4310
G01 X-3.3713 Y37.4519
G01 X-3.3251 Y37.4685
G01 X-3.2775 Y37.4804
G01 X-3.2290 Y37.4876
G01 X-3.1800 Y37.4900
G01 X-3.1310 Y37.4876
G01 X-3.0825 Y37.4804
G01 X-3.0349 Y37.4685
G01 X-2.9887 Y37.4519
G01 X-2.9443 Y37.4310
G01 X-2.9022 Y37.4057
G01 X-2.8628 Y37.3765
G01 X-2.8264 Y37.3436
G01 X-2.7935 Y37.3072
G01 X-2.7643 Y37.2678
G01 X-2.7390 Y37.2257
G01 X-2.7181 Y37.1813
G01 X-2.7015 Y37.1351
G01 X-2.6896 Y37.0875
G01 X-2.6824 Y37.0390
G01 X-2.6800 Y36.9900
G00 X-2.6800 Y36.9900
G01 F70.00
G01 Z-1.3000
G01 F120.00
G01 X-2.6824 Y36.9410
G01 X-2.6896 Y36.8925
G01 X-2.7015 Y36.8449
G01 X-2.7181 Y36.7987
G01 X-2.7390 Y36.7543
G01 X-2.7643 Y36.7122
G01 X-2.7935 Y36.6728
G01 X-2.8264 Y36.6364
G01 X-2.8628 Y36.6035
G01 X-2.9022 Y36.5743
G01 X-2.9443 Y36.5490
G01 X-2.9887 Y36.5281
G01 X-3.0349 Y36.5115
G01 X-3.0825 Y36.4996
G01 X-3.1310 Y36.4924
G01 X-3.1800 Y36.4900
G01 X-3.2290 Y36.4924
G01 X-3.2775 Y36.4996
G01 X-3.3251 Y36.5115
G01 X-3.3713 Y36.5281
G01 X-3.4157 Y36.5490
G01 X-3.4578 Y36.5743
G01 X-3.4972 Y36.6035
G01 X-3.5336 Y36.6364
G01 X-3.5665 Y36.6728
G01 X-3.5957 Y36.7122
G01 X-3.6210 Y36.7543
G01 X-3.6419 Y36.7987
G01 X-3.6585 Y36.8449
G01 X-3.6704 Y36.8925
G01 X-3.6776 Y36.9410
G01 X-3.6800 Y36.9900
G01 X-3.6776 Y37.0390
G01 X-3.6704 Y37.0875
G01 X-3.6585 Y37.1351
G01 X-3.6419 Y37.1813
G01 X-3.6210 Y37.2257
G01 X-3.5957 Y37.2678
G01 X-3.5665 Y37.3072
G01 X-3.5336 Y37.3436
G01 X-3.4972 Y37.3765
G01 X-3.4578 Y37.4057
G01 X-3.4157 Y37.4310
G01 X-3.3713 Y37.4519
G01 X-3.3251 Y37.4685
G01 X-3.2775 Y37.4804
G01 X-3.2290 Y37.4876
G01 X-3.1800 Y37.4900
G01 X-3.1310 Y37.4876
G01 X-3.0825 Y37.4804
G01 X-3.0349 Y37.4685
G01 X-2.9887 Y37.4519
G01 X-2.9443 Y37.4310
G01 X-2.9022 Y37.4057
G01 X-2.8628 Y37.3765
G01 X-2.8264 Y37.3436
G01 X-2.7935 Y37.3072
G01 X-2.7643 Y37.2678
G01 X-2.7390 Y37.2257
G01 X-2.7181 Y37.1813
G01 X-2.7015 Y37.1351
G01 X-2.6896 Y37.0875
G01 X-2.6824 Y37.0390
G01 X-2.6800 Y36.9900
G00 X-2.6800 Y36.9900
G01 F70.00
G01 Z-1.4000
G01 F120.00
G01 X-2.6824 Y36.9410
G01 X-2.6896 Y36.8925
G01 X-2.7015 Y36.8449
G01 X-2.7181 Y36.7987
G01 X-2.7390 Y36.7543
G01 X-2.7643 Y36.7122
G01 X-2.7935 Y36.6728
G01 X-2.8264 Y36.6364
G01 X-2.8628 Y36.6035
G01 X-2.9022 Y36.5743
G01 X-2.9443 Y36.5490
G01 X-2.9887 Y36.5281
G01 X-3.0349 Y36.5115
G01 X-3.0825 Y36.4996
G01 X-3.1310 Y36.4924
G01 X-3.1800 Y36.4900
G01 X-3.2290 Y36.4924
G01 X-3.2775 Y36.4996
G01 X-3.3251 Y36.5115
G01 X-3.3713 Y36.5281
G01 X-3.4157 Y36.5490
G01 X-3.4578 Y36.5743
G01 X-3.4972 Y36.6035
G01 X-3.5336 Y36.6364
G01 X-3.5665 Y36.6728
G01 X-3.5957 Y36.7122
G01 X-3.6210 Y36.7543
G01 X-3.6419 Y36.7987
G01 X-3.6585 Y36.8449
G01 X-3.6704 Y36.8925
G01 X-3.6776 Y36.9410
G01 X-3.6800 Y36.9900
G01 X-3.6776 Y37.0390
G01 X-3.6704 Y37.0875
G01 X-3.6585 Y37.1351
G01 X-3.6419 Y37.1813
G01 X-3.6210 Y37.2257
G01 X-3.5957 Y37.2678
G01 X-3.5665 Y37.3072
G01 X-3.5336 Y37.3436
G01 X-3.4972 Y37.3765
G01 X-3.4578 Y37.4057
G01 X-3.4157 Y37.4310
G01 X-3.3713 Y37.4519
G01 X-3.3251 Y37.4685
G01 X-3.2775 Y37.4804
G01 X-3.2290 Y37.4876
G01 X-3.1800 Y37.4900
G01 X-3.1310 Y37.4876
G01 X-3.0825 Y37.4804
G01 X-3.0349 Y37.4685
G01 X-2.9887 Y37.4519
G01 X-2.9443 Y37.4310
G01 X-2.9022 Y37.4057
G01 X-2.8628 Y37.3765
G01 X-2.8264 Y37.3436
G01 X-2.7935 Y37.3072
G01 X-2.7643 Y37.2678
G01 X-2.7390 Y37.2257
G01 X-2.7181 Y37.1813
G01 X-2.7015 Y37.1351
G01 X-2.6896 Y37.0875
G01 X-2.6824 Y37.0390
G01 X-2.6800 Y36.9900
G00 X-2.6800 Y36.9900
G01 F70.00
G01 Z-1.5000
G01 F120.00
G01 X-2.6824 Y36.9410
G01 X-2.6896 Y36.8925
G01 X-2.7015 Y36.8449
G01 X-2.7181 Y36.7987
G01 X-2.7390 Y36.7543
G01 X-2.7643 Y36.7122
G01 X-2.7935 Y36.6728
G01 X-2.8264 Y36.6364
G01 X-2.8628 Y36.6035
G01 X-2.9022 Y36.5743
G01 X-2.9443 Y36.5490
G01 X-2.9887 Y36.5281
G01 X-3.0349 Y36.5115
G01 X-3.0825 Y36.4996
G01 X-3.1310 Y36.4924
G01 X-3.1800 Y36.4900
G01 X-3.2290 Y36.4924
G01 X-3.2775 Y36.4996
G01 X-3.3251 Y36.5115
G01 X-3.3713 Y36.5281
G01 X-3.4157 Y36.5490
G01 X-3.4578 Y36.5743
G01 X-3.4972 Y36.6035
G01 X-3.5336 Y36.6364
G01 X-3.5665 Y36.6728
G01 X-3.5957 Y36.7122
G01 X-3.6210 Y36.7543
G01 X-3.6419 Y36.7987
G01 X-3.6585 Y36.8449
G01 X-3.6704 Y36.8925
G01 X-3.6776 Y36.9410
G01 X-3.6800 Y36.9900
G01 X-3.6776 Y37.0390
G01 X-3.6704 Y37.0875
G01 X-3.6585 Y37.1351
G01 X-3.6419 Y37.1813
G01 X-3.6210 Y37.2257
G01 X-3.5957 Y37.2678
G01 X-3.5665 Y37.3072
G01 X-3.5336 Y37.3436
G01 X-3.4972 Y37.3765
G01 X-3.4578 Y37.4057
G01 X-3.4157 Y37.4310
G01 X-3.3713 Y37.4519
G01 X-3.3251 Y37.4685
G01 X-3.2775 Y37.4804
G01 X-3.2290 Y37.4876
G01 X-3.1800 Y37.4900
G01 X-3.1310 Y37.4876
G01 X-3.0825 Y37.4804
G01 X-3.0349 Y37.4685
G01 X-2.9887 Y37.4519
G01 X-2.9443 Y37.4310
G01 X-2.9022 Y37.4057
G01 X-2.8628 Y37.3765
G01 X-2.8264 Y37.3436
G01 X-2.7935 Y37.3072
G01 X-2.7643 Y37.2678
G01 X-2.7390 Y37.2257
G01 X-2.7181 Y37.1813
G01 X-2.7015 Y37.1351
G01 X-2.6896 Y37.0875
G01 X-2.6824 Y37.0390
G01 X-2.6800 Y36.9900
G00 X-2.6800 Y36.9900
G01 F70.00
G01 Z-1.6000
G01 F120.00
G01 X-2.6824 Y36.9410
G01 X-2.6896 Y36.8925
G01 X-2.7015 Y36.8449
G01 X-2.7181 Y36.7987
G01 X-2.7390 Y36.7543
G01 X-2.7643 Y36.7122
G01 X-2.7935 Y36.6728
G01 X-2.8264 Y36.6364
G01 X-2.8628 Y36.6035
G01 X-2.9022 Y36.5743
G01 X-2.9443 Y36.5490
G01 X-2.9887 Y36.5281
G01 X-3.0349 Y36.5115
G01 X-3.0825 Y36.4996
G01 X-3.1310 Y36.4924
G01 X-3.1800 Y36.4900
G01 X-3.2290 Y36.4924
G01 X-3.2775 Y36.4996
G01 X-3.3251 Y36.5115
G01 X-3.3713 Y36.5281
G01 X-3.4157 Y36.5490
G01 X-3.4578 Y36.5743
G01 X-3.4972 Y36.6035
G01 X-3.5336 Y36.6364
G01 X-3.5665 Y36.6728
G01 X-3.5957 Y36.7122
G01 X-3.6210 Y36.7543
G01 X-3.6419 Y36.7987
G01 X-3.6585 Y36.8449
G01 X-3.6704 Y36.8925
G01 X-3.6776 Y36.9410
G01 X-3.6800 Y36.9900
G01 X-3.6776 Y37.0390
G01 X-3.6704 Y37.0875
G01 X-3.6585 Y37.1351
G01 X-3.6419 Y37.1813
G01 X-3.6210 Y37.2257
G01 X-3.5957 Y37.2678
G01 X-3.5665 Y37.3072
G01 X-3.5336 Y37.3436
G01 X-3.4972 Y37.3765
G01 X-3.4578 Y37.4057
G01 X-3.4157 Y37.4310
G01 X-3.3713 Y37.4519
G01 X-3.3251 Y37.4685
G01 X-3.2775 Y37.4804
G01 X-3.2290 Y37.4876
G01 X-3.1800 Y37.4900
G01 X-3.1310 Y37.4876
G01 X-3.0825 Y37.4804
G01 X-3.0349 Y37.4685
G01 X-2.9887 Y37.4519
G01 X-2.9443 Y37.4310
G01 X-2.9022 Y37.4057
G01 X-2.8628 Y37.3765
G01 X-2.8264 Y37.3436
G01 X-2.7935 Y37.3072
G01 X-2.7643 Y37.2678
G01 X-2.7390 Y37.2257
G01 X-2.7181 Y37.1813
G01 X-2.7015 Y37.1351
G01 X-2.6896 Y37.0875
G01 X-2.6824 Y37.0390
G01 X-2.6800 Y36.9900
G00 X-2.6800 Y36.9900
G01 F70.00
G01 Z-1.7000
G01 F120.00
G01 X-2.6824 Y36.9410
G01 X-2.6896 Y36.8925
G01 X-2.7015 Y36.8449
G01 X-2.7181 Y36.7987
G01 X-2.7390 Y36.7543
G01 X-2.7643 Y36.7122
G01 X-2.7935 Y36.6728
G01 X-2.8264 Y36.6364
G01 X-2.8628 Y36.6035
G01 X-2.9022 Y36.5743
G01 X-2.9443 Y36.5490
G01 X-2.9887 Y36.5281
G01 X-3.0349 Y36.5115
G01 X-3.0825 Y36.4996
G01 X-3.1310 Y36.4924
G01 X-3.1800 Y36.4900
G01 X-3.2290 Y36.4924
G01 X-3.2775 Y36.4996
G01 X-3.3251 Y36.5115
G01 X-3.3713 Y36.5281
G01 X-3.4157 Y36.5490
G01 X-3.4578 Y36.5743
G01 X-3.4972 Y36.6035
G01 X-3.5336 Y36.6364
G01 X-3.5665 Y36.6728
G01 X-3.5957 Y36.7122
G01 X-3.6210 Y36.7543
G01 X-3.6419 Y36.7987
G01 X-3.6585 Y36.8449
G01 X-3.6704 Y36.8925
G01 X-3.6776 Y36.9410
G01 X-3.6800 Y36.9900
G01 X-3.6776 Y37.0390
G01 X-3.6704 Y37.0875
G01 X-3.6585 Y37.1351
G01 X-3.6419 Y37.1813
G01 X-3.6210 Y37.2257
G01 X-3.5957 Y37.2678
G01 X-3.5665 Y37.3072
G01 X-3.5336 Y37.3436
G01 X-3.4972 Y37.3765
G01 X-3.4578 Y37.4057
G01 X-3.4157 Y37.4310
G01 X-3.3713 Y37.4519
G01 X-3.3251 Y37.4685
G01 X-3.2775 Y37.4804
G01 X-3.2290 Y37.4876
G01 X-3.1800 Y37.4900
G01 X-3.1310 Y37.4876
G01 X-3.0825 Y37.4804
G01 X-3.0349 Y37.4685
G01 X-2.9887 Y37.4519
G01 X-2.9443 Y37.4310
G01 X-2.9022 Y37.4057
G01 X-2.8628 Y37.3765
G01 X-2.8264 Y37.3436
G01 X-2.7935 Y37.3072
G01 X-2.7643 Y37.2678
G01 X-2.7390 Y37.2257
G01 X-2.7181 Y37.1813
G01 X-2.7015 Y37.1351
G01 X-2.6896 Y37.0875
G01 X-2.6824 Y37.0390
G01 X-2.6800 Y36.9900
G00 X-2.6800 Y36.9900
G01 F70.00
G01 Z-1.8000
G01 F120.00
G01 X-2.6824 Y36.9410
G01 X-2.6896 Y36.8925
G01 X-2.7015 Y36.8449
G01 X-2.7181 Y36.7987
G01 X-2.7390 Y36.7543
G01 X-2.7643 Y36.7122
G01 X-2.7935 Y36.6728
G01 X-2.8264 Y36.6364
G01 X-2.8628 Y36.6035
G01 X-2.9022 Y36.5743
G01 X-2.9443 Y36.5490
G01 X-2.9887 Y36.5281
G01 X-3.0349 Y36.5115
G01 X-3.0825 Y36.4996
G01 X-3.1310 Y36.4924
G01 X-3.1800 Y36.4900
G01 X-3.2290 Y36.4924
G01 X-3.2775 Y36.4996
G01 X-3.3251 Y36.5115
G01 X-3.3713 Y36.5281
G01 X-3.4157 Y36.5490
G01 X-3.4578 Y36.5743
G01 X-3.4972 Y36.6035
G01 X-3.5336 Y36.6364
G01 X-3.5665 Y36.6728
G01 X-3.5957 Y36.7122
G01 X-3.6210 Y36.7543
G01 X-3.6419 Y36.7987
G01 X-3.6585 Y36.8449
G01 X-3.6704 Y36.8925
G01 X-3.6776 Y36.9410
G01 X-3.6800 Y36.9900
G01 X-3.6776 Y37.0390
G01 X-3.6704 Y37.0875
G01 X-3.6585 Y37.1351
G01 X-3.6419 Y37.1813
G01 X-3.6210 Y37.2257
G01 X-3.5957 Y37.2678
G01 X-3.5665 Y37.3072
G01 X-3.5336 Y37.3436
G01 X-3.4972 Y37.3765
G01 X-3.4578 Y37.4057
G01 X-3.4157 Y37.4310
G01 X-3.3713 Y37.4519
G01 X-3.3251 Y37.4685
G01 X-3.2775 Y37.4804
G01 X-3.2290 Y37.4876
G01 X-3.1800 Y37.4900
G01 X-3.1310 Y37.4876
G01 X-3.0825 Y37.4804
G01 X-3.0349 Y37.4685
G01 X-2.9887 Y37.4519
G01 X-2.9443 Y37.4310
G01 X-2.9022 Y37.4057
G01 X-2.8628 Y37.3765
G01 X-2.8264 Y37.3436
G01 X-2.7935 Y37.3072
G01 X-2.7643 Y37.2678
G01 X-2.7390 Y37.2257
G01 X-2.7181 Y37.1813
G01 X-2.7015 Y37.1351
G01 X-2.6896 Y37.0875
G01 X-2.6824 Y37.0390
G01 X-2.6800 Y36.9900
G00 X-2.6800 Y36.9900
G01 F70.00
G01 Z-1.9000
G01 F120.00
G01 X-2.6824 Y36.9410
G01 X-2.6896 Y36.8925
G01 X-2.7015 Y36.8449
G01 X-2.7181 Y36.7987
G01 X-2.7390 Y36.7543
G01 X-2.7643 Y36.7122
G01 X-2.7935 Y36.6728
G01 X-2.8264 Y36.6364
G01 X-2.8628 Y36.6035
G01 X-2.9022 Y36.5743
G01 X-2.9443 Y36.5490
G01 X-2.9887 Y36.5281
G01 X-3.0349 Y36.5115
G01 X-3.0825 Y36.4996
G01 X-3.1310 Y36.4924
G01 X-3.1800 Y36.4900
G01 X-3.2290 Y36.4924
G01 X-3.2775 Y36.4996
G01 X-3.3251 Y36.5115
G01 X-3.3713 Y36.5281
G01 X-3.4157 Y36.5490
G01 X-3.4578 Y36.5743
G01 X-3.4972 Y36.6035
G01 X-3.5336 Y36.6364
G01 X-3.5665 Y36.6728
G01 X-3.5957 Y36.7122
G01 X-3.6210 Y36.7543
G01 X-3.6419 Y36.7987
G01 X-3.6585 Y36.8449
G01 X-3.6704 Y36.8925
G01 X-3.6776 Y36.9410
G01 X-3.6800 Y36.9900
G01 X-3.6776 Y37.0390
G01 X-3.6704 Y37.0875
G01 X-3.6585 Y37.1351
G01 X-3.6419 Y37.1813
G01 X-3.6210 Y37.2257
G01 X-3.5957 Y37.2678
G01 X-3.5665 Y37.3072
G01 X-3.5336 Y37.3436
G01 X-3.4972 Y37.3765
G01 X-3.4578 Y37.4057
G01 X-3.4157 Y37.4310
G01 X-3.3713 Y37.4519
G01 X-3.3251 Y37.4685
G01 X-3.2775 Y37.4804
G01 X-3.2290 Y37.4876
G01 X-3.1800 Y37.4900
G01 X-3.1310 Y37.4876
G01 X-3.0825 Y37.4804
G01 X-3.0349 Y37.4685
G01 X-2.9887 Y37.4519
G01 X-2.9443 Y37.4310
G01 X-2.9022 Y37.4057
G01 X-2.8628 Y37.3765
G01 X-2.8264 Y37.3436
G01 X-2.7935 Y37.3072
G01 X-2.7643 Y37.2678
G01 X-2.7390 Y37.2257
G01 X-2.7181 Y37.1813
G01 X-2.7015 Y37.1351
G01 X-2.6896 Y37.0875
G01 X-2.6824 Y37.0390
G01 X-2.6800 Y36.9900
G00 Z2.0000
G00 X-41.2500 Y36.9900
G01 F70.00
G01 Z-0.1000
G01 F120.00
G01 X-41.2524 Y36.9410
G01 X-41.2596 Y36.8925
G01 X-41.2715 Y36.8449
G01 X-41.2881 Y36.7987
G01 X-41.3090 Y36.7543
G01 X-41.3343 Y36.7122
G01 X-41.3635 Y36.6728
G01 X-41.3964 Y36.6364
G01 X-41.4328 Y36.6035
G01 X-41.4722 Y36.5743
G01 X-41.5143 Y36.5490
G01 X-41.5587 Y36.5281
G01 X-41.6049 Y36.5115
G01 X-41.6525 Y36.4996
G01 X-41.7010 Y36.4924
G01 X-41.7500 Y36.4900
G01 X-41.7990 Y36.4924
G01 X-41.8475 Y36.4996
G01 X-41.8951 Y36.5115
G01 X-41.9413 Y36.5281
G01 X-41.9857 Y36.5490
G01 X-42.0278 Y36.5743
G01 X-42.0672 Y36.6035
G01 X-42.1036 Y36.6364
G01 X-42.1365 Y36.6728
G01 X-42.1657 Y36.7122
G01 X-42.1910 Y36.7543
G01 X-42.2119 Y36.7987
G01 X-42.2285 Y36.8449
G01 X-42.2404 Y36.8925
G01 X-42.2476 Y36.9410
G01 X-42.2500 Y36.9900
G01 X-42.2476 Y37.0390
G01 X-42.2404 Y37.0875
G01 X-42.2285 Y37.1351
G01 X-42.2119 Y37.1813
G01 X-42.1910 Y37.2257
G01 X-42.1657 Y37.2678
G01 X-42.1365 Y37.3072
G01 X-42.1036 Y37.3436
G01 X-42.0672 Y37.3765
G01 X-42.0278 Y37.4057
G01 X-41.9857 Y37.4310
G01 X-41.9413 Y37.4519
G01 X-41.8951 Y37.4685
G01 X-41.8475 Y37.4804
G01 X-41.7990 Y37.4876
G01 X-41.7500 Y37.4900
G01 X-41.7010 Y37.4876
G01 X-41.6525 Y37.4804
G01 X-41.6049 Y37.4685
G01 X-41.5587 Y37.4519
G01 X-41.5143 Y37.4310
G01 X-41.4722 Y37.4057
G01 X-41.4328 Y37.3765
G01 X-41.3964 Y37.3436
G01 X-41.3635 Y37.3072
G01 X-41.3343 Y37.2678
G01 X-41.3090 Y37.2257
G01 X-41.2881 Y37.1813
G01 X-41.2715 Y37.1351
G01 X-41.2596 Y37.0875
G01 X-41.2524 Y37.0390
G01 X-41.2500 Y36.9900
G00 X-41.2500 Y36.9900
G01 F70.00
G01 Z-0.2000
G01 F120.00
G01 X-41.2524 Y36.9410
G01 X-41.2596 Y36.8925
G01 X-41.2715 Y36.8449
G01 X-41.2881 Y36.7987
G01 X-41.3090 Y36.7543
G01 X-41.3343 Y36.7122
G01 X-41.3635 Y36.6728
G01 X-41.3964 Y36.6364
G01 X-41.4328 Y36.6035
G01 X-41.4722 Y36.5743
G01 X-41.5143 Y36.5490
G01 X-41.5587 Y36.5281
G01 X-41.6049 Y36.5115
G01 X-41.6525 Y36.4996
G01 X-41.7010 Y36.4924
G01 X-41.7500 Y36.4900
G01 X-41.7990 Y36.4924
G01 X-41.8475 Y36.4996
G01 X-41.8951 Y36.5115
G01 X-41.9413 Y36.5281
G01 X-41.9857 Y36.5490
G01 X-42.0278 Y36.5743
G01 X-42.0672 Y36.6035
G01 X-42.1036 Y36.6364
G01 X-42.1365 Y36.6728
G01 X-42.1657 Y36.7122
G01 X-42.1910 Y36.7543
G01 X-42.2119 Y36.7987
G01 X-42.2285 Y36.8449
G01 X-42.2404 Y36.8925
G01 X-42.2476 Y36.9410
G01 X-42.2500 Y36.9900
G01 X-42.2476 Y37.0390
G01 X-42.2404 Y37.0875
G01 X-42.2285 Y37.1351
G01 X-42.2119 Y37.1813
G01 X-42.1910 Y37.2257
G01 X-42.1657 Y37.2678
G01 X-42.1365 Y37.3072
G01 X-42.1036 Y37.3436
G01 X-42.0672 Y37.3765
G01 X-42.0278 Y37.4057
G01 X-41.9857 Y37.4310
G01 X-41.9413 Y37.4519
G01 X-41.8951 Y37.4685
G01 X-41.8475 Y37.4804
G01 X-41.7990 Y37.4876
G01 X-41.7500 Y37.4900
G01 X-41.7010 Y37.4876
G01 X-41.6525 Y37.4804
G01 X-41.6049 Y37.4685
G01 X-41.5587 Y37.4519
G01 X-41.5143 Y37.4310
G01 X-41.4722 Y37.4057
G01 X-41.4328 Y37.3765
G01 X-41.3964 Y37.3436
G01 X-41.3635 Y37.3072
G01 X-41.3343 Y37.2678
G01 X-41.3090 Y37.2257
G01 X-41.2881 Y37.1813
G01 X-41.2715 Y37.1351
G01 X-41.2596 Y37.0875
G01 X-41.2524 Y37.0390
G01 X-41.2500 Y36.9900
G00 X-41.2500 Y36.9900
G01 F70.00
G01 Z-0.3000
G01 F120.00
G01 X-41.2524 Y36.9410
G01 X-41.2596 Y36.8925
G01 X-41.2715 Y36.8449
G01 X-41.2881 Y36.7987
G01 X-41.3090 Y36.7543
G01 X-41.3343 Y36.7122
G01 X-41.3635 Y36.6728
G01 X-41.3964 Y36.6364
G01 X-41.4328 Y36.6035
G01 X-41.4722 Y36.5743
G01 X-41.5143 Y36.5490
G01 X-41.5587 Y36.5281
G01 X-41.6049 Y36.5115
G01 X-41.6525 Y36.4996
G01 X-41.7010 Y36.4924
G01 X-41.7500 Y36.4900
G01 X-41.7990 Y36.4924
G01 X-41.8475 Y36.4996
G01 X-41.8951 Y36.5115
G01 X-41.9413 Y36.5281
G01 X-41.9857 Y36.5490
G01 X-42.0278 Y36.5743
G01 X-42.0672 Y36.6035
G01 X-42.1036 Y36.6364
G01 X-42.1365 Y36.6728
G01 X-42.1657 Y36.7122
G01 X-42.1910 Y36.7543
G01 X-42.2119 Y36.7987
G01 X-42.2285 Y36.8449
G01 X-42.2404 Y36.8925
G01 X-42.2476 Y36.9410
G01 X-42.2500 Y36.9900
G01 X-42.2476 Y37.0390
G01 X-42.2404 Y37.0875
G01 X-42.2285 Y37.1351
G01 X-42.2119 Y37.1813
G01 X-42.1910 Y37.2257
G01 X-42.1657 Y37.2678
G01 X-42.1365 Y37.3072
G01 X-42.1036 Y37.3436
G01 X-42.0672 Y37.3765
G01 X-42.0278 Y37.4057
G01 X-41.9857 Y37.4310
G01 X-41.9413 Y37.4519
G01 X-41.8951 Y37.4685
G01 X-41.8475 Y37.4804
G01 X-41.7990 Y37.4876
G01 X-41.7500 Y37.4900
G01 X-41.7010 Y37.4876
G01 X-41.6525 Y37.4804
G01 X-41.6049 Y37.4685
G01 X-41.5587 Y37.4519
G01 X-41.5143 Y37.4310
G01 X-41.4722 Y37.4057
G01 X-41.4328 Y37.3765
G01 X-41.3964 Y37.3436
G01 X-41.3635 Y37.3072
G01 X-41.3343 Y37.2678
G01 X-41.3090 Y37.2257
G01 X-41.2881 Y37.1813
G01 X-41.2715 Y37.1351
G01 X-41.2596 Y37.0875
G01 X-41.2524 Y37.0390
G01 X-41.2500 Y36.9900
G00 X-41.2500 Y36.9900
G01 F70.00
G01 Z-0.4000
G01 F120.00
G01 X-41.2524 Y36.9410
G01 X-41.2596 Y36.8925
G01 X-41.2715 Y36.8449
G01 X-41.2881 Y36.7987
G01 X-41.3090 Y36.7543
G01 X-41.3343 Y36.7122
G01 X-41.3635 Y36.6728
G01 X-41.3964 Y36.6364
G01 X-41.4328 Y36.6035
G01 X-41.4722 Y36.5743
G01 X-41.5143 Y36.5490
G01 X-41.5587 Y36.5281
G01 X-41.6049 Y36.5115
G01 X-41.6525 Y36.4996
G01 X-41.7010 Y36.4924
G01 X-41.7500 Y36.4900
G01 X-41.7990 Y36.4924
G01 X-41.8475 Y36.4996
G01 X-41.8951 Y36.5115
G01 X-41.9413 Y36.5281
G01 X-41.9857 Y36.5490
G01 X-42.0278 Y36.5743
G01 X-42.0672 Y36.6035
G01 X-42.1036 Y36.6364
G01 X-42.1365 Y36.6728
G01 X-42.1657 Y36.7122
G01 X-42.1910 Y36.7543
G01 X-42.2119 Y36.7987
G01 X-42.2285 Y36.8449
G01 X-42.2404 Y36.8925
G01 X-42.2476 Y36.9410
G01 X-42.2500 Y36.9900
G01 X-42.2476 Y37.0390
G01 X-42.2404 Y37.0875
G01 X-42.2285 Y37.1351
G01 X-42.2119 Y37.1813
G01 X-42.1910 Y37.2257
G01 X-42.1657 Y37.2678
G01 X-42.1365 Y37.3072
G01 X-42.1036 Y37.3436
G01 X-42.0672 Y37.3765
G01 X-42.0278 Y37.4057
G01 X-41.9857 Y37.4310
G01 X-41.9413 Y37.4519
G01 X-41.8951 Y37.4685
G01 X-41.8475 Y37.4804
G01 X-41.7990 Y37.4876
G01 X-41.7500 Y37.4900
G01 X-41.7010 Y37.4876
G01 X-41.6525 Y37.4804
G01 X-41.6049 Y37.4685
G01 X-41.5587 Y37.4519
G01 X-41.5143 Y37.4310
G01 X-41.4722 Y37.4057
G01 X-41.4328 Y37.3765
G01 X-41.3964 Y37.3436
G01 X-41.3635 Y37.3072
G01 X-41.3343 Y37.2678
G01 X-41.3090 Y37.2257
G01 X-41.2881 Y37.1813
G01 X-41.2715 Y37.1351
G01 X-41.2596 Y37.0875
G01 X-41.2524 Y37.0390
G01 X-41.2500 Y36.9900
G00 X-41.2500 Y36.9900
G01 F70.00
G01 Z-0.5000
G01 F120.00
G01 X-41.2524 Y36.9410
G01 X-41.2596 Y36.8925
G01 X-41.2715 Y36.8449
G01 X-41.2881 Y36.7987
G01 X-41.3090 Y36.7543
G01 X-41.3343 Y36.7122
G01 X-41.3635 Y36.6728
G01 X-41.3964 Y36.6364
G01 X-41.4328 Y36.6035
G01 X-41.4722 Y36.5743
G01 X-41.5143 Y36.5490
G01 X-41.5587 Y36.5281
G01 X-41.6049 Y36.5115
G01 X-41.6525 Y36.4996
G01 X-41.7010 Y36.4924
G01 X-41.7500 Y36.4900
G01 X-41.7990 Y36.4924
G01 X-41.8475 Y36.4996
G01 X-41.8951 Y36.5115
G01 X-41.9413 Y36.5281
G01 X-41.9857 Y36.5490
G01 X-42.0278 Y36.5743
G01 X-42.0672 Y36.6035
G01 X-42.1036 Y36.6364
G01 X-42.1365 Y36.6728
G01 X-42.1657 Y36.7122
G01 X-42.1910 Y36.7543
G01 X-42.2119 Y36.7987
G01 X-42.2285 Y36.8449
G01 X-42.2404 Y36.8925
G01 X-42.2476 Y36.9410
G01 X-42.2500 Y36.9900
G01 X-42.2476 Y37.0390
G01 X-42.2404 Y37.0875
G01 X-42.2285 Y37.1351
G01 X-42.2119 Y37.1813
G01 X-42.1910 Y37.2257
G01 X-42.1657 Y37.2678
G01 X-42.1365 Y37.3072
G01 X-42.1036 Y37.3436
G01 X-42.0672 Y37.3765
G01 X-42.0278 Y37.4057
G01 X-41.9857 Y37.4310
G01 X-41.9413 Y37.4519
G01 X-41.8951 Y37.4685
G01 X-41.8475 Y37.4804
G01 X-41.7990 Y37.4876
G01 X-41.7500 Y37.4900
G01 X-41.7010 Y37.4876
G01 X-41.6525 Y37.4804
G01 X-41.6049 Y37.4685
G01 X-41.5587 Y37.4519
G01 X-41.5143 Y37.4310
G01 X-41.4722 Y37.4057
G01 X-41.4328 Y37.3765
G01 X-41.3964 Y37.3436
G01 X-41.3635 Y37.3072
G01 X-41.3343 Y37.2678
G01 X-41.3090 Y37.2257
G01 X-41.2881 Y37.1813
G01 X-41.2715 Y37.1351
G01 X-41.2596 Y37.0875
G01 X-41.2524 Y37.0390
G01 X-41.2500 Y36.9900
G00 X-41.2500 Y36.9900
G01 F70.00
G01 Z-0.6000
G01 F120.00
G01 X-41.2524 Y36.9410
G01 X-41.2596 Y36.8925
G01 X-41.2715 Y36.8449
G01 X-41.2881 Y36.7987
G01 X-41.3090 Y36.7543
G01 X-41.3343 Y36.7122
G01 X-41.3635 Y36.6728
G01 X-41.3964 Y36.6364
G01 X-41.4328 Y36.6035
G01 X-41.4722 Y36.5743
G01 X-41.5143 Y36.5490
G01 X-41.5587 Y36.5281
G01 X-41.6049 Y36.5115
G01 X-41.6525 Y36.4996
G01 X-41.7010 Y36.4924
G01 X-41.7500 Y36.4900
G01 X-41.7990 Y36.4924
G01 X-41.8475 Y36.4996
G01 X-41.8951 Y36.5115
G01 X-41.9413 Y36.5281
G01 X-41.9857 Y36.5490
G01 X-42.0278 Y36.5743
G01 X-42.0672 Y36.6035
G01 X-42.1036 Y36.6364
G01 X-42.1365 Y36.6728
G01 X-42.1657 Y36.7122
G01 X-42.1910 Y36.7543
G01 X-42.2119 Y36.7987
G01 X-42.2285 Y36.8449
G01 X-42.2404 Y36.8925
G01 X-42.2476 Y36.9410
G01 X-42.2500 Y36.9900
G01 X-42.2476 Y37.0390
G01 X-42.2404 Y37.0875
G01 X-42.2285 Y37.1351
G01 X-42.2119 Y37.1813
G01 X-42.1910 Y37.2257
G01 X-42.1657 Y37.2678
G01 X-42.1365 Y37.3072
G01 X-42.1036 Y37.3436
G01 X-42.0672 Y37.3765
G01 X-42.0278 Y37.4057
G01 X-41.9857 Y37.4310
G01 X-41.9413 Y37.4519
G01 X-41.8951 Y37.4685
G01 X-41.8475 Y37.4804
G01 X-41.7990 Y37.4876
G01 X-41.7500 Y37.4900
G01 X-41.7010 Y37.4876
G01 X-41.6525 Y37.4804
G01 X-41.6049 Y37.4685
G01 X-41.5587 Y37.4519
G01 X-41.5143 Y37.4310
G01 X-41.4722 Y37.4057
G01 X-41.4328 Y37.3765
G01 X-41.3964 Y37.3436
G01 X-41.3635 Y37.3072
G01 X-41.3343 Y37.2678
G01 X-41.3090 Y37.2257
G01 X-41.2881 Y37.1813
G01 X-41.2715 Y37.1351
G01 X-41.2596 Y37.0875
G01 X-41.2524 Y37.0390
G01 X-41.2500 Y36.9900
G00 X-41.2500 Y36.9900
G01 F70.00
G01 Z-0.7000
G01 F120.00
G01 X-41.2524 Y36.9410
G01 X-41.2596 Y36.8925
G01 X-41.2715 Y36.8449
G01 X-41.2881 Y36.7987
G01 X-41.3090 Y36.7543
G01 X-41.3343 Y36.7122
G01 X-41.3635 Y36.6728
G01 X-41.3964 Y36.6364
G01 X-41.4328 Y36.6035
G01 X-41.4722 Y36.5743
G01 X-41.5143 Y36.5490
G01 X-41.5587 Y36.5281
G01 X-41.6049 Y36.5115
G01 X-41.6525 Y36.4996
G01 X-41.7010 Y36.4924
G01 X-41.7500 Y36.4900
G01 X-41.7990 Y36.4924
G01 X-41.8475 Y36.4996
G01 X-41.8951 Y36.5115
G01 X-41.9413 Y36.5281
G01 X-41.9857 Y36.5490
G01 X-42.0278 Y36.5743
G01 X-42.0672 Y36.6035
G01 X-42.1036 Y36.6364
G01 X-42.1365 Y36.6728
G01 X-42.1657 Y36.7122
G01 X-42.1910 Y36.7543
G01 X-42.2119 Y36.7987
G01 X-42.2285 Y36.8449
G01 X-42.2404 Y36.8925
G01 X-42.2476 Y36.9410
G01 X-42.2500 Y36.9900
G01 X-42.2476 Y37.0390
G01 X-42.2404 Y37.0875
G01 X-42.2285 Y37.1351
G01 X-42.2119 Y37.1813
G01 X-42.1910 Y37.2257
G01 X-42.1657 Y37.2678
G01 X-42.1365 Y37.3072
G01 X-42.1036 Y37.3436
G01 X-42.0672 Y37.3765
G01 X-42.0278 Y37.4057
G01 X-41.9857 Y37.4310
G01 X-41.9413 Y37.4519
G01 X-41.8951 Y37.4685
G01 X-41.8475 Y37.4804
G01 X-41.7990 Y37.4876
G01 X-41.7500 Y37.4900
G01 X-41.7010 Y37.4876
G01 X-41.6525 Y37.4804
G01 X-41.6049 Y37.4685
G01 X-41.5587 Y37.4519
G01 X-41.5143 Y37.4310
G01 X-41.4722 Y37.4057
G01 X-41.4328 Y37.3765
G01 X-41.3964 Y37.3436
G01 X-41.3635 Y37.3072
G01 X-41.3343 Y37.2678
G01 X-41.3090 Y37.2257
G01 X-41.2881 Y37.1813
G01 X-41.2715 Y37.1351
G01 X-41.2596 Y37.0875
G01 X-41.2524 Y37.0390
G01 X-41.2500 Y36.9900
G00 X-41.2500 Y36.9900
G01 F70.00
G01 Z-0.8000
G01 F120.00
G01 X-41.2524 Y36.9410
G01 X-41.2596 Y36.8925
G01 X-41.2715 Y36.8449
G01 X-41.2881 Y36.7987
G01 X-41.3090 Y36.7543
G01 X-41.3343 Y36.7122
G01 X-41.3635 Y36.6728
G01 X-41.3964 Y36.6364
G01 X-41.4328 Y36.6035
G01 X-41.4722 Y36.5743
G01 X-41.5143 Y36.5490
G01 X-41.5587 Y36.5281
G01 X-41.6049 Y36.5115
G01 X-41.6525 Y36.4996
G01 X-41.7010 Y36.4924
G01 X-41.7500 Y36.4900
G01 X-41.7990 Y36.4924
G01 X-41.8475 Y36.4996
G01 X-41.8951 Y36.5115
G01 X-41.9413 Y36.5281
G01 X-41.9857 Y36.5490
G01 X-42.0278 Y36.5743
G01 X-42.0672 Y36.6035
G01 X-42.1036 Y36.6364
G01 X-42.1365 Y36.6728
G01 X-42.1657 Y36.7122
G01 X-42.1910 Y36.7543
G01 X-42.2119 Y36.7987
G01 X-42.2285 Y36.8449
G01 X-42.2404 Y36.8925
G01 X-42.2476 Y36.9410
G01 X-42.2500 Y36.9900
G01 X-42.2476 Y37.0390
G01 X-42.2404 Y37.0875
G01 X-42.2285 Y37.1351
G01 X-42.2119 Y37.1813
G01 X-42.1910 Y37.2257
G01 X-42.1657 Y37.2678
G01 X-42.1365 Y37.3072
G01 X-42.1036 Y37.3436
G01 X-42.0672 Y37.3765
G01 X-42.0278 Y37.4057
G01 X-41.9857 Y37.4310
G01 X-41.9413 Y37.4519
G01 X-41.8951 Y37.4685
G01 X-41.8475 Y37.4804
G01 X-41.7990 Y37.4876
G01 X-41.7500 Y37.4900
G01 X-41.7010 Y37.4876
G01 X-41.6525 Y37.4804
G01 X-41.6049 Y37.4685
G01 X-41.5587 Y37.4519
G01 X-41.5143 Y37.4310
G01 X-41.4722 Y37.4057
G01 X-41.4328 Y37.3765
G01 X-41.3964 Y37.3436
G01 X-41.3635 Y37.3072
G01 X-41.3343 Y37.2678
G01 X-41.3090 Y37.2257
G01 X-41.2881 Y37.1813
G01 X-41.2715 Y37.1351
G01 X-41.2596 Y37.0875
G01 X-41.2524 Y37.0390
G01 X-41.2500 Y36.9900
G00 X-41.2500 Y36.9900
G01 F70.00
G01 Z-0.9000
G01 F120.00
G01 X-41.2524 Y36.9410
G01 X-41.2596 Y36.8925
G01 X-41.2715 Y36.8449
G01 X-41.2881 Y36.7987
G01 X-41.3090 Y36.7543
G01 X-41.3343 Y36.7122
G01 X-41.3635 Y36.6728
G01 X-41.3964 Y36.6364
G01 X-41.4328 Y36.6035
G01 X-41.4722 Y36.5743
G01 X-41.5143 Y36.5490
G01 X-41.5587 Y36.5281
G01 X-41.6049 Y36.5115
G01 X-41.6525 Y36.4996
G01 X-41.7010 Y36.4924
G01 X-41.7500 Y36.4900
G01 X-41.7990 Y36.4924
G01 X-41.8475 Y36.4996
G01 X-41.8951 Y36.5115
G01 X-41.9413 Y36.5281
G01 X-41.9857 Y36.5490
G01 X-42.0278 Y36.5743
G01 X-42.0672 Y36.6035
G01 X-42.1036 Y36.6364
G01 X-42.1365 Y36.6728
G01 X-42.1657 Y36.7122
G01 X-42.1910 Y36.7543
G01 X-42.2119 Y36.7987
G01 X-42.2285 Y36.8449
G01 X-42.2404 Y36.8925
G01 X-42.2476 Y36.9410
G01 X-42.2500 Y36.9900
G01 X-42.2476 Y37.0390
G01 X-42.2404 Y37.0875
G01 X-42.2285 Y37.1351
G01 X-42.2119 Y37.1813
G01 X-42.1910 Y37.2257
G01 X-42.1657 Y37.2678
G01 X-42.1365 Y37.3072
G01 X-42.1036 Y37.3436
G01 X-42.0672 Y37.3765
G01 X-42.0278 Y37.4057
G01 X-41.9857 Y37.4310
G01 X-41.9413 Y37.4519
G01 X-41.8951 Y37.4685
G01 X-41.8475 Y37.4804
G01 X-41.7990 Y37.4876
G01 X-41.7500 Y37.4900
G01 X-41.7010 Y37.4876
G01 X-41.6525 Y37.4804
G01 X-41.6049 Y37.4685
G01 X-41.5587 Y37.4519
G01 X-41.5143 Y37.4310
G01 X-41.4722 Y37.4057
G01 X-41.4328 Y37.3765
G01 X-41.3964 Y37.3436
G01 X-41.3635 Y37.3072
G01 X-41.3343 Y37.2678
G01 X-41.3090 Y37.2257
G01 X-41.2881 Y37.1813
G01 X-41.2715 Y37.1351
G01 X-41.2596 Y37.0875
G01 X-41.2524 Y37.0390
G01 X-41.2500 Y36.9900
G00 X-41.2500 Y36.9900
G01 F70.00
G01 Z-1.0000
G01 F120.00
G01 X-41.2524 Y36.9410
G01 X-41.2596 Y36.8925
G01 X-41.2715 Y36.8449
G01 X-41.2881 Y36.7987
G01 X-41.3090 Y36.7543
G01 X-41.3343 Y36.7122
G01 X-41.3635 Y36.6728
G01 X-41.3964 Y36.6364
G01 X-41.4328 Y36.6035
G01 X-41.4722 Y36.5743
G01 X-41.5143 Y36.5490
G01 X-41.5587 Y36.5281
G01 X-41.6049 Y36.5115
G01 X-41.6525 Y36.4996
G01 X-41.7010 Y36.4924
G01 X-41.7500 Y36.4900
G01 X-41.7990 Y36.4924
G01 X-41.8475 Y36.4996
G01 X-41.8951 Y36.5115
G01 X-41.9413 Y36.5281
G01 X-41.9857 Y36.5490
G01 X-42.0278 Y36.5743
G01 X-42.0672 Y36.6035
G01 X-42.1036 Y36.6364
G01 X-42.1365 Y36.6728
G01 X-42.1657 Y36.7122
G01 X-42.1910 Y36.7543
G01 X-42.2119 Y36.7987
G01 X-42.2285 Y36.8449
G01 X-42.2404 Y36.8925
G01 X-42.2476 Y36.9410
G01 X-42.2500 Y36.9900
G01 X-42.2476 Y37.0390
G01 X-42.2404 Y37.0875
G01 X-42.2285 Y37.1351
G01 X-42.2119 Y37.1813
G01 X-42.1910 Y37.2257
G01 X-42.1657 Y37.2678
G01 X-42.1365 Y37.3072
G01 X-42.1036 Y37.3436
G01 X-42.0672 Y37.3765
G01 X-42.0278 Y37.4057
G01 X-41.9857 Y37.4310
G01 X-41.9413 Y37.4519
G01 X-41.8951 Y37.4685
G01 X-41.8475 Y37.4804
G01 X-41.7990 Y37.4876
G01 X-41.7500 Y37.4900
G01 X-41.7010 Y37.4876
G01 X-41.6525 Y37.4804
G01 X-41.6049 Y37.4685
G01 X-41.5587 Y37.4519
G01 X-41.5143 Y37.4310
G01 X-41.4722 Y37.4057
G01 X-41.4328 Y37.3765
G01 X-41.3964 Y37.3436
G01 X-41.3635 Y37.3072
G01 X-41.3343 Y37.2678
G01 X-41.3090 Y37.2257
G01 X-41.2881 Y37.1813
G01 X-41.2715 Y37.1351
G01 X-41.2596 Y37.0875
G01 X-41.2524 Y37.0390
G01 X-41.2500 Y36.9900
G00 X-41.2500 Y36.9900
G01 F70.00
G01 Z-1.1000
G01 F120.00
G01 X-41.2524 Y36.9410
G01 X-41.2596 Y36.8925
G01 X-41.2715 Y36.8449
G01 X-41.2881 Y36.7987
G01 X-41.3090 Y36.7543
G01 X-41.3343 Y36.7122
G01 X-41.3635 Y36.6728
G01 X-41.3964 Y36.6364
G01 X-41.4328 Y36.6035
G01 X-41.4722 Y36.5743
G01 X-41.5143 Y36.5490
G01 X-41.5587 Y36.5281
G01 X-41.6049 Y36.5115
G01 X-41.6525 Y36.4996
G01 X-41.7010 Y36.4924
G01 X-41.7500 Y36.4900
G01 X-41.7990 Y36.4924
G01 X-41.8475 Y36.4996
G01 X-41.8951 Y36.5115
G01 X-41.9413 Y36.5281
G01 X-41.9857 Y36.5490
G01 X-42.0278 Y36.5743
G01 X-42.0672 Y36.6035
G01 X-42.1036 Y36.6364
G01 X-42.1365 Y36.6728
G01 X-42.1657 Y36.7122
G01 X-42.1910 Y36.7543
G01 X-42.2119 Y36.7987
G01 X-42.2285 Y36.8449
G01 X-42.2404 Y36.8925
G01 X-42.2476 Y36.9410
G01 X-42.2500 Y36.9900
G01 X-42.2476 Y37.0390
G01 X-42.2404 Y37.0875
G01 X-42.2285 Y37.1351
G01 X-42.2119 Y37.1813
G01 X-42.1910 Y37.2257
G01 X-42.1657 Y37.2678
G01 X-42.1365 Y37.3072
G01 X-42.1036 Y37.3436
G01 X-42.0672 Y37.3765
G01 X-42.0278 Y37.4057
G01 X-41.9857 Y37.4310
G01 X-41.9413 Y37.4519
G01 X-41.8951 Y37.4685
G01 X-41.8475 Y37.4804
G01 X-41.7990 Y37.4876
G01 X-41.7500 Y37.4900
G01 X-41.7010 Y37.4876
G01 X-41.6525 Y37.4804
G01 X-41.6049 Y37.4685
G01 X-41.5587 Y37.4519
G01 X-41.5143 Y37.4310
G01 X-41.4722 Y37.4057
G01 X-41.4328 Y37.3765
G01 X-41.3964 Y37.3436
G01 X-41.3635 Y37.3072
G01 X-41.3343 Y37.2678
G01 X-41.3090 Y37.2257
G01 X-41.2881 Y37.1813
G01 X-41.2715 Y37.1351
G01 X-41.2596 Y37.0875
G01 X-41.2524 Y37.0390
G01 X-41.2500 Y36.9900
G00 X-41.2500 Y36.9900
G01 F70.00
G01 Z-1.2000
G01 F120.00
G01 X-41.2524 Y36.9410
G01 X-41.2596 Y36.8925
G01 X-41.2715 Y36.8449
G01 X-41.2881 Y36.7987
G01 X-41.3090 Y36.7543
G01 X-41.3343 Y36.7122
G01 X-41.3635 Y36.6728
G01 X-41.3964 Y36.6364
G01 X-41.4328 Y36.6035
G01 X-41.4722 Y36.5743
G01 X-41.5143 Y36.5490
G01 X-41.5587 Y36.5281
G01 X-41.6049 Y36.5115
G01 X-41.6525 Y36.4996
G01 X-41.7010 Y36.4924
G01 X-41.7500 Y36.4900
G01 X-41.7990 Y36.4924
G01 X-41.8475 Y36.4996
G01 X-41.8951 Y36.5115
G01 X-41.9413 Y36.5281
G01 X-41.9857 Y36.5490
G01 X-42.0278 Y36.5743
G01 X-42.0672 Y36.6035
G01 X-42.1036 Y36.6364
G01 X-42.1365 Y36.6728
G01 X-42.1657 Y36.7122
G01 X-42.1910 Y36.7543
G01 X-42.2119 Y36.7987
G01 X-42.2285 Y36.8449
G01 X-42.2404 Y36.8925
G01 X-42.2476 Y36.9410
G01 X-42.2500 Y36.9900
G01 X-42.2476 Y37.0390
G01 X-42.2404 Y37.0875
G01 X-42.2285 Y37.1351
G01 X-42.2119 Y37.1813
G01 X-42.1910 Y37.2257
G01 X-42.1657 Y37.2678
G01 X-42.1365 Y37.3072
G01 X-42.1036 Y37.3436
G01 X-42.0672 Y37.3765
G01 X-42.0278 Y37.4057
G01 X-41.9857 Y37.4310
G01 X-41.9413 Y37.4519
G01 X-41.8951 Y37.4685
G01 X-41.8475 Y37.4804
G01 X-41.7990 Y37.4876
G01 X-41.7500 Y37.4900
G01 X-41.7010 Y37.4876
G01 X-41.6525 Y37.4804
G01 X-41.6049 Y37.4685
G01 X-41.5587 Y37.4519
G01 X-41.5143 Y37.4310
G01 X-41.4722 Y37.4057
G01 X-41.4328 Y37.3765
G01 X-41.3964 Y37.3436
G01 X-41.3635 Y37.3072
G01 X-41.3343 Y37.2678
G01 X-41.3090 Y37.2257
G01 X-41.2881 Y37.1813
G01 X-41.2715 Y37.1351
G01 X-41.2596 Y37.0875
G01 X-41.2524 Y37.0390
G01 X-41.2500 Y36.9900
G00 X-41.2500 Y36.9900
G01 F70.00
G01 Z-1.3000
G01 F120.00
G01 X-41.2524 Y36.9410
G01 X-41.2596 Y36.8925
G01 X-41.2715 Y36.8449
G01 X-41.2881 Y36.7987
G01 X-41.3090 Y36.7543
G01 X-41.3343 Y36.7122
G01 X-41.3635 Y36.6728
G01 X-41.3964 Y36.6364
G01 X-41.4328 Y36.6035
G01 X-41.4722 Y36.5743
G01 X-41.5143 Y36.5490
G01 X-41.5587 Y36.5281
G01 X-41.6049 Y36.5115
G01 X-41.6525 Y36.4996
G01 X-41.7010 Y36.4924
G01 X-41.7500 Y36.4900
G01 X-41.7990 Y36.4924
G01 X-41.8475 Y36.4996
G01 X-41.8951 Y36.5115
G01 X-41.9413 Y36.5281
G01 X-41.9857 Y36.5490
G01 X-42.0278 Y36.5743
G01 X-42.0672 Y36.6035
G01 X-42.1036 Y36.6364
G01 X-42.1365 Y36.6728
G01 X-42.1657 Y36.7122
G01 X-42.1910 Y36.7543
G01 X-42.2119 Y36.7987
G01 X-42.2285 Y36.8449
G01 X-42.2404 Y36.8925
G01 X-42.2476 Y36.9410
G01 X-42.2500 Y36.9900
G01 X-42.2476 Y37.0390
G01 X-42.2404 Y37.0875
G01 X-42.2285 Y37.1351
G01 X-42.2119 Y37.1813
G01 X-42.1910 Y37.2257
G01 X-42.1657 Y37.2678
G01 X-42.1365 Y37.3072
G01 X-42.1036 Y37.3436
G01 X-42.0672 Y37.3765
G01 X-42.0278 Y37.4057
G01 X-41.9857 Y37.4310
G01 X-41.9413 Y37.4519
G01 X-41.8951 Y37.4685
G01 X-41.8475 Y37.4804
G01 X-41.7990 Y37.4876
G01 X-41.7500 Y37.4900
G01 X-41.7010 Y37.4876
G01 X-41.6525 Y37.4804
G01 X-41.6049 Y37.4685
G01 X-41.5587 Y37.4519
G01 X-41.5143 Y37.4310
G01 X-41.4722 Y37.4057
G01 X-41.4328 Y37.3765
G01 X-41.3964 Y37.3436
G01 X-41.3635 Y37.3072
G01 X-41.3343 Y37.2678
G01 X-41.3090 Y37.2257
G01 X-41.2881 Y37.1813
G01 X-41.2715 Y37.1351
G01 X-41.2596 Y37.0875
G01 X-41.2524 Y37.0390
G01 X-41.2500 Y36.9900
G00 X-41.2500 Y36.9900
G01 F70.00
G01 Z-1.4000
G01 F120.00
G01 X-41.2524 Y36.9410
G01 X-41.2596 Y36.8925
G01 X-41.2715 Y36.8449
G01 X-41.2881 Y36.7987
G01 X-41.3090 Y36.7543
G01 X-41.3343 Y36.7122
G01 X-41.3635 Y36.6728
G01 X-41.3964 Y36.6364
G01 X-41.4328 Y36.6035
G01 X-41.4722 Y36.5743
G01 X-41.5143 Y36.5490
G01 X-41.5587 Y36.5281
G01 X-41.6049 Y36.5115
G01 X-41.6525 Y36.4996
G01 X-41.7010 Y36.4924
G01 X-41.7500 Y36.4900
G01 X-41.7990 Y36.4924
G01 X-41.8475 Y36.4996
G01 X-41.8951 Y36.5115
G01 X-41.9413 Y36.5281
G01 X-41.9857 Y36.5490
G01 X-42.0278 Y36.5743
G01 X-42.0672 Y36.6035
G01 X-42.1036 Y36.6364
G01 X-42.1365 Y36.6728
G01 X-42.1657 Y36.7122
G01 X-42.1910 Y36.7543
G01 X-42.2119 Y36.7987
G01 X-42.2285 Y36.8449
G01 X-42.2404 Y36.8925
G01 X-42.2476 Y36.9410
G01 X-42.2500 Y36.9900
G01 X-42.2476 Y37.0390
G01 X-42.2404 Y37.0875
G01 X-42.2285 Y37.1351
G01 X-42.2119 Y37.1813
G01 X-42.1910 Y37.2257
G01 X-42.1657 Y37.2678
G01 X-42.1365 Y37.3072
G01 X-42.1036 Y37.3436
G01 X-42.0672 Y37.3765
G01 X-42.0278 Y37.4057
G01 X-41.9857 Y37.4310
G01 X-41.9413 Y37.4519
G01 X-41.8951 Y37.4685
G01 X-41.8475 Y37.4804
G01 X-41.7990 Y37.4876
G01 X-41.7500 Y37.4900
G01 X-41.7010 Y37.4876
G01 X-41.6525 Y37.4804
G01 X-41.6049 Y37.4685
G01 X-41.5587 Y37.4519
G01 X-41.5143 Y37.4310
G01 X-41.4722 Y37.4057
G01 X-41.4328 Y37.3765
G01 X-41.3964 Y37.3436
G01 X-41.3635 Y37.3072
G01 X-41.3343 Y37.2678
G01 X-41.3090 Y37.2257
G01 X-41.2881 Y37.1813
G01 X-41.2715 Y37.1351
G01 X-41.2596 Y37.0875
G01 X-41.2524 Y37.0390
G01 X-41.2500 Y36.9900
G00 X-41.2500 Y36.9900
G01 F70.00
G01 Z-1.5000
G01 F120.00
G01 X-41.2524 Y36.9410
G01 X-41.2596 Y36.8925
G01 X-41.2715 Y36.8449
G01 X-41.2881 Y36.7987
G01 X-41.3090 Y36.7543
G01 X-41.3343 Y36.7122
G01 X-41.3635 Y36.6728
G01 X-41.3964 Y36.6364
G01 X-41.4328 Y36.6035
G01 X-41.4722 Y36.5743
G01 X-41.5143 Y36.5490
G01 X-41.5587 Y36.5281
G01 X-41.6049 Y36.5115
G01 X-41.6525 Y36.4996
G01 X-41.7010 Y36.4924
G01 X-41.7500 Y36.4900
G01 X-41.7990 Y36.4924
G01 X-41.8475 Y36.4996
G01 X-41.8951 Y36.5115
G01 X-41.9413 Y36.5281
G01 X-41.9857 Y36.5490
G01 X-42.0278 Y36.5743
G01 X-42.0672 Y36.6035
G01 X-42.1036 Y36.6364
G01 X-42.1365 Y36.6728
G01 X-42.1657 Y36.7122
G01 X-42.1910 Y36.7543
G01 X-42.2119 Y36.7987
G01 X-42.2285 Y36.8449
G01 X-42.2404 Y36.8925
G01 X-42.2476 Y36.9410
G01 X-42.2500 Y36.9900
G01 X-42.2476 Y37.0390
G01 X-42.2404 Y37.0875
G01 X-42.2285 Y37.1351
G01 X-42.2119 Y37.1813
G01 X-42.1910 Y37.2257
G01 X-42.1657 Y37.2678
G01 X-42.1365 Y37.3072
G01 X-42.1036 Y37.3436
G01 X-42.0672 Y37.3765
G01 X-42.0278 Y37.4057
G01 X-41.9857 Y37.4310
G01 X-41.9413 Y37.4519
G01 X-41.8951 Y37.4685
G01 X-41.8475 Y37.4804
G01 X-41.7990 Y37.4876
G01 X-41.7500 Y37.4900
G01 X-41.7010 Y37.4876
G01 X-41.6525 Y37.4804
G01 X-41.6049 Y37.4685
G01 X-41.5587 Y37.4519
G01 X-41.5143 Y37.4310
G01 X-41.4722 Y37.4057
G01 X-41.4328 Y37.3765
G01 X-41.3964 Y37.3436
G01 X-41.3635 Y37.3072
G01 X-41.3343 Y37.2678
G01 X-41.3090 Y37.2257
G01 X-41.2881 Y37.1813
G01 X-41.2715 Y37.1351
G01 X-41.2596 Y37.0875
G01 X-41.2524 Y37.0390
G01 X-41.2500 Y36.9900
G00 X-41.2500 Y36.9900
G01 F70.00
G01 Z-1.6000
G01 F120.00
G01 X-41.2524 Y36.9410
G01 X-41.2596 Y36.8925
G01 X-41.2715 Y36.8449
G01 X-41.2881 Y36.7987
G01 X-41.3090 Y36.7543
G01 X-41.3343 Y36.7122
G01 X-41.3635 Y36.6728
G01 X-41.3964 Y36.6364
G01 X-41.4328 Y36.6035
G01 X-41.4722 Y36.5743
G01 X-41.5143 Y36.5490
G01 X-41.5587 Y36.5281
G01 X-41.6049 Y36.5115
G01 X-41.6525 Y36.4996
G01 X-41.7010 Y36.4924
G01 X-41.7500 Y36.4900
G01 X-41.7990 Y36.4924
G01 X-41.8475 Y36.4996
G01 X-41.8951 Y36.5115
G01 X-41.9413 Y36.5281
G01 X-41.9857 Y36.5490
G01 X-42.0278 Y36.5743
G01 X-42.0672 Y36.6035
G01 X-42.1036 Y36.6364
G01 X-42.1365 Y36.6728
G01 X-42.1657 Y36.7122
G01 X-42.1910 Y36.7543
G01 X-42.2119 Y36.7987
G01 X-42.2285 Y36.8449
G01 X-42.2404 Y36.8925
G01 X-42.2476 Y36.9410
G01 X-42.2500 Y36.9900
G01 X-42.2476 Y37.0390
G01 X-42.2404 Y37.0875
G01 X-42.2285 Y37.1351
G01 X-42.2119 Y37.1813
G01 X-42.1910 Y37.2257
G01 X-42.1657 Y37.2678
G01 X-42.1365 Y37.3072
G01 X-42.1036 Y37.3436
G01 X-42.0672 Y37.3765
G01 X-42.0278 Y37.4057
G01 X-41.9857 Y37.4310
G01 X-41.9413 Y37.4519
G01 X-41.8951 Y37.4685
G01 X-41.8475 Y37.4804
G01 X-41.7990 Y37.4876
G01 X-41.7500 Y37.4900
G01 X-41.7010 Y37.4876
G01 X-41.6525 Y37.4804
G01 X-41.6049 Y37.4685
G01 X-41.5587 Y37.4519
G01 X-41.5143 Y37.4310
G01 X-41.4722 Y37.4057
G01 X-41.4328 Y37.3765
G01 X-41.3964 Y37.3436
G01 X-41.3635 Y37.3072
G01 X-41.3343 Y37.2678
G01 X-41.3090 Y37.2257
G01 X-41.2881 Y37.1813
G01 X-41.2715 Y37.1351
G01 X-41.2596 Y37.0875
G01 X-41.2524 Y37.0390
G01 X-41.2500 Y36.9900
G00 X-41.2500 Y36.9900
G01 F70.00
G01 Z-1.7000
G01 F120.00
G01 X-41.2524 Y36.9410
G01 X-41.2596 Y36.8925
G01 X-41.2715 Y36.8449
G01 X-41.2881 Y36.7987
G01 X-41.3090 Y36.7543
G01 X-41.3343 Y36.7122
G01 X-41.3635 Y36.6728
G01 X-41.3964 Y36.6364
G01 X-41.4328 Y36.6035
G01 X-41.4722 Y36.5743
G01 X-41.5143 Y36.5490
G01 X-41.5587 Y36.5281
G01 X-41.6049 Y36.5115
G01 X-41.6525 Y36.4996
G01 X-41.7010 Y36.4924
G01 X-41.7500 Y36.4900
G01 X-41.7990 Y36.4924
G01 X-41.8475 Y36.4996
G01 X-41.8951 Y36.5115
G01 X-41.9413 Y36.5281
G01 X-41.9857 Y36.5490
G01 X-42.0278 Y36.5743
G01 X-42.0672 Y36.6035
G01 X-42.1036 Y36.6364
G01 X-42.1365 Y36.6728
G01 X-42.1657 Y36.7122
G01 X-42.1910 Y36.7543
G01 X-42.2119 Y36.7987
G01 X-42.2285 Y36.8449
G01 X-42.2404 Y36.8925
G01 X-42.2476 Y36.9410
G01 X-42.2500 Y36.9900
G01 X-42.2476 Y37.0390
G01 X-42.2404 Y37.0875
G01 X-42.2285 Y37.1351
G01 X-42.2119 Y37.1813
G01 X-42.1910 Y37.2257
G01 X-42.1657 Y37.2678
G01 X-42.1365 Y37.3072
G01 X-42.1036 Y37.3436
G01 X-42.0672 Y37.3765
G01 X-42.0278 Y37.4057
G01 X-41.9857 Y37.4310
G01 X-41.9413 Y37.4519
G01 X-41.8951 Y37.4685
G01 X-41.8475 Y37.4804
G01 X-41.7990 Y37.4876
G01 X-41.7500 Y37.4900
G01 X-41.7010 Y37.4876
G01 X-41.6525 Y37.4804
G01 X-41.6049 Y37.4685
G01 X-41.5587 Y37.4519
G01 X-41.5143 Y37.4310
G01 X-41.4722 Y37.4057
G01 X-41.4328 Y37.3765
G01 X-41.3964 Y37.3436
G01 X-41.3635 Y37.3072
G01 X-41.3343 Y37.2678
G01 X-41.3090 Y37.2257
G01 X-41.2881 Y37.1813
G01 X-41.2715 Y37.1351
G01 X-41.2596 Y37.0875
G01 X-41.2524 Y37.0390
G01 X-41.2500 Y36.9900
G00 X-41.2500 Y36.9900
G01 F70.00
G01 Z-1.8000
G01 F120.00
G01 X-41.2524 Y36.9410
G01 X-41.2596 Y36.8925
G01 X-41.2715 Y36.8449
G01 X-41.2881 Y36.7987
G01 X-41.3090 Y36.7543
G01 X-41.3343 Y36.7122
G01 X-41.3635 Y36.6728
G01 X-41.3964 Y36.6364
G01 X-41.4328 Y36.6035
G01 X-41.4722 Y36.5743
G01 X-41.5143 Y36.5490
G01 X-41.5587 Y36.5281
G01 X-41.6049 Y36.5115
G01 X-41.6525 Y36.4996
G01 X-41.7010 Y36.4924
G01 X-41.7500 Y36.4900
G01 X-41.7990 Y36.4924
G01 X-41.8475 Y36.4996
G01 X-41.8951 Y36.5115
G01 X-41.9413 Y36.5281
G01 X-41.9857 Y36.5490
G01 X-42.0278 Y36.5743
G01 X-42.0672 Y36.6035
G01 X-42.1036 Y36.6364
G01 X-42.1365 Y36.6728
G01 X-42.1657 Y36.7122
G01 X-42.1910 Y36.7543
G01 X-42.2119 Y36.7987
G01 X-42.2285 Y36.8449
G01 X-42.2404 Y36.8925
G01 X-42.2476 Y36.9410
G01 X-42.2500 Y36.9900
G01 X-42.2476 Y37.0390
G01 X-42.2404 Y37.0875
G01 X-42.2285 Y37.1351
G01 X-42.2119 Y37.1813
G01 X-42.1910 Y37.2257
G01 X-42.1657 Y37.2678
G01 X-42.1365 Y37.3072
G01 X-42.1036 Y37.3436
G01 X-42.0672 Y37.3765
G01 X-42.0278 Y37.4057
G01 X-41.9857 Y37.4310
G01 X-41.9413 Y37.4519
G01 X-41.8951 Y37.4685
G01 X-41.8475 Y37.4804
G01 X-41.7990 Y37.4876
G01 X-41.7500 Y37.4900
G01 X-41.7010 Y37.4876
G01 X-41.6525 Y37.4804
G01 X-41.6049 Y37.4685
G01 X-41.5587 Y37.4519
G01 X-41.5143 Y37.4310
G01 X-41.4722 Y37.4057
G01 X-41.4328 Y37.3765
G01 X-41.3964 Y37.3436
G01 X-41.3635 Y37.3072
G01 X-41.3343 Y37.2678
G01 X-41.3090 Y37.2257
G01 X-41.2881 Y37.1813
G01 X-41.2715 Y37.1351
G01 X-41.2596 Y37.0875
G01 X-41.2524 Y37.0390
G01 X-41.2500 Y36.9900
G00 X-41.2500 Y36.9900
G01 F70.00
G01 Z-1.9000
G01 F120.00
G01 X-41.2524 Y36.9410
G01 X-41.2596 Y36.8925
G01 X-41.2715 Y36.8449
G01 X-41.2881 Y36.7987
G01 X-41.3090 Y36.7543
G01 X-41.3343 Y36.7122
G01 X-41.3635 Y36.6728
G01 X-41.3964 Y36.6364
G01 X-41.4328 Y36.6035
G01 X-41.4722 Y36.5743
G01 X-41.5143 Y36.5490
G01 X-41.5587 Y36.5281
G01 X-41.6049 Y36.5115
G01 X-41.6525 Y36.4996
G01 X-41.7010 Y36.4924
G01 X-41.7500 Y36.4900
G01 X-41.7990 Y36.4924
G01 X-41.8475 Y36.4996
G01 X-41.8951 Y36.5115
G01 X-41.9413 Y36.5281
G01 X-41.9857 Y36.5490
G01 X-42.0278 Y36.5743
G01 X-42.0672 Y36.6035
G01 X-42.1036 Y36.6364
G01 X-42.1365 Y36.6728
G01 X-42.1657 Y36.7122
G01 X-42.1910 Y36.7543
G01 X-42.2119 Y36.7987
G01 X-42.2285 Y36.8449
G01 X-42.2404 Y36.8925
G01 X-42.2476 Y36.9410
G01 X-42.2500 Y36.9900
G01 X-42.2476 Y37.0390
G01 X-42.2404 Y37.0875
G01 X-42.2285 Y37.1351
G01 X-42.2119 Y37.1813
G01 X-42.1910 Y37.2257
G01 X-42.1657 Y37.2678
G01 X-42.1365 Y37.3072
G01 X-42.1036 Y37.3436
G01 X-42.0672 Y37.3765
G01 X-42.0278 Y37.4057
G01 X-41.9857 Y37.4310
G01 X-41.9413 Y37.4519
G01 X-41.8951 Y37.4685
G01 X-41.8475 Y37.4804
G01 X-41.7990 Y37.4876
G01 X-41.7500 Y37.4900
G01 X-41.7010 Y37.4876
G01 X-41.6525 Y37.4804
G01 X-41.6049 Y37.4685
G01 X-41.5587 Y37.4519
G01 X-41.5143 Y37.4310
G01 X-41.4722 Y37.4057
G01 X-41.4328 Y37.3765
G01 X-41.3964 Y37.3436
G01 X-41.3635 Y37.3072
G01 X-41.3343 Y37.2678
G01 X-41.3090 Y37.2257
G01 X-41.2881 Y37.1813
G01 X-41.2715 Y37.1351
G01 X-41.2596 Y37.0875
G01 X-41.2524 Y37.0390
G01 X-41.2500 Y36.9900
G00 Z2.0000
G00 X-41.2500 Y3.1800
G01 F70.00
G01 Z-0.1000
G01 F120.00
G01 X-41.2524 Y3.1310
G01 X-41.2596 Y3.0825
G01 X-41.2715 Y3.0349
G01 X-41.2881 Y2.9887
G01 X-41.3090 Y2.9443
G01 X-41.3343 Y2.9022
G01 X-41.3635 Y2.8628
G01 X-41.3964 Y2.8264
G01 X-41.4328 Y2.7935
G01 X-41.4722 Y2.7643
G01 X-41.5143 Y2.7390
G01 X-41.5587 Y2.7181
G01 X-41.6049 Y2.7015
G01 X-41.6525 Y2.6896
G01 X-41.7010 Y2.6824
G01 X-41.7500 Y2.6800
G01 X-41.7990 Y2.6824
G01 X-41.8475 Y2.6896
G01 X-41.8951 Y2.7015
G01 X-41.9413 Y2.7181
G01 X-41.9857 Y2.7390
G01 X-42.0278 Y2.7643
G01 X-42.0672 Y2.7935
G01 X-42.1036 Y2.8264
G01 X-42.1365 Y2.8628
G01 X-42.1657 Y2.9022
G01 X-42.1910 Y2.9443
G01 X-42.2119 Y2.9887
G01 X-42.2285 Y3.0349
G01 X-42.2404 Y3.0825
G01 X-42.2476 Y3.1310
G01 X-42.2500 Y3.1800
G01 X-42.2476 Y3.2290
G01 X-42.2404 Y3.2775
G01 X-42.2285 Y3.3251
G01 X-42.2119 Y3.3713
G01 X-42.1910 Y3.4157
G01 X-42.1657 Y3.4578
G01 X-42.1365 Y3.4972
G01 X-42.1036 Y3.5336
G01 X-42.0672 Y3.5665
G01 X-42.0278 Y3.5957
G01 X-41.9857 Y3.6210
G01 X-41.9413 Y3.6419
G01 X-41.8951 Y3.6585
G01 X-41.8475 Y3.6704
G01 X-41.7990 Y3.6776
G01 X-41.7500 Y3.6800
G01 X-41.7010 Y3.6776
G01 X-41.6525 Y3.6704
G01 X-41.6049 Y3.6585
G01 X-41.5587 Y3.6419
G01 X-41.5143 Y3.6210
G01 X-41.4722 Y3.5957
G01 X-41.4328 Y3.5665
G01 X-41.3964 Y3.5336
G01 X-41.3635 Y3.4972
G01 X-41.3343 Y3.4578
G01 X-41.3090 Y3.4157
G01 X-41.2881 Y3.3713
G01 X-41.2715 Y3.3251
G01 X-41.2596 Y3.2775
G01 X-41.2524 Y3.2290
G01 X-41.2500 Y3.1800
G00 X-41.2500 Y3.1800
G01 F70.00
G01 Z-0.2000
G01 F120.00
G01 X-41.2524 Y3.1310
G01 X-41.2596 Y3.0825
G01 X-41.2715 Y3.0349
G01 X-41.2881 Y2.9887
G01 X-41.3090 Y2.9443
G01 X-41.3343 Y2.9022
G01 X-41.3635 Y2.8628
G01 X-41.3964 Y2.8264
G01 X-41.4328 Y2.7935
G01 X-41.4722 Y2.7643
G01 X-41.5143 Y2.7390
G01 X-41.5587 Y2.7181
G01 X-41.6049 Y2.7015
G01 X-41.6525 Y2.6896
G01 X-41.7010 Y2.6824
G01 X-41.7500 Y2.6800
G01 X-41.7990 Y2.6824
G01 X-41.8475 Y2.6896
G01 X-41.8951 Y2.7015
G01 X-41.9413 Y2.7181
G01 X-41.9857 Y2.7390
G01 X-42.0278 Y2.7643
G01 X-42.0672 Y2.7935
G01 X-42.1036 Y2.8264
G01 X-42.1365 Y2.8628
G01 X-42.1657 Y2.9022
G01 X-42.1910 Y2.9443
G01 X-42.2119 Y2.9887
G01 X-42.2285 Y3.0349
G01 X-42.2404 Y3.0825
G01 X-42.2476 Y3.1310
G01 X-42.2500 Y3.1800
G01 X-42.2476 Y3.2290
G01 X-42.2404 Y3.2775
G01 X-42.2285 Y3.3251
G01 X-42.2119 Y3.3713
G01 X-42.1910 Y3.4157
G01 X-42.1657 Y3.4578
G01 X-42.1365 Y3.4972
G01 X-42.1036 Y3.5336
G01 X-42.0672 Y3.5665
G01 X-42.0278 Y3.5957
G01 X-41.9857 Y3.6210
G01 X-41.9413 Y3.6419
G01 X-41.8951 Y3.6585
G01 X-41.8475 Y3.6704
G01 X-41.7990 Y3.6776
G01 X-41.7500 Y3.6800
G01 X-41.7010 Y3.6776
G01 X-41.6525 Y3.6704
G01 X-41.6049 Y3.6585
G01 X-41.5587 Y3.6419
G01 X-41.5143 Y3.6210
G01 X-41.4722 Y3.5957
G01 X-41.4328 Y3.5665
G01 X-41.3964 Y3.5336
G01 X-41.3635 Y3.4972
G01 X-41.3343 Y3.4578
G01 X-41.3090 Y3.4157
G01 X-41.2881 Y3.3713
G01 X-41.2715 Y3.3251
G01 X-41.2596 Y3.2775
G01 X-41.2524 Y3.2290
G01 X-41.2500 Y3.1800
G00 X-41.2500 Y3.1800
G01 F70.00
G01 Z-0.3000
G01 F120.00
G01 X-41.2524 Y3.1310
G01 X-41.2596 Y3.0825
G01 X-41.2715 Y3.0349
G01 X-41.2881 Y2.9887
G01 X-41.3090 Y2.9443
G01 X-41.3343 Y2.9022
G01 X-41.3635 Y2.8628
G01 X-41.3964 Y2.8264
G01 X-41.4328 Y2.7935
G01 X-41.4722 Y2.7643
G01 X-41.5143 Y2.7390
G01 X-41.5587 Y2.7181
G01 X-41.6049 Y2.7015
G01 X-41.6525 Y2.6896
G01 X-41.7010 Y2.6824
G01 X-41.7500 Y2.6800
G01 X-41.7990 Y2.6824
G01 X-41.8475 Y2.6896
G01 X-41.8951 Y2.7015
G01 X-41.9413 Y2.7181
G01 X-41.9857 Y2.7390
G01 X-42.0278 Y2.7643
G01 X-42.0672 Y2.7935
G01 X-42.1036 Y2.8264
G01 X-42.1365 Y2.8628
G01 X-42.1657 Y2.9022
G01 X-42.1910 Y2.9443
G01 X-42.2119 Y2.9887
G01 X-42.2285 Y3.0349
G01 X-42.2404 Y3.0825
G01 X-42.2476 Y3.1310
G01 X-42.2500 Y3.1800
G01 X-42.2476 Y3.2290
G01 X-42.2404 Y3.2775
G01 X-42.2285 Y3.3251
G01 X-42.2119 Y3.3713
G01 X-42.1910 Y3.4157
G01 X-42.1657 Y3.4578
G01 X-42.1365 Y3.4972
G01 X-42.1036 Y3.5336
G01 X-42.0672 Y3.5665
G01 X-42.0278 Y3.5957
G01 X-41.9857 Y3.6210
G01 X-41.9413 Y3.6419
G01 X-41.8951 Y3.6585
G01 X-41.8475 Y3.6704
G01 X-41.7990 Y3.6776
G01 X-41.7500 Y3.6800
G01 X-41.7010 Y3.6776
G01 X-41.6525 Y3.6704
G01 X-41.6049 Y3.6585
G01 X-41.5587 Y3.6419
G01 X-41.5143 Y3.6210
G01 X-41.4722 Y3.5957
G01 X-41.4328 Y3.5665
G01 X-41.3964 Y3.5336
G01 X-41.3635 Y3.4972
G01 X-41.3343 Y3.4578
G01 X-41.3090 Y3.4157
G01 X-41.2881 Y3.3713
G01 X-41.2715 Y3.3251
G01 X-41.2596 Y3.2775
G01 X-41.2524 Y3.2290
G01 X-41.2500 Y3.1800
G00 X-41.2500 Y3.1800
G01 F70.00
G01 Z-0.4000
G01 F120.00
G01 X-41.2524 Y3.1310
G01 X-41.2596 Y3.0825
G01 X-41.2715 Y3.0349
G01 X-41.2881 Y2.9887
G01 X-41.3090 Y2.9443
G01 X-41.3343 Y2.9022
G01 X-41.3635 Y2.8628
G01 X-41.3964 Y2.8264
G01 X-41.4328 Y2.7935
G01 X-41.4722 Y2.7643
G01 X-41.5143 Y2.7390
G01 X-41.5587 Y2.7181
G01 X-41.6049 Y2.7015
G01 X-41.6525 Y2.6896
G01 X-41.7010 Y2.6824
G01 X-41.7500 Y2.6800
G01 X-41.7990 Y2.6824
G01 X-41.8475 Y2.6896
G01 X-41.8951 Y2.7015
G01 X-41.9413 Y2.7181
G01 X-41.9857 Y2.7390
G01 X-42.0278 Y2.7643
G01 X-42.0672 Y2.7935
G01 X-42.1036 Y2.8264
G01 X-42.1365 Y2.8628
G01 X-42.1657 Y2.9022
G01 X-42.1910 Y2.9443
G01 X-42.2119 Y2.9887
G01 X-42.2285 Y3.0349
G01 X-42.2404 Y3.0825
G01 X-42.2476 Y3.1310
G01 X-42.2500 Y3.1800
G01 X-42.2476 Y3.2290
G01 X-42.2404 Y3.2775
G01 X-42.2285 Y3.3251
G01 X-42.2119 Y3.3713
G01 X-42.1910 Y3.4157
G01 X-42.1657 Y3.4578
G01 X-42.1365 Y3.4972
G01 X-42.1036 Y3.5336
G01 X-42.0672 Y3.5665
G01 X-42.0278 Y3.5957
G01 X-41.9857 Y3.6210
G01 X-41.9413 Y3.6419
G01 X-41.8951 Y3.6585
G01 X-41.8475 Y3.6704
G01 X-41.7990 Y3.6776
G01 X-41.7500 Y3.6800
G01 X-41.7010 Y3.6776
G01 X-41.6525 Y3.6704
G01 X-41.6049 Y3.6585
G01 X-41.5587 Y3.6419
G01 X-41.5143 Y3.6210
G01 X-41.4722 Y3.5957
G01 X-41.4328 Y3.5665
G01 X-41.3964 Y3.5336
G01 X-41.3635 Y3.4972
G01 X-41.3343 Y3.4578
G01 X-41.3090 Y3.4157
G01 X-41.2881 Y3.3713
G01 X-41.2715 Y3.3251
G01 X-41.2596 Y3.2775
G01 X-41.2524 Y3.2290
G01 X-41.2500 Y3.1800
G00 X-41.2500 Y3.1800
G01 F70.00
G01 Z-0.5000
G01 F120.00
G01 X-41.2524 Y3.1310
G01 X-41.2596 Y3.0825
G01 X-41.2715 Y3.0349
G01 X-41.2881 Y2.9887
G01 X-41.3090 Y2.9443
G01 X-41.3343 Y2.9022
G01 X-41.3635 Y2.8628
G01 X-41.3964 Y2.8264
G01 X-41.4328 Y2.7935
G01 X-41.4722 Y2.7643
G01 X-41.5143 Y2.7390
G01 X-41.5587 Y2.7181
G01 X-41.6049 Y2.7015
G01 X-41.6525 Y2.6896
G01 X-41.7010 Y2.6824
G01 X-41.7500 Y2.6800
G01 X-41.7990 Y2.6824
G01 X-41.8475 Y2.6896
G01 X-41.8951 Y2.7015
G01 X-41.9413 Y2.7181
G01 X-41.9857 Y2.7390
G01 X-42.0278 Y2.7643
G01 X-42.0672 Y2.7935
G01 X-42.1036 Y2.8264
G01 X-42.1365 Y2.8628
G01 X-42.1657 Y2.9022
G01 X-42.1910 Y2.9443
G01 X-42.2119 Y2.9887
G01 X-42.2285 Y3.0349
G01 X-42.2404 Y3.0825
G01 X-42.2476 Y3.1310
G01 X-42.2500 Y3.1800
G01 X-42.2476 Y3.2290
G01 X-42.2404 Y3.2775
G01 X-42.2285 Y3.3251
G01 X-42.2119 Y3.3713
G01 X-42.1910 Y3.4157
G01 X-42.1657 Y3.4578
G01 X-42.1365 Y3.4972
G01 X-42.1036 Y3.5336
G01 X-42.0672 Y3.5665
G01 X-42.0278 Y3.5957
G01 X-41.9857 Y3.6210
G01 X-41.9413 Y3.6419
G01 X-41.8951 Y3.6585
G01 X-41.8475 Y3.6704
G01 X-41.7990 Y3.6776
G01 X-41.7500 Y3.6800
G01 X-41.7010 Y3.6776
G01 X-41.6525 Y3.6704
G01 X-41.6049 Y3.6585
G01 X-41.5587 Y3.6419
G01 X-41.5143 Y3.6210
G01 X-41.4722 Y3.5957
G01 X-41.4328 Y3.5665
G01 X-41.3964 Y3.5336
G01 X-41.3635 Y3.4972
G01 X-41.3343 Y3.4578
G01 X-41.3090 Y3.4157
G01 X-41.2881 Y3.3713
G01 X-41.2715 Y3.3251
G01 X-41.2596 Y3.2775
G01 X-41.2524 Y3.2290
G01 X-41.2500 Y3.1800
G00 X-41.2500 Y3.1800
G01 F70.00
G01 Z-0.6000
G01 F120.00
G01 X-41.2524 Y3.1310
G01 X-41.2596 Y3.0825
G01 X-41.2715 Y3.0349
G01 X-41.2881 Y2.9887
G01 X-41.3090 Y2.9443
G01 X-41.3343 Y2.9022
G01 X-41.3635 Y2.8628
G01 X-41.3964 Y2.8264
G01 X-41.4328 Y2.7935
G01 X-41.4722 Y2.7643
G01 X-41.5143 Y2.7390
G01 X-41.5587 Y2.7181
G01 X-41.6049 Y2.7015
G01 X-41.6525 Y2.6896
G01 X-41.7010 Y2.6824
G01 X-41.7500 Y2.6800
G01 X-41.7990 Y2.6824
G01 X-41.8475 Y2.6896
G01 X-41.8951 Y2.7015
G01 X-41.9413 Y2.7181
G01 X-41.9857 Y2.7390
G01 X-42.0278 Y2.7643
G01 X-42.0672 Y2.7935
G01 X-42.1036 Y2.8264
G01 X-42.1365 Y2.8628
G01 X-42.1657 Y2.9022
G01 X-42.1910 Y2.9443
G01 X-42.2119 Y2.9887
G01 X-42.2285 Y3.0349
G01 X-42.2404 Y3.0825
G01 X-42.2476 Y3.1310
G01 X-42.2500 Y3.1800
G01 X-42.2476 Y3.2290
G01 X-42.2404 Y3.2775
G01 X-42.2285 Y3.3251
G01 X-42.2119 Y3.3713
G01 X-42.1910 Y3.4157
G01 X-42.1657 Y3.4578
G01 X-42.1365 Y3.4972
G01 X-42.1036 Y3.5336
G01 X-42.0672 Y3.5665
G01 X-42.0278 Y3.5957
G01 X-41.9857 Y3.6210
G01 X-41.9413 Y3.6419
G01 X-41.8951 Y3.6585
G01 X-41.8475 Y3.6704
G01 X-41.7990 Y3.6776
G01 X-41.7500 Y3.6800
G01 X-41.7010 Y3.6776
G01 X-41.6525 Y3.6704
G01 X-41.6049 Y3.6585
G01 X-41.5587 Y3.6419
G01 X-41.5143 Y3.6210
G01 X-41.4722 Y3.5957
G01 X-41.4328 Y3.5665
G01 X-41.3964 Y3.5336
G01 X-41.3635 Y3.4972
G01 X-41.3343 Y3.4578
G01 X-41.3090 Y3.4157
G01 X-41.2881 Y3.3713
G01 X-41.2715 Y3.3251
G01 X-41.2596 Y3.2775
G01 X-41.2524 Y3.2290
G01 X-41.2500 Y3.1800
G00 X-41.2500 Y3.1800
G01 F70.00
G01 Z-0.7000
G01 F120.00
G01 X-41.2524 Y3.1310
G01 X-41.2596 Y3.0825
G01 X-41.2715 Y3.0349
G01 X-41.2881 Y2.9887
G01 X-41.3090 Y2.9443
G01 X-41.3343 Y2.9022
G01 X-41.3635 Y2.8628
G01 X-41.3964 Y2.8264
G01 X-41.4328 Y2.7935
G01 X-41.4722 Y2.7643
G01 X-41.5143 Y2.7390
G01 X-41.5587 Y2.7181
G01 X-41.6049 Y2.7015
G01 X-41.6525 Y2.6896
G01 X-41.7010 Y2.6824
G01 X-41.7500 Y2.6800
G01 X-41.7990 Y2.6824
G01 X-41.8475 Y2.6896
G01 X-41.8951 Y2.7015
G01 X-41.9413 Y2.7181
G01 X-41.9857 Y2.7390
G01 X-42.0278 Y2.7643
G01 X-42.0672 Y2.7935
G01 X-42.1036 Y2.8264
G01 X-42.1365 Y2.8628
G01 X-42.1657 Y2.9022
G01 X-42.1910 Y2.9443
G01 X-42.2119 Y2.9887
G01 X-42.2285 Y3.0349
G01 X-42.2404 Y3.0825
G01 X-42.2476 Y3.1310
G01 X-42.2500 Y3.1800
G01 X-42.2476 Y3.2290
G01 X-42.2404 Y3.2775
G01 X-42.2285 Y3.3251
G01 X-42.2119 Y3.3713
G01 X-42.1910 Y3.4157
G01 X-42.1657 Y3.4578
G01 X-42.1365 Y3.4972
G01 X-42.1036 Y3.5336
G01 X-42.0672 Y3.5665
G01 X-42.0278 Y3.5957
G01 X-41.9857 Y3.6210
G01 X-41.9413 Y3.6419
G01 X-41.8951 Y3.6585
G01 X-41.8475 Y3.6704
G01 X-41.7990 Y3.6776
G01 X-41.7500 Y3.6800
G01 X-41.7010 Y3.6776
G01 X-41.6525 Y3.6704
G01 X-41.6049 Y3.6585
G01 X-41.5587 Y3.6419
G01 X-41.5143 Y3.6210
G01 X-41.4722 Y3.5957
G01 X-41.4328 Y3.5665
G01 X-41.3964 Y3.5336
G01 X-41.3635 Y3.4972
G01 X-41.3343 Y3.4578
G01 X-41.3090 Y3.4157
G01 X-41.2881 Y3.3713
G01 X-41.2715 Y3.3251
G01 X-41.2596 Y3.2775
G01 X-41.2524 Y3.2290
G01 X-41.2500 Y3.1800
G00 X-41.2500 Y3.1800
G01 F70.00
G01 Z-0.8000
G01 F120.00
G01 X-41.2524 Y3.1310
G01 X-41.2596 Y3.0825
G01 X-41.2715 Y3.0349
G01 X-41.2881 Y2.9887
G01 X-41.3090 Y2.9443
G01 X-41.3343 Y2.9022
G01 X-41.3635 Y2.8628
G01 X-41.3964 Y2.8264
G01 X-41.4328 Y2.7935
G01 X-41.4722 Y2.7643
G01 X-41.5143 Y2.7390
G01 X-41.5587 Y2.7181
G01 X-41.6049 Y2.7015
G01 X-41.6525 Y2.6896
G01 X-41.7010 Y2.6824
G01 X-41.7500 Y2.6800
G01 X-41.7990 Y2.6824
G01 X-41.8475 Y2.6896
G01 X-41.8951 Y2.7015
G01 X-41.9413 Y2.7181
G01 X-41.9857 Y2.7390
G01 X-42.0278 Y2.7643
G01 X-42.0672 Y2.7935
G01 X-42.1036 Y2.8264
G01 X-42.1365 Y2.8628
G01 X-42.1657 Y2.9022
G01 X-42.1910 Y2.9443
G01 X-42.2119 Y2.9887
G01 X-42.2285 Y3.0349
G01 X-42.2404 Y3.0825
G01 X-42.2476 Y3.1310
G01 X-42.2500 Y3.1800
G01 X-42.2476 Y3.2290
G01 X-42.2404 Y3.2775
G01 X-42.2285 Y3.3251
G01 X-42.2119 Y3.3713
G01 X-42.1910 Y3.4157
G01 X-42.1657 Y3.4578
G01 X-42.1365 Y3.4972
G01 X-42.1036 Y3.5336
G01 X-42.0672 Y3.5665
G01 X-42.0278 Y3.5957
G01 X-41.9857 Y3.6210
G01 X-41.9413 Y3.6419
G01 X-41.8951 Y3.6585
G01 X-41.8475 Y3.6704
G01 X-41.7990 Y3.6776
G01 X-41.7500 Y3.6800
G01 X-41.7010 Y3.6776
G01 X-41.6525 Y3.6704
G01 X-41.6049 Y3.6585
G01 X-41.5587 Y3.6419
G01 X-41.5143 Y3.6210
G01 X-41.4722 Y3.5957
G01 X-41.4328 Y3.5665
G01 X-41.3964 Y3.5336
G01 X-41.3635 Y3.4972
G01 X-41.3343 Y3.4578
G01 X-41.3090 Y3.4157
G01 X-41.2881 Y3.3713
G01 X-41.2715 Y3.3251
G01 X-41.2596 Y3.2775
G01 X-41.2524 Y3.2290
G01 X-41.2500 Y3.1800
G00 X-41.2500 Y3.1800
G01 F70.00
G01 Z-0.9000
G01 F120.00
G01 X-41.2524 Y3.1310
G01 X-41.2596 Y3.0825
G01 X-41.2715 Y3.0349
G01 X-41.2881 Y2.9887
G01 X-41.3090 Y2.9443
G01 X-41.3343 Y2.9022
G01 X-41.3635 Y2.8628
G01 X-41.3964 Y2.8264
G01 X-41.4328 Y2.7935
G01 X-41.4722 Y2.7643
G01 X-41.5143 Y2.7390
G01 X-41.5587 Y2.7181
G01 X-41.6049 Y2.7015
G01 X-41.6525 Y2.6896
G01 X-41.7010 Y2.6824
G01 X-41.7500 Y2.6800
G01 X-41.7990 Y2.6824
G01 X-41.8475 Y2.6896
G01 X-41.8951 Y2.7015
G01 X-41.9413 Y2.7181
G01 X-41.9857 Y2.7390
G01 X-42.0278 Y2.7643
G01 X-42.0672 Y2.7935
G01 X-42.1036 Y2.8264
G01 X-42.1365 Y2.8628
G01 X-42.1657 Y2.9022
G01 X-42.1910 Y2.9443
G01 X-42.2119 Y2.9887
G01 X-42.2285 Y3.0349
G01 X-42.2404 Y3.0825
G01 X-42.2476 Y3.1310
G01 X-42.2500 Y3.1800
G01 X-42.2476 Y3.2290
G01 X-42.2404 Y3.2775
G01 X-42.2285 Y3.3251
G01 X-42.2119 Y3.3713
G01 X-42.1910 Y3.4157
G01 X-42.1657 Y3.4578
G01 X-42.1365 Y3.4972
G01 X-42.1036 Y3.5336
G01 X-42.0672 Y3.5665
G01 X-42.0278 Y3.5957
G01 X-41.9857 Y3.6210
G01 X-41.9413 Y3.6419
G01 X-41.8951 Y3.6585
G01 X-41.8475 Y3.6704
G01 X-41.7990 Y3.6776
G01 X-41.7500 Y3.6800
G01 X-41.7010 Y3.6776
G01 X-41.6525 Y3.6704
G01 X-41.6049 Y3.6585
G01 X-41.5587 Y3.6419
G01 X-41.5143 Y3.6210
G01 X-41.4722 Y3.5957
G01 X-41.4328 Y3.5665
G01 X-41.3964 Y3.5336
G01 X-41.3635 Y3.4972
G01 X-41.3343 Y3.4578
G01 X-41.3090 Y3.4157
G01 X-41.2881 Y3.3713
G01 X-41.2715 Y3.3251
G01 X-41.2596 Y3.2775
G01 X-41.2524 Y3.2290
G01 X-41.2500 Y3.1800
G00 X-41.2500 Y3.1800
G01 F70.00
G01 Z-1.0000
G01 F120.00
G01 X-41.2524 Y3.1310
G01 X-41.2596 Y3.0825
G01 X-41.2715 Y3.0349
G01 X-41.2881 Y2.9887
G01 X-41.3090 Y2.9443
G01 X-41.3343 Y2.9022
G01 X-41.3635 Y2.8628
G01 X-41.3964 Y2.8264
G01 X-41.4328 Y2.7935
G01 X-41.4722 Y2.7643
G01 X-41.5143 Y2.7390
G01 X-41.5587 Y2.7181
G01 X-41.6049 Y2.7015
G01 X-41.6525 Y2.6896
G01 X-41.7010 Y2.6824
G01 X-41.7500 Y2.6800
G01 X-41.7990 Y2.6824
G01 X-41.8475 Y2.6896
G01 X-41.8951 Y2.7015
G01 X-41.9413 Y2.7181
G01 X-41.9857 Y2.7390
G01 X-42.0278 Y2.7643
G01 X-42.0672 Y2.7935
G01 X-42.1036 Y2.8264
G01 X-42.1365 Y2.8628
G01 X-42.1657 Y2.9022
G01 X-42.1910 Y2.9443
G01 X-42.2119 Y2.9887
G01 X-42.2285 Y3.0349
G01 X-42.2404 Y3.0825
G01 X-42.2476 Y3.1310
G01 X-42.2500 Y3.1800
G01 X-42.2476 Y3.2290
G01 X-42.2404 Y3.2775
G01 X-42.2285 Y3.3251
G01 X-42.2119 Y3.3713
G01 X-42.1910 Y3.4157
G01 X-42.1657 Y3.4578
G01 X-42.1365 Y3.4972
G01 X-42.1036 Y3.5336
G01 X-42.0672 Y3.5665
G01 X-42.0278 Y3.5957
G01 X-41.9857 Y3.6210
G01 X-41.9413 Y3.6419
G01 X-41.8951 Y3.6585
G01 X-41.8475 Y3.6704
G01 X-41.7990 Y3.6776
G01 X-41.7500 Y3.6800
G01 X-41.7010 Y3.6776
G01 X-41.6525 Y3.6704
G01 X-41.6049 Y3.6585
G01 X-41.5587 Y3.6419
G01 X-41.5143 Y3.6210
G01 X-41.4722 Y3.5957
G01 X-41.4328 Y3.5665
G01 X-41.3964 Y3.5336
G01 X-41.3635 Y3.4972
G01 X-41.3343 Y3.4578
G01 X-41.3090 Y3.4157
G01 X-41.2881 Y3.3713
G01 X-41.2715 Y3.3251
G01 X-41.2596 Y3.2775
G01 X-41.2524 Y3.2290
G01 X-41.2500 Y3.1800
G00 X-41.2500 Y3.1800
G01 F70.00
G01 Z-1.1000
G01 F120.00
G01 X-41.2524 Y3.1310
G01 X-41.2596 Y3.0825
G01 X-41.2715 Y3.0349
G01 X-41.2881 Y2.9887
G01 X-41.3090 Y2.9443
G01 X-41.3343 Y2.9022
G01 X-41.3635 Y2.8628
G01 X-41.3964 Y2.8264
G01 X-41.4328 Y2.7935
G01 X-41.4722 Y2.7643
G01 X-41.5143 Y2.7390
G01 X-41.5587 Y2.7181
G01 X-41.6049 Y2.7015
G01 X-41.6525 Y2.6896
G01 X-41.7010 Y2.6824
G01 X-41.7500 Y2.6800
G01 X-41.7990 Y2.6824
G01 X-41.8475 Y2.6896
G01 X-41.8951 Y2.7015
G01 X-41.9413 Y2.7181
G01 X-41.9857 Y2.7390
G01 X-42.0278 Y2.7643
G01 X-42.0672 Y2.7935
G01 X-42.1036 Y2.8264
G01 X-42.1365 Y2.8628
G01 X-42.1657 Y2.9022
G01 X-42.1910 Y2.9443
G01 X-42.2119 Y2.9887
G01 X-42.2285 Y3.0349
G01 X-42.2404 Y3.0825
G01 X-42.2476 Y3.1310
G01 X-42.2500 Y3.1800
G01 X-42.2476 Y3.2290
G01 X-42.2404 Y3.2775
G01 X-42.2285 Y3.3251
G01 X-42.2119 Y3.3713
G01 X-42.1910 Y3.4157
G01 X-42.1657 Y3.4578
G01 X-42.1365 Y3.4972
G01 X-42.1036 Y3.5336
G01 X-42.0672 Y3.5665
G01 X-42.0278 Y3.5957
