(G-CODE GENERATED BY FLATCAM v8.993 - www.flatcam.org - Version Date: 2020/06/05)

(Name: CW_Ф2_низ.gbr_iso_combined_cnc)
(Type: G-code from Geometry)
(Units: MM)

(Created on Wednesday, 08 December 2021 at 15:19)

(This preprocessor is the default preprocessor used by FlatCAM.)
(It is made to work with MACH3 compatible motion controllers.)

(TOOL DIAMETER: 0.14 mm)
(Feedrate_XY: 120.0 mm/min)
(Feedrate_Z: 70.0 mm/min)
(Feedrate rapids 1500.0 mm/min)

(Z_Cut: -0.06 mm)
(Z_Move: 2.0 mm)
(Z Start: None mm)
(Z End: 25.0 mm)
(Steps per circle: 128)
(Preprocessor Geometry: default)

(X range:  -45.2800 ...    0.2800  mm)
(Y range:   -0.2800 ...   40.2800  mm)

(Spindle Speed: 10000 RPM)
G21
G90
G94



G01 F120.00
G00 Z2.0000

M03 S10000
G00 X0.0700 Y0.0000
G01 F70.00
G01 Z-0.0600
G01 F120.00
G01 X0.0700 Y40.0000
G01 X0.0683 Y40.0153
G01 X0.0636 Y40.0291
G01 X0.0562 Y40.0417
G01 X0.0464 Y40.0524
G01 X0.0360 Y40.0600
G01 X0.0252 Y40.0653
G01 X0.0128 Y40.0688
G01 X-0.0000 Y40.0700
G01 X-45.0000 Y40.0700
G01 X-45.0153 Y40.0683
G01 X-45.0291 Y40.0636
G01 X-45.0417 Y40.0562
G01 X-45.0524 Y40.0464
G01 X-45.0600 Y40.0360
G01 X-45.0653 Y40.0252
G01 X-45.0688 Y40.0128
G01 X-45.0700 Y40.0000
G01 X-45.0700 Y0.0000
G01 X-45.0685 Y-0.0145
G01 X-45.0636 Y-0.0291
G01 X-45.0562 Y-0.0417
G01 X-45.0464 Y-0.0524
G01 X-45.0367 Y-0.0596
G01 X-45.0252 Y-0.0653
G01 X-45.0128 Y-0.0688
G01 X-45.0000 Y-0.0700
G01 X-0.0000 Y-0.0700
G01 X0.0137 Y-0.0687
G01 X0.0268 Y-0.0647
G01 X0.0389 Y-0.0582
G01 X0.0495 Y-0.0495
G01 X0.0582 Y-0.0389
G01 X0.0647 Y-0.0268
G01 X0.0687 Y-0.0137
G01 X0.0700 Y0.0000
G00 Z2.0000
G00 X0.1400 Y0.0000
G01 F70.00
G01 Z-0.0600
G01 F120.00
G01 X0.1400 Y40.0000
G01 X0.1391 Y40.0154
G01 X0.1370 Y40.0290
G01 X0.1329 Y40.0439
G01 X0.1273 Y40.0583
G01 X0.1210 Y40.0705
G01 X0.1124 Y40.0834
G01 X0.1037 Y40.0940
G01 X0.0927 Y40.1049
G01 X0.0834 Y40.1124
G01 X0.0720 Y40.1201
G01 X0.0599 Y40.1266
G01 X0.0488 Y40.1312
G01 X0.0373 Y40.1349
G01 X0.0256 Y40.1376
G01 X0.0120 Y40.1395
G01 X-0.0000 Y40.1400
G01 X-45.0000 Y40.1400
G01 X-45.0137 Y40.1393
G01 X-45.0290 Y40.1370
G01 X-45.0423 Y40.1335
G01 X-45.0567 Y40.1280
G01 X-45.0705 Y40.1210
G01 X-45.0834 Y40.1124
G01 X-45.0940 Y40.1037
G01 X-45.1049 Y40.0927
G01 X-45.1124 Y40.0834
G01 X-45.1201 Y40.0720
G01 X-45.1266 Y40.0599
G01 X-45.1312 Y40.0488
G01 X-45.1349 Y40.0373
G01 X-45.1376 Y40.0256
G01 X-45.1395 Y40.0120
G01 X-45.1400 Y40.0000
G01 X-45.1400 Y0.0000
G01 X-45.1393 Y-0.0137
G01 X-45.1370 Y-0.0290
G01 X-45.1335 Y-0.0423
G01 X-45.1280 Y-0.0567
G01 X-45.1210 Y-0.0705
G01 X-45.1124 Y-0.0834
G01 X-45.1026 Y-0.0953
G01 X-45.0927 Y-0.1049
G01 X-45.0834 Y-0.1124
G01 X-45.0720 Y-0.1201
G01 X-45.0614 Y-0.1258
G01 X-45.0504 Y-0.1306
G01 X-45.0390 Y-0.1345
G01 X-45.0256 Y-0.1376
G01 X-45.0120 Y-0.1395
G01 X-45.0000 Y-0.1400
G01 X-0.0000 Y-0.1400
G01 X0.0137 Y-0.1393
G01 X0.0273 Y-0.1373
G01 X0.0406 Y-0.1340
G01 X0.0536 Y-0.1293
G01 X0.0660 Y-0.1235
G01 X0.0778 Y-0.1164
G01 X0.0888 Y-0.1082
G01 X0.0990 Y-0.0990
G01 X0.1082 Y-0.0888
G01 X0.1164 Y-0.0778
G01 X0.1235 Y-0.0660
G01 X0.1293 Y-0.0536
G01 X0.1340 Y-0.0406
G01 X0.1373 Y-0.0273
G01 X0.1393 Y-0.0137
G01 X0.1400 Y0.0000
G00 Z2.0000
G00 X0.2100 Y0.0000
G01 F70.00
G01 Z-0.0600
G01 F120.00
G01 X0.2100 Y40.0000
G01 X0.2087 Y40.0231
G01 X0.2054 Y40.0435
G01 X0.1994 Y40.0659
G01 X0.1920 Y40.0851
G01 X0.1814 Y40.1057
G01 X0.1687 Y40.1251
G01 X0.1539 Y40.1429
G01 X0.1391 Y40.1573
G01 X0.1251 Y40.1687
G01 X0.1080 Y40.1801
G01 X0.0898 Y40.1898
G01 X0.0732 Y40.1968
G01 X0.0560 Y40.2024
G01 X0.0384 Y40.2065
G01 X0.0206 Y40.2090
G01 X-0.0000 Y40.2100
G01 X-45.0000 Y40.2100
G01 X-45.0231 Y40.2087
G01 X-45.0435 Y40.2054
G01 X-45.0659 Y40.1994
G01 X-45.0875 Y40.1909
G01 X-45.1080 Y40.1801
G01 X-45.1251 Y40.1687
G01 X-45.1429 Y40.1539
G01 X-45.1573 Y40.1391
G01 X-45.1687 Y40.1251
G01 X-45.1801 Y40.1080
G01 X-45.1898 Y40.0898
G01 X-45.1968 Y40.0732
G01 X-45.2024 Y40.0560
G01 X-45.2065 Y40.0384
G01 X-45.2090 Y40.0206
G01 X-45.2100 Y40.0000
G01 X-45.2100 Y0.0000
G01 X-45.2090 Y-0.0206
G01 X-45.2054 Y-0.0435
G01 X-45.1994 Y-0.0659
G01 X-45.1920 Y-0.0851
G01 X-45.1814 Y-0.1057
G01 X-45.1687 Y-0.1251
G01 X-45.1539 Y-0.1429
G01 X-45.1391 Y-0.1573
G01 X-45.1251 Y-0.1687
G01 X-45.1080 Y-0.1801
G01 X-45.0921 Y-0.1887
G01 X-45.0756 Y-0.1959
G01 X-45.0585 Y-0.2017
G01 X-45.0384 Y-0.2065
G01 X-45.0206 Y-0.2090
G01 X-45.0000 Y-0.2100
G01 X-0.0000 Y-0.2100
G01 X0.0206 Y-0.2090
G01 X0.0410 Y-0.2060
G01 X0.0610 Y-0.2010
G01 X0.0804 Y-0.1940
G01 X0.0990 Y-0.1852
G01 X0.1167 Y-0.1746
G01 X0.1332 Y-0.1623
G01 X0.1485 Y-0.1485
G01 X0.1623 Y-0.1332
G01 X0.1746 Y-0.1167
G01 X0.1852 Y-0.0990
G01 X0.1940 Y-0.0804
G01 X0.2010 Y-0.0610
G01 X0.2060 Y-0.0410
G01 X0.2090 Y-0.0206
G01 X0.2100 Y0.0000
G00 Z2.0000
G00 X0.2800 Y0.0000
G01 F70.00
G01 Z-0.0600
G01 F120.00
G01 X0.2800 Y40.0000
G01 X0.2783 Y40.0309
G01 X0.2739 Y40.0580
G01 X0.2659 Y40.0878
G01 X0.2546 Y40.1166
G01 X0.2402 Y40.1439
G01 X0.2249 Y40.1668
G01 X0.2051 Y40.1906
G01 X0.1855 Y40.2098
G01 X0.1640 Y40.2269
G01 X0.1439 Y40.2402
G01 X0.1228 Y40.2516
G01 X0.1008 Y40.2612
G01 X0.0747 Y40.2699
G01 X0.0513 Y40.2753
G01 X0.0274 Y40.2787
G01 X-0.0000 Y40.2800
G01 X-45.0000 Y40.2800
G01 X-45.0309 Y40.2783
G01 X-45.0613 Y40.2732
G01 X-45.0878 Y40.2659
G01 X-45.1166 Y40.2546
G01 X-45.1439 Y40.2402
G01 X-45.1668 Y40.2249
G01 X-45.1906 Y40.2051
G01 X-45.2098 Y40.1855
G01 X-45.2249 Y40.1668
G01 X-45.2402 Y40.1439
G01 X-45.2516 Y40.1228
G01 X-45.2612 Y40.1008
G01 X-45.2699 Y40.0747
G01 X-45.2753 Y40.0513
G01 X-45.2787 Y40.0274
G01 X-45.2800 Y40.0000
G01 X-45.2800 Y0.0000
G01 X-45.2783 Y-0.0309
G01 X-45.2732 Y-0.0613
G01 X-45.2648 Y-0.0911
G01 X-45.2546 Y-0.1166
G01 X-45.2402 Y-0.1439
G01 X-45.2249 Y-0.1668
G01 X-45.2051 Y-0.1906
G01 X-45.1855 Y-0.2098
G01 X-45.1640 Y-0.2269
G01 X-45.1439 Y-0.2402
G01 X-45.1228 Y-0.2516
G01 X-45.1008 Y-0.2612
G01 X-45.0780 Y-0.2689
G01 X-45.0513 Y-0.2753
G01 X-45.0240 Y-0.2790
G01 X-45.0000 Y-0.2800
G01 X-0.0000 Y-0.2800
G01 X0.0274 Y-0.2787
G01 X0.0546 Y-0.2746
G01 X0.0813 Y-0.2679
G01 X0.1072 Y-0.2587
G01 X0.1320 Y-0.2469
G01 X0.1556 Y-0.2328
G01 X0.1776 Y-0.2164
G01 X0.1980 Y-0.1980
G01 X0.2164 Y-0.1776
G01 X0.2328 Y-0.1556
G01 X0.2469 Y-0.1320
G01 X0.2587 Y-0.1072
G01 X0.2679 Y-0.0813
G01 X0.2746 Y-0.0546
G01 X0.2787 Y-0.0274
G01 X0.2800 Y0.0000
G00 Z2.0000
G00 X-0.8354 Y4.2371
G01 F70.00
G01 Z-0.0600
G01 F120.00
G01 X-0.8006 Y4.1585
G01 X-0.7558 Y4.0424
G01 X-0.7159 Y3.9219
G01 X-0.6820 Y3.7995
G01 X-0.6546 Y3.6772
G01 X-0.6328 Y3.5521
G01 X-0.6174 Y3.4269
G01 X-0.6081 Y3.3011
G01 X-0.6050 Y3.1767
G01 X-0.6081 Y3.0489
G01 X-0.6174 Y2.9231
G01 X-0.6328 Y2.7979
G01 X-0.6546 Y2.6728
G01 X-0.6820 Y2.5505
G01 X-0.7159 Y2.4281
G01 X-0.7558 Y2.3076
G01 X-0.8006 Y2.1915
G01 X-0.8354 Y2.1129
G01 X-0.7900 Y2.0675
G01 X-0.7452 Y2.1686
G01 X-0.6988 Y2.2890
G01 X-0.6583 Y2.4116
G01 X-0.6238 Y2.5360
G01 X-0.5956 Y2.6619
G01 X-0.5735 Y2.7891
G01 X-0.5577 Y2.9172
G01 X-0.5482 Y3.0460
G01 X-0.5450 Y3.1750
G01 X-0.5482 Y3.3040
G01 X-0.5577 Y3.4328
G01 X-0.5735 Y3.5609
G01 X-0.5956 Y3.6881
G01 X-0.6238 Y3.8140
G01 X-0.6583 Y3.9384
G01 X-0.6988 Y4.0610
G01 X-0.7452 Y4.1814
G01 X-0.7900 Y4.2825
G01 X-0.8354 Y4.2371
G00 Z2.0000
G00 X-4.2825 Y5.5600
G01 F70.00
G01 Z-0.0600
G01 F120.00
G01 X-4.2371 Y5.5146
G01 X-4.1585 Y5.5494
G01 X-4.0424 Y5.5942
G01 X-3.9219 Y5.6341
G01 X-3.7995 Y5.6680
G01 X-3.6772 Y5.6954
G01 X-3.5521 Y5.7172
G01 X-3.4269 Y5.7326
G01 X-3.3011 Y5.7419
G01 X-3.1750 Y5.7450
G01 X-3.0489 Y5.7419
G01 X-2.9231 Y5.7326
G01 X-2.7979 Y5.7172
G01 X-2.6728 Y5.6954
G01 X-2.5505 Y5.6680
G01 X-2.4281 Y5.6341
G01 X-2.3076 Y5.5942
G01 X-2.1915 Y5.5494
G01 X-2.1129 Y5.5146
G01 X-2.0675 Y5.5600
G01 X-2.1686 Y5.6048
G01 X-2.2890 Y5.6512
G01 X-2.4116 Y5.6917
G01 X-2.5360 Y5.7262
G01 X-2.6619 Y5.7544
G01 X-2.7891 Y5.7765
G01 X-2.9172 Y5.7923
G01 X-3.0460 Y5.8018
G01 X-3.1750 Y5.8050
G01 X-3.3040 Y5.8018
G01 X-3.4328 Y5.7923
G01 X-3.5609 Y5.7765
G01 X-3.6881 Y5.7544
G01 X-3.8140 Y5.7262
G01 X-3.9384 Y5.6917
G01 X-4.0610 Y5.6512
G01 X-4.1814 Y5.6048
G01 X-4.2825 Y5.5600
G00 Z2.0000
G00 X-5.5600 Y4.2825
G01 F70.00
G01 Z-0.0600
G01 F120.00
G01 X-5.6048 Y4.1814
G01 X-5.6512 Y4.0610
G01 X-5.6917 Y3.9384
G01 X-5.7262 Y3.8140
G01 X-5.7544 Y3.6881
G01 X-5.7765 Y3.5609
G01 X-5.7923 Y3.4328
G01 X-5.8018 Y3.3040
G01 X-5.8050 Y3.1750
G01 X-5.8018 Y3.0460
G01 X-5.7923 Y2.9172
G01 X-5.7765 Y2.7891
G01 X-5.7544 Y2.6619
G01 X-5.7262 Y2.5360
G01 X-5.6917 Y2.4116
G01 X-5.6512 Y2.2890
G01 X-5.6048 Y2.1686
G01 X-5.5600 Y2.0675
G01 X-5.5146 Y2.1129
G01 X-5.5494 Y2.1915
G01 X-5.5942 Y2.3076
G01 X-5.6341 Y2.4281
G01 X-5.6680 Y2.5505
G01 X-5.6954 Y2.6728
G01 X-5.7172 Y2.7979
G01 X-5.7326 Y2.9231
G01 X-5.7419 Y3.0489
G01 X-5.7450 Y3.1750
G01 X-5.7419 Y3.3011
G01 X-5.7326 Y3.4269
G01 X-5.7172 Y3.5521
G01 X-5.6954 Y3.6772
G01 X-5.6680 Y3.7995
G01 X-5.6341 Y3.9219
G01 X-5.5942 Y4.0424
G01 X-5.5494 Y4.1585
G01 X-5.5146 Y4.2371
G01 X-5.5600 Y4.2825
G00 Z2.0000
G00 X-6.9746 Y4.1066
G01 F70.00
G01 Z-0.0600
G01 F120.00
G01 X-6.9331 Y4.1226
G01 X-6.8712 Y4.1500
G01 X-6.8107 Y4.1805
G01 X-6.7517 Y4.2139
G01 X-6.6945 Y4.2501
G01 X-6.6391 Y4.2891
G01 X-6.5858 Y4.3308
G01 X-6.5345 Y4.3750
G01 X-6.4854 Y4.4217
G01 X-6.4387 Y4.4708
G01 X-6.3945 Y4.5221
G01 X-6.3528 Y4.5754
G01 X-6.3138 Y4.6308
G01 X-6.2776 Y4.6880
G01 X-6.2442 Y4.7470
G01 X-6.2137 Y4.8075
G01 X-6.1863 Y4.8694
G01 X-6.1703 Y4.9108
G01 X-6.2345 Y4.9108
G01 X-6.2420 Y4.8916
G01 X-6.2676 Y4.8339
G01 X-6.2967 Y4.7760
G01 X-6.3290 Y4.7189
G01 X-6.3632 Y4.6649
G01 X-6.4010 Y4.6112
G01 X-6.4408 Y4.5601
G01 X-6.4831 Y4.5110
G01 X-6.5278 Y4.4641
G01 X-6.5747 Y4.4194
G01 X-6.6238 Y4.3771
G01 X-6.6749 Y4.3373
G01 X-6.7286 Y4.2995
G01 X-6.7826 Y4.2653
G01 X-6.8397 Y4.2330
G01 X-6.8976 Y4.2039
G01 X-6.9553 Y4.1783
G01 X-6.9746 Y4.1708
G01 X-6.9746 Y4.1066
G00 Z2.0000
G00 X-6.9746 Y3.1317
G01 F70.00
G01 Z-0.0600
G01 F120.00
G01 X-6.9553 Y3.1242
G01 X-6.8961 Y3.0979
G01 X-6.8390 Y3.0691
G01 X-6.7819 Y3.0368
G01 X-6.7278 Y3.0025
G01 X-6.6749 Y2.9652
G01 X-6.6238 Y2.9254
G01 X-6.5741 Y2.8825
G01 X-6.5278 Y2.8384
G01 X-6.4820 Y2.7902
G01 X-6.4408 Y2.7424
G01 X-6.4020 Y2.6927
G01 X-6.3641 Y2.6391
G01 X-6.3290 Y2.5836
G01 X-6.2967 Y2.5265
G01 X-6.2676 Y2.4686
G01 X-6.2420 Y2.4109
G01 X-6.2345 Y2.3917
G01 X-6.1703 Y2.3917
G01 X-6.1863 Y2.4331
G01 X-6.2137 Y2.4950
G01 X-6.2442 Y2.5555
G01 X-6.2776 Y2.6145
G01 X-6.3138 Y2.6717
G01 X-6.3528 Y2.7271
G01 X-6.3945 Y2.7804
G01 X-6.4387 Y2.8317
G01 X-6.4854 Y2.8808
G01 X-6.5345 Y2.9275
G01 X-6.5858 Y2.9717
G01 X-6.6391 Y3.0134
G01 X-6.6945 Y3.0524
G01 X-6.7517 Y3.0886
G01 X-6.8107 Y3.1220
G01 X-6.8712 Y3.1525
G01 X-6.9331 Y3.1799
G01 X-6.9746 Y3.1959
G01 X-6.9746 Y3.1317
G00 Z2.0000
G00 X-8.7521 Y2.3917
G01 F70.00
G01 Z-0.0600
G01 F120.00
G01 X-8.6879 Y2.3917
G01 X-8.6804 Y2.4109
G01 X-8.6548 Y2.4686
G01 X-8.6257 Y2.5265
G01 X-8.5934 Y2.5836
G01 X-8.5592 Y2.6376
G01 X-8.5214 Y2.6913
G01 X-8.4816 Y2.7424
G01 X-8.4393 Y2.7915
G01 X-8.3946 Y2.8384
G01 X-8.3477 Y2.8831
G01 X-8.2986 Y2.9254
G01 X-8.2475 Y2.9652
G01 X-8.1938 Y3.0030
G01 X-8.1398 Y3.0372
G01 X-8.0827 Y3.0695
G01 X-8.0248 Y3.0986
G01 X-7.9671 Y3.1242
G01 X-7.9479 Y3.1317
G01 X-7.9479 Y3.1959
G01 X-7.9893 Y3.1799
G01 X-8.0512 Y3.1525
G01 X-8.1117 Y3.1220
G01 X-8.1707 Y3.0886
G01 X-8.2279 Y3.0524
G01 X-8.2833 Y3.0134
G01 X-8.3366 Y2.9717
G01 X-8.3879 Y2.9275
G01 X-8.4370 Y2.8808
G01 X-8.4837 Y2.8317
G01 X-8.5279 Y2.7804
G01 X-8.5696 Y2.7271
G01 X-8.6086 Y2.6717
G01 X-8.6448 Y2.6145
G01 X-8.6782 Y2.5555
G01 X-8.7087 Y2.4950
G01 X-8.7361 Y2.4331
G01 X-8.7521 Y2.3917
G00 Z2.0000
G00 X-8.7521 Y1.4183
G01 F70.00
G01 Z-0.0600
G01 F120.00
G01 X-8.7361 Y1.3769
G01 X-8.7087 Y1.3150
G01 X-8.6782 Y1.2545
G01 X-8.6448 Y1.1955
G01 X-8.6086 Y1.1383
G01 X-8.5696 Y1.0829
G01 X-8.5279 Y1.0296
G01 X-8.4837 Y0.9783
G01 X-8.4370 Y0.9292
G01 X-8.3879 Y0.8825
G01 X-8.3366 Y0.8383
G01 X-8.2833 Y0.7966
G01 X-8.2279 Y0.7576
G01 X-8.1707 Y0.7214
G01 X-8.1117 Y0.6880
G01 X-8.0512 Y0.6575
G01 X-7.9893 Y0.6301
G01 X-7.9479 Y0.6141
G01 X-7.9479 Y0.6783
G01 X-7.9671 Y0.6858
G01 X-8.0248 Y0.7114
G01 X-8.0827 Y0.7405
G01 X-8.1398 Y0.7728
G01 X-8.1938 Y0.8070
G01 X-8.2475 Y0.8448
G01 X-8.2986 Y0.8846
G01 X-8.3477 Y0.9269
G01 X-8.3946 Y0.9716
G01 X-8.4393 Y1.0185
G01 X-8.4816 Y1.0676
G01 X-8.5214 Y1.1187
G01 X-8.5592 Y1.1724
G01 X-8.5934 Y1.2264
G01 X-8.6257 Y1.2835
G01 X-8.6548 Y1.3414
G01 X-8.6804 Y1.3991
G01 X-8.6879 Y1.4183
G01 X-8.7521 Y1.4183
G00 Z2.0000
G00 X-6.9746 Y0.6141
G01 F70.00
G01 Z-0.0600
G01 F120.00
G01 X-6.9331 Y0.6301
G01 X-6.8712 Y0.6575
G01 X-6.8107 Y0.6880
G01 X-6.7517 Y0.7214
G01 X-6.6945 Y0.7576
G01 X-6.6391 Y0.7966
G01 X-6.5858 Y0.8383
G01 X-6.5345 Y0.8825
G01 X-6.4854 Y0.9292
G01 X-6.4387 Y0.9783
G01 X-6.3945 Y1.0296
G01 X-6.3528 Y1.0829
G01 X-6.3138 Y1.1383
G01 X-6.2776 Y1.1955
G01 X-6.2442 Y1.2545
G01 X-6.2137 Y1.3150
G01 X-6.1863 Y1.3769
G01 X-6.1703 Y1.4183
G01 X-6.2345 Y1.4183
G01 X-6.2420 Y1.3991
G01 X-6.2676 Y1.3414
G01 X-6.2967 Y1.2835
G01 X-6.3290 Y1.2264
G01 X-6.3632 Y1.1724
G01 X-6.4010 Y1.1187
G01 X-6.4408 Y1.0676
G01 X-6.4831 Y1.0185
G01 X-6.5278 Y0.9716
G01 X-6.5747 Y0.9269
G01 X-6.6238 Y0.8846
G01 X-6.6749 Y0.8448
G01 X-6.7286 Y0.8070
G01 X-6.7826 Y0.7728
G01 X-6.8397 Y0.7405
G01 X-6.8976 Y0.7114
G01 X-6.9553 Y0.6858
G01 X-6.9746 Y0.6783
G01 X-6.9746 Y0.6141
G00 Z2.0000
G00 X-4.2825 Y0.7900
G01 F70.00
G01 Z-0.0600
G01 F120.00
G01 X-4.1814 Y0.7452
G01 X-4.0610 Y0.6988
G01 X-3.9384 Y0.6583
G01 X-3.8140 Y0.6238
G01 X-3.6881 Y0.5956
G01 X-3.5609 Y0.5735
G01 X-3.4328 Y0.5577
G01 X-3.3040 Y0.5482
G01 X-3.1750 Y0.5450
G01 X-3.0460 Y0.5482
G01 X-2.9172 Y0.5577
G01 X-2.7891 Y0.5735
G01 X-2.6619 Y0.5956
G01 X-2.5360 Y0.6238
G01 X-2.4116 Y0.6583
G01 X-2.2890 Y0.6988
G01 X-2.1686 Y0.7452
G01 X-2.0675 Y0.7900
G01 X-2.1129 Y0.8354
G01 X-2.1915 Y0.8006
G01 X-2.3076 Y0.7558
G01 X-2.4281 Y0.7159
G01 X-2.5505 Y0.6820
G01 X-2.6728 Y0.6546
G01 X-2.7979 Y0.6328
G01 X-2.9231 Y0.6174
G01 X-3.0489 Y0.6081
G01 X-3.1750 Y0.6050
G01 X-3.3011 Y0.6081
G01 X-3.4269 Y0.6174
G01 X-3.5521 Y0.6328
G01 X-3.6772 Y0.6546
G01 X-3.7995 Y0.6820
G01 X-3.9219 Y0.7159
G01 X-4.0424 Y0.7558
G01 X-4.1585 Y0.8006
G01 X-4.2371 Y0.8354
G01 X-4.2825 Y0.7900
G00 Z2.0000
G00 X-8.7521 Y4.9108
G01 F70.00
G01 Z-0.0600
G01 F120.00
G01 X-8.7361 Y4.8694
G01 X-8.7087 Y4.8075
G01 X-8.6782 Y4.7470
G01 X-8.6448 Y4.6880
G01 X-8.6086 Y4.6308
G01 X-8.5696 Y4.5754
G01 X-8.5279 Y4.5221
G01 X-8.4837 Y4.4708
G01 X-8.4370 Y4.4217
G01 X-8.3879 Y4.3750
G01 X-8.3366 Y4.3308
G01 X-8.2833 Y4.2891
G01 X-8.2279 Y4.2501
G01 X-8.1707 Y4.2139
G01 X-8.1117 Y4.1805
G01 X-8.0512 Y4.1500
G01 X-7.9893 Y4.1226
G01 X-7.9479 Y4.1066
G01 X-7.9479 Y4.1708
G01 X-7.9671 Y4.1783
G01 X-8.0248 Y4.2039
G01 X-8.0827 Y4.2330
G01 X-8.1398 Y4.2653
G01 X-8.1938 Y4.2995
G01 X-8.2475 Y4.3373
G01 X-8.2986 Y4.3771
G01 X-8.3477 Y4.4194
G01 X-8.3946 Y4.4641
G01 X-8.4393 Y4.5110
G01 X-8.4816 Y4.5601
G01 X-8.5214 Y4.6112
G01 X-8.5592 Y4.6649
G01 X-8.5934 Y4.7189
G01 X-8.6257 Y4.7760
G01 X-8.6548 Y4.8339
G01 X-8.6804 Y4.8916
G01 X-8.6879 Y4.9108
G01 X-8.7521 Y4.9108
G00 Z2.0000
G00 X-8.7521 Y5.8842
G01 F70.00
G01 Z-0.0600
G01 F120.00
G01 X-8.6879 Y5.8842
G01 X-8.6804 Y5.9034
G01 X-8.6548 Y5.9611
G01 X-8.6257 Y6.0190
G01 X-8.5934 Y6.0761
G01 X-8.5592 Y6.1301
G01 X-8.5214 Y6.1838
G01 X-8.4816 Y6.2349
G01 X-8.4393 Y6.2840
G01 X-8.3946 Y6.3309
G01 X-8.3477 Y6.3756
G01 X-8.2986 Y6.4179
G01 X-8.2475 Y6.4577
G01 X-8.1938 Y6.4955
G01 X-8.1398 Y6.5297
G01 X-8.0827 Y6.5620
G01 X-8.0248 Y6.5911
G01 X-7.9671 Y6.6167
G01 X-7.9479 Y6.6242
G01 X-7.9479 Y6.6884
G01 X-7.9893 Y6.6724
G01 X-8.0512 Y6.6450
G01 X-8.1117 Y6.6145
G01 X-8.1707 Y6.5811
G01 X-8.2279 Y6.5449
G01 X-8.2833 Y6.5059
G01 X-8.3366 Y6.4642
G01 X-8.3879 Y6.4200
G01 X-8.4370 Y6.3733
G01 X-8.4837 Y6.3242
G01 X-8.5279 Y6.2729
G01 X-8.5696 Y6.2196
G01 X-8.6086 Y6.1642
G01 X-8.6448 Y6.1070
G01 X-8.6782 Y6.0480
G01 X-8.7087 Y5.9875
G01 X-8.7361 Y5.9256
G01 X-8.7521 Y5.8842
G00 Z2.0000
G00 X-10.3571 Y5.7945
G01 F70.00
G01 Z-0.0600
G01 F120.00
G01 X-10.3571 Y5.2167
G01 X-10.3553 Y5.2005
G01 X-10.3528 Y5.1923
G01 X-10.3493 Y5.1844
G01 X-10.3449 Y5.1771
G01 X-10.3390 Y5.1696
G01 X-10.3329 Y5.1637
G01 X-10.3253 Y5.1580
G01 X-10.3178 Y5.1537
G01 X-10.3091 Y5.1502
G01 X-10.2983 Y5.1475
G01 X-10.2880 Y5.1467
G01 X-10.2154 Y5.1467
G01 X-10.2010 Y5.1485
G01 X-10.1857 Y5.1541
G01 X-10.1722 Y5.1630
G01 X-10.0727 Y5.2483
G01 X-10.0645 Y5.2571
G01 X-10.0579 Y5.2672
G01 X-10.0519 Y5.2825
G01 X-10.0000 Y5.4903
G01 X-9.9983 Y5.5056
G01 X-10.0002 Y5.5217
G01 X-10.0503 Y5.7218
G01 X-10.0541 Y5.7314
G01 X-10.0597 Y5.7410
G01 X-10.0663 Y5.7490
G01 X-10.0746 Y5.7564
G01 X-10.2388 Y5.8554
G01 X-10.2506 Y5.8607
G01 X-10.2639 Y5.8639
G01 X-10.2889 Y5.8645
G01 X-10.3008 Y5.8632
G01 X-10.3155 Y5.8585
G01 X-10.3288 Y5.8508
G01 X-10.3407 Y5.8396
G01 X-10.3497 Y5.8260
G01 X-10.3553 Y5.8107
G01 X-10.3571 Y5.7945
G00 Z2.0000
G00 X-10.6196 Y5.9467
G01 F70.00
G01 Z-0.0600
G01 F120.00
G01 X-10.6308 Y5.9453
G01 X-10.8513 Y5.8924
G01 X-10.8617 Y5.8886
G01 X-10.8700 Y5.8829
G01 X-10.8766 Y5.8752
G01 X-10.8808 Y5.8673
G01 X-10.9930 Y5.5976
G01 X-10.9949 Y5.5847
G01 X-10.9949 Y5.3198
G01 X-10.9937 Y5.3092
G01 X-10.9898 Y5.2993
G01 X-10.8794 Y5.0874
G01 X-10.8719 Y5.0769
G01 X-10.8658 Y5.0717
G01 X-10.8605 Y5.0687
G01 X-10.8490 Y5.0651
G01 X-10.8430 Y5.0646
G01 X-10.8350 Y5.0653
G01 X-10.8273 Y5.0675
G01 X-10.8219 Y5.0702
G01 X-10.8169 Y5.0736
G01 X-10.8112 Y5.0792
G01 X-10.8076 Y5.0841
G01 X-10.8041 Y5.0914
G01 X-10.8016 Y5.1032
G01 X-10.8023 Y5.1132
G01 X-10.8053 Y5.1228
G01 X-10.9063 Y5.3169
G01 X-10.9108 Y5.3300
G01 X-10.9127 Y5.3436
G01 X-10.9127 Y5.5634
G01 X-10.9114 Y5.5771
G01 X-10.9074 Y5.5903
G01 X-10.8250 Y5.7875
G01 X-10.8170 Y5.8006
G01 X-10.8062 Y5.8116
G01 X-10.7934 Y5.8200
G01 X-10.7781 Y5.8255
G01 X-10.6176 Y5.8638
G01 X-10.6081 Y5.8645
G01 X-10.5075 Y5.8645
G01 X-10.4948 Y5.8630
G01 X-10.4825 Y5.8592
G01 X-10.4711 Y5.8532
G01 X-10.4610 Y5.8452
G01 X-10.4525 Y5.8356
G01 X-10.4463 Y5.8252
G01 X-10.4418 Y5.8132
G01 X-10.4395 Y5.8006
G01 X-10.4393 Y5.1065
G01 X-10.4384 Y5.0976
G01 X-10.4361 Y5.0899
G01 X-10.4312 Y5.0812
G01 X-10.4226 Y5.0726
G01 X-10.4120 Y5.0670
G01 X-10.4002 Y5.0646
G01 X-10.1769 Y5.0645
G01 X-10.1657 Y5.0659
G01 X-10.1561 Y5.0697
G01 X-10.1486 Y5.0750
G01 X-9.9943 Y5.2073
G01 X-9.9895 Y5.2120
G01 X-9.9850 Y5.2183
G01 X-9.9804 Y5.2299
G01 X-9.9142 Y5.4948
G01 X-9.9128 Y5.5056
G01 X-9.9142 Y5.5164
G01 X-9.9804 Y5.7814
G01 X-9.9842 Y5.7916
G01 X-9.9914 Y5.8013
G01 X-10.0000 Y5.8079
G01 X-10.2207 Y5.9404
G01 X-10.2326 Y5.9454
G01 X-10.2435 Y5.9467
G01 X-10.6196 Y5.9467
G00 Z2.0000
G00 X-10.9285 Y6.3623
G01 F70.00
G01 Z-0.0600
G01 F120.00
G01 X-10.0442 Y7.0254
G01 X-10.0347 Y7.0312
G01 X-10.0244 Y7.0355
G01 X-10.0136 Y7.0380
G01 X-10.0025 Y7.0389
G01 X-9.9905 Y7.0377
G01 X-9.9781 Y7.0343
G01 X-9.9673 Y7.0291
G01 X-9.9576 Y7.0222
G01 X-9.2014 Y6.3624
G01 X-9.1910 Y6.3564
G01 X-9.1793 Y6.3537
G01 X-9.1712 Y6.3538
G01 X-9.1653 Y6.3550
G01 X-9.1542 Y6.3598
G01 X-9.1464 Y6.3661
G01 X-9.1415 Y6.3724
G01 X-9.1371 Y6.3815
G01 X-9.1353 Y6.3893
G01 X-9.1352 Y6.3994
G01 X-9.1376 Y6.4091
G01 X-9.1423 Y6.4180
G01 X-9.1475 Y6.4242
G01 X-10.1487 Y7.2980
G01 X-10.1590 Y7.3094
G01 X-10.1662 Y7.3221
G01 X-10.1706 Y7.3359
G01 X-10.1720 Y7.3513
G01 X-10.1708 Y7.3632
G01 X-10.1673 Y7.3755
G01 X-10.1620 Y7.3863
G01 X-10.1544 Y7.3966
G01 X-10.1457 Y7.4049
G01 X-10.1350 Y7.4119
G01 X-10.1231 Y7.4169
G01 X-10.1106 Y7.4196
G01 X-10.1020 Y7.4201
G01 X-9.1740 Y7.4202
G01 X-9.1641 Y7.4219
G01 X-9.1549 Y7.4260
G01 X-9.1456 Y7.4336
G01 X-9.1398 Y7.4419
G01 X-9.1358 Y7.4532
G01 X-9.1350 Y7.4632
G01 X-9.1367 Y7.4731
G01 X-9.1408 Y7.4823
G01 X-9.1470 Y7.4902
G01 X-9.1567 Y7.4974
G01 X-9.1660 Y7.5010
G01 X-9.1769 Y7.5023
G01 X-10.9529 Y7.5023
G01 X-10.9638 Y7.5010
G01 X-10.9749 Y7.4964
G01 X-10.9842 Y7.4888
G01 X-10.9890 Y7.4823
G01 X-10.9917 Y7.4769
G01 X-10.9946 Y7.4652
G01 X-10.9940 Y7.4532
G01 X-10.9917 Y7.4455
G01 X-10.9890 Y7.4401
G01 X-10.9814 Y7.4308
G01 X-10.9713 Y7.4241
G01 X-10.9598 Y7.4206
G01 X-10.4390 Y7.4201
G01 X-10.4252 Y7.4186
G01 X-10.4121 Y7.4144
G01 X-10.4029 Y7.4096
G01 X-10.3945 Y7.4035
G01 X-10.1255 Y7.1686
G01 X-10.1171 Y7.1588
G01 X-10.1102 Y7.1469
G01 X-10.1058 Y7.1339
G01 X-10.1041 Y7.1212
G01 X-10.1053 Y7.1049
G01 X-10.1074 Y7.0966
G01 X-10.1106 Y7.0886
G01 X-10.1191 Y7.0747
G01 X-10.1307 Y7.0632
G01 X-10.9815 Y6.4249
G01 X-10.9869 Y6.4189
G01 X-10.9910 Y6.4119
G01 X-10.9937 Y6.4044
G01 X-10.9948 Y6.3964
G01 X-10.9944 Y6.3884
G01 X-10.9924 Y6.3806
G01 X-10.9889 Y6.3733
G01 X-10.9854 Y6.3684
G01 X-10.9797 Y6.3627
G01 X-10.9730 Y6.3583
G01 X-10.9655 Y6.3553
G01 X-10.9576 Y6.3537
G01 X-10.9496 Y6.3538
G01 X-10.9417 Y6.3554
G01 X-10.9343 Y6.3585
G01 X-10.9285 Y6.3623
G00 Z2.0000
G00 X-10.0346 Y7.1052
G01 F70.00
G01 Z-0.0600
G01 F120.00
G01 X-10.0344 Y7.1053
G01 X-10.0346 Y7.1055
G01 X-10.0346 Y7.1053
G01 X-10.0346 Y7.1052
G00 Z2.0000
G00 X-10.2415 Y7.3628
G01 F70.00
G01 Z-0.0600
G01 F120.00
G01 X-10.2385 Y7.3813
G01 X-10.2331 Y7.3993
G01 X-10.2253 Y7.4165
G01 X-10.2154 Y7.4323
G01 X-10.3210 Y7.4323
G01 X-10.2415 Y7.3628
G00 Z2.0000
G00 X-12.6896 Y6.6242
G01 F70.00
G01 Z-0.0600
G01 F120.00
G01 X-12.6703 Y6.6167
G01 X-12.6111 Y6.5904
G01 X-12.5540 Y6.5616
G01 X-12.4969 Y6.5293
G01 X-12.4428 Y6.4950
G01 X-12.3899 Y6.4577
G01 X-12.3388 Y6.4179
G01 X-12.2891 Y6.3750
G01 X-12.2428 Y6.3309
G01 X-12.1970 Y6.2827
G01 X-12.1558 Y6.2349
G01 X-12.1170 Y6.1852
G01 X-12.0791 Y6.1316
G01 X-12.0440 Y6.0761
G01 X-12.0117 Y6.0190
G01 X-11.9826 Y5.9611
G01 X-11.9570 Y5.9034
G01 X-11.9495 Y5.8842
G01 X-11.8853 Y5.8842
G01 X-11.9013 Y5.9256
G01 X-11.9287 Y5.9875
G01 X-11.9592 Y6.0480
G01 X-11.9926 Y6.1070
G01 X-12.0288 Y6.1642
G01 X-12.0678 Y6.2196
G01 X-12.1095 Y6.2729
G01 X-12.1537 Y6.3242
G01 X-12.2004 Y6.3733
G01 X-12.2495 Y6.4200
G01 X-12.3008 Y6.4642
G01 X-12.3541 Y6.5059
G01 X-12.4095 Y6.5449
G01 X-12.4667 Y6.5811
G01 X-12.5257 Y6.6145
G01 X-12.5862 Y6.6450
G01 X-12.6481 Y6.6724
G01 X-12.6896 Y6.6884
G01 X-12.6896 Y6.6242
G00 Z2.0000
G00 X-14.4671 Y5.8842
G01 F70.00
G01 Z-0.0600
G01 F120.00
G01 X-14.4029 Y5.8842
G01 X-14.3954 Y5.9034
G01 X-14.3698 Y5.9611
G01 X-14.3407 Y6.0190
G01 X-14.3084 Y6.0761
G01 X-14.2742 Y6.1301
G01 X-14.2364 Y6.1838
G01 X-14.1966 Y6.2349
G01 X-14.1543 Y6.2840
G01 X-14.1096 Y6.3309
G01 X-14.0627 Y6.3756
G01 X-14.0136 Y6.4179
G01 X-13.9625 Y6.4577
G01 X-13.9088 Y6.4955
G01 X-13.8548 Y6.5297
G01 X-13.7977 Y6.5620
G01 X-13.7398 Y6.5911
G01 X-13.6821 Y6.6167
G01 X-13.6629 Y6.6242
G01 X-13.6629 Y6.6884
G01 X-13.7043 Y6.6724
G01 X-13.7662 Y6.6450
G01 X-13.8267 Y6.6145
G01 X-13.8857 Y6.5811
G01 X-13.9429 Y6.5449
G01 X-13.9983 Y6.5059
G01 X-14.0516 Y6.4642
G01 X-14.1029 Y6.4200
G01 X-14.1520 Y6.3733
G01 X-14.1987 Y6.3242
G01 X-14.2429 Y6.2729
G01 X-14.2846 Y6.2196
G01 X-14.3236 Y6.1642
G01 X-14.3598 Y6.1070
G01 X-14.3932 Y6.0480
G01 X-14.4237 Y5.9875
G01 X-14.4511 Y5.9256
G01 X-14.4671 Y5.8842
G00 Z2.0000
G00 X-14.4671 Y4.9108
G01 F70.00
G01 Z-0.0600
G01 F120.00
G01 X-14.4511 Y4.8694
G01 X-14.4237 Y4.8075
G01 X-14.3932 Y4.7470
G01 X-14.3598 Y4.6880
G01 X-14.3236 Y4.6308
G01 X-14.2846 Y4.5754
G01 X-14.2429 Y4.5221
G01 X-14.1987 Y4.4708
G01 X-14.1520 Y4.4217
G01 X-14.1029 Y4.3750
G01 X-14.0516 Y4.3308
G01 X-13.9983 Y4.2891
G01 X-13.9429 Y4.2501
G01 X-13.8857 Y4.2139
G01 X-13.8267 Y4.1805
G01 X-13.7662 Y4.1500
G01 X-13.7043 Y4.1226
G01 X-13.6629 Y4.1066
G01 X-13.6629 Y4.1708
G01 X-13.6821 Y4.1783
G01 X-13.7398 Y4.2039
G01 X-13.7977 Y4.2330
G01 X-13.8548 Y4.2653
G01 X-13.9088 Y4.2995
G01 X-13.9625 Y4.3373
G01 X-14.0136 Y4.3771
G01 X-14.0627 Y4.4194
G01 X-14.1096 Y4.4641
G01 X-14.1543 Y4.5110
G01 X-14.1966 Y4.5601
G01 X-14.2364 Y4.6112
G01 X-14.2742 Y4.6649
G01 X-14.3084 Y4.7189
G01 X-14.3407 Y4.7760
G01 X-14.3698 Y4.8339
G01 X-14.3954 Y4.8916
G01 X-14.4029 Y4.9108
G01 X-14.4671 Y4.9108
G00 Z2.0000
G00 X-12.6896 Y4.1066
G01 F70.00
G01 Z-0.0600
G01 F120.00
G01 X-12.6481 Y4.1226
G01 X-12.5862 Y4.1500
G01 X-12.5257 Y4.1805
G01 X-12.4667 Y4.2139
G01 X-12.4095 Y4.2501
G01 X-12.3541 Y4.2891
G01 X-12.3008 Y4.3308
G01 X-12.2495 Y4.3750
G01 X-12.2004 Y4.4217
G01 X-12.1537 Y4.4708
G01 X-12.1095 Y4.5221
G01 X-12.0678 Y4.5754
G01 X-12.0288 Y4.6308
G01 X-11.9926 Y4.6880
G01 X-11.9592 Y4.7470
G01 X-11.9287 Y4.8075
G01 X-11.9013 Y4.8694
G01 X-11.8853 Y4.9108
G01 X-11.9495 Y4.9108
G01 X-11.9570 Y4.8916
G01 X-11.9826 Y4.8339
G01 X-12.0117 Y4.7760
G01 X-12.0440 Y4.7189
G01 X-12.0782 Y4.6649
G01 X-12.1160 Y4.6112
G01 X-12.1558 Y4.5601
G01 X-12.1981 Y4.5110
G01 X-12.2428 Y4.4641
G01 X-12.2897 Y4.4194
G01 X-12.3388 Y4.3771
G01 X-12.3899 Y4.3373
G01 X-12.4436 Y4.2995
G01 X-12.4976 Y4.2653
G01 X-12.5547 Y4.2330
G01 X-12.6126 Y4.2039
G01 X-12.6703 Y4.1783
G01 X-12.6896 Y4.1708
G01 X-12.6896 Y4.1066
G00 Z2.0000
G00 X-12.6896 Y3.1317
G01 F70.00
G01 Z-0.0600
G01 F120.00
G01 X-12.6703 Y3.1242
G01 X-12.6111 Y3.0979
G01 X-12.5540 Y3.0691
G01 X-12.4969 Y3.0368
G01 X-12.4428 Y3.0025
G01 X-12.3899 Y2.9652
G01 X-12.3388 Y2.9254
G01 X-12.2891 Y2.8825
G01 X-12.2428 Y2.8384
G01 X-12.1970 Y2.7902
G01 X-12.1558 Y2.7424
G01 X-12.1170 Y2.6927
G01 X-12.0791 Y2.6391
G01 X-12.0440 Y2.5836
G01 X-12.0117 Y2.5265
G01 X-11.9826 Y2.4686
G01 X-11.9570 Y2.4109
G01 X-11.9495 Y2.3917
G01 X-11.8853 Y2.3917
G01 X-11.9013 Y2.4331
G01 X-11.9287 Y2.4950
G01 X-11.9592 Y2.5555
G01 X-11.9926 Y2.6145
G01 X-12.0288 Y2.6717
G01 X-12.0678 Y2.7271
G01 X-12.1095 Y2.7804
G01 X-12.1537 Y2.8317
G01 X-12.2004 Y2.8808
G01 X-12.2495 Y2.9275
G01 X-12.3008 Y2.9717
G01 X-12.3541 Y3.0134
G01 X-12.4095 Y3.0524
G01 X-12.4667 Y3.0886
G01 X-12.5257 Y3.1220
G01 X-12.5862 Y3.1525
G01 X-12.6481 Y3.1799
G01 X-12.6896 Y3.1959
G01 X-12.6896 Y3.1317
G00 Z2.0000
G00 X-11.3016 Y4.1784
G01 F70.00
G01 Z-0.0600
G01 F120.00
G01 X-10.9693 Y4.0451
G01 X-9.9713 Y3.5130
G01 X-9.9637 Y3.5103
G01 X-9.9558 Y3.5091
G01 X-9.9477 Y3.5095
G01 X-9.9399 Y3.5115
G01 X-9.9327 Y3.5149
G01 X-9.9262 Y3.5197
G01 X-9.9208 Y3.5257
G01 X-9.9167 Y3.5326
G01 X-9.9140 Y3.5402
G01 X-9.9128 Y3.5481
G01 X-9.9130 Y3.5542
G01 X-9.9145 Y3.5620
G01 X-9.9176 Y3.5695
G01 X-9.9221 Y3.5762
G01 X-9.9278 Y3.5818
G01 X-9.9327 Y3.5853
G01 X-10.7530 Y4.0229
G01 X-10.7602 Y4.0277
G01 X-10.7673 Y4.0339
G01 X-10.7735 Y4.0410
G01 X-10.7783 Y4.0481
G01 X-10.7825 Y4.0566
G01 X-10.7853 Y4.0647
G01 X-10.7871 Y4.0731
G01 X-10.7878 Y4.0825
G01 X-10.7873 Y4.0920
G01 X-10.7857 Y4.1004
G01 X-10.7828 Y4.1094
G01 X-10.7787 Y4.1179
G01 X-10.7735 Y4.1258
G01 X-10.7679 Y4.1323
G01 X-10.7608 Y4.1386
G01 X-10.7530 Y4.1439
G01 X-9.9310 Y4.5827
G01 X-9.9234 Y4.5892
G01 X-9.9167 Y4.5992
G01 X-9.9136 Y4.6088
G01 X-9.9128 Y4.6188
G01 X-9.9145 Y4.6287
G01 X-9.9197 Y4.6396
G01 X-9.9277 Y4.6485
G01 X-9.9362 Y4.6539
G01 X-9.9458 Y4.6570
G01 X-9.9558 Y4.6578
G01 X-9.9657 Y4.6561
G01 X-9.9739 Y4.6526
G01 X-10.9275 Y4.1439
G01 X-10.9402 Y4.1387
G01 X-10.9545 Y4.1360
G01 X-10.9699 Y4.1363
G01 X-10.9857 Y4.1404
G01 X-11.2466 Y4.2448
G01 X-11.2566 Y4.2499
G01 X-11.2650 Y4.2561
G01 X-11.2730 Y4.2640
G01 X-11.3415 Y4.3462
G01 X-11.3473 Y4.3545
G01 X-11.3522 Y4.3645
G01 X-11.3556 Y4.3759
G01 X-11.3571 Y4.3878
G01 X-11.3572 Y4.4854
G01 X-11.3584 Y4.4934
G01 X-11.3620 Y4.5027
G01 X-11.3665 Y4.5094
G01 X-11.3706 Y4.5138
G01 X-11.3771 Y4.5186
G01 X-11.3844 Y4.5220
G01 X-11.3902 Y4.5236
G01 X-11.3982 Y4.5244
G01 X-11.4062 Y4.5236
G01 X-11.4120 Y4.5220
G01 X-11.4210 Y4.5175
G01 X-11.4299 Y4.5094
G01 X-11.4361 Y4.4991
G01 X-11.4388 Y4.4894
G01 X-11.4393 Y4.3510
G01 X-11.4388 Y4.3440
G01 X-11.4374 Y4.3381
G01 X-11.4343 Y4.3306
G01 X-11.4292 Y4.3231
G01 X-11.3192 Y4.1912
G01 X-11.3112 Y4.1836
G01 X-11.3016 Y4.1784
G00 Z2.0000
G00 X-10.8923 Y4.0834
G01 F70.00
G01 Z-0.0600
G01 F120.00
G01 X-10.8565 Y4.0643
G01 X-10.8578 Y4.0834
G01 X-10.8565 Y4.1025
G01 X-10.8923 Y4.0834
G00 Z2.0000
G00 X-12.6896 Y0.6141
G01 F70.00
G01 Z-0.0600
G01 F120.00
G01 X-12.6481 Y0.6301
G01 X-12.5862 Y0.6575
G01 X-12.5257 Y0.6880
G01 X-12.4667 Y0.7214
G01 X-12.4095 Y0.7576
G01 X-12.3541 Y0.7966
G01 X-12.3008 Y0.8383
G01 X-12.2495 Y0.8825
G01 X-12.2004 Y0.9292
G01 X-12.1537 Y0.9783
G01 X-12.1095 Y1.0296
G01 X-12.0678 Y1.0829
G01 X-12.0288 Y1.1383
G01 X-11.9926 Y1.1955
G01 X-11.9592 Y1.2545
G01 X-11.9287 Y1.3150
G01 X-11.9013 Y1.3769
G01 X-11.8853 Y1.4183
G01 X-11.9495 Y1.4183
G01 X-11.9570 Y1.3991
G01 X-11.9826 Y1.3414
G01 X-12.0117 Y1.2835
G01 X-12.0440 Y1.2264
G01 X-12.0782 Y1.1724
G01 X-12.1160 Y1.1187
G01 X-12.1558 Y1.0676
G01 X-12.1981 Y1.0185
G01 X-12.2428 Y0.9716
G01 X-12.2897 Y0.9269
G01 X-12.3388 Y0.8846
G01 X-12.3899 Y0.8448
G01 X-12.4436 Y0.8070
G01 X-12.4976 Y0.7728
G01 X-12.5547 Y0.7405
G01 X-12.6126 Y0.7114
G01 X-12.6703 Y0.6858
G01 X-12.6896 Y0.6783
G01 X-12.6896 Y0.6141
G00 Z2.0000
G00 X-14.4671 Y1.4183
G01 F70.00
G01 Z-0.0600
G01 F120.00
G01 X-14.4511 Y1.3769
G01 X-14.4237 Y1.3150
G01 X-14.3932 Y1.2545
G01 X-14.3598 Y1.1955
G01 X-14.3236 Y1.1383
G01 X-14.2846 Y1.0829
G01 X-14.2429 Y1.0296
G01 X-14.1987 Y0.9783
G01 X-14.1520 Y0.9292
G01 X-14.1029 Y0.8825
G01 X-14.0516 Y0.8383
G01 X-13.9983 Y0.7966
G01 X-13.9429 Y0.7576
G01 X-13.8857 Y0.7214
G01 X-13.8267 Y0.6880
G01 X-13.7662 Y0.6575
G01 X-13.7043 Y0.6301
G01 X-13.6629 Y0.6141
G01 X-13.6629 Y0.6783
G01 X-13.6821 Y0.6858
G01 X-13.7398 Y0.7114
G01 X-13.7977 Y0.7405
G01 X-13.8548 Y0.7728
G01 X-13.9088 Y0.8070
G01 X-13.9625 Y0.8448
G01 X-14.0136 Y0.8846
G01 X-14.0627 Y0.9269
G01 X-14.1096 Y0.9716
G01 X-14.1543 Y1.0185
G01 X-14.1966 Y1.0676
G01 X-14.2364 Y1.1187
G01 X-14.2742 Y1.1724
G01 X-14.3084 Y1.2264
G01 X-14.3407 Y1.2835
G01 X-14.3698 Y1.3414
G01 X-14.3954 Y1.3991
G01 X-14.4029 Y1.4183
G01 X-14.4671 Y1.4183
G00 Z2.0000
G00 X-14.4671 Y2.3917
G01 F70.00
G01 Z-0.0600
G01 F120.00
G01 X-14.4029 Y2.3917
G01 X-14.3954 Y2.4109
G01 X-14.3698 Y2.4686
G01 X-14.3407 Y2.5265
G01 X-14.3084 Y2.5836
G01 X-14.2742 Y2.6376
G01 X-14.2364 Y2.6913
G01 X-14.1966 Y2.7424
G01 X-14.1543 Y2.7915
G01 X-14.1096 Y2.8384
G01 X-14.0627 Y2.8831
G01 X-14.0136 Y2.9254
G01 X-13.9625 Y2.9652
G01 X-13.9088 Y3.0030
G01 X-13.8548 Y3.0372
G01 X-13.7977 Y3.0695
G01 X-13.7398 Y3.0986
G01 X-13.6821 Y3.1242
G01 X-13.6629 Y3.1317
G01 X-13.6629 Y3.1959
G01 X-13.7043 Y3.1799
G01 X-13.7662 Y3.1525
G01 X-13.8267 Y3.1220
G01 X-13.8857 Y3.0886
G01 X-13.9429 Y3.0524
G01 X-13.9983 Y3.0134
G01 X-14.0516 Y2.9717
G01 X-14.1029 Y2.9275
G01 X-14.1520 Y2.8808
G01 X-14.1987 Y2.8317
G01 X-14.2429 Y2.7804
G01 X-14.2846 Y2.7271
G01 X-14.3236 Y2.6717
G01 X-14.3598 Y2.6145
G01 X-14.3932 Y2.5555
G01 X-14.4237 Y2.4950
G01 X-14.4511 Y2.4331
G01 X-14.4671 Y2.3917
G00 Z2.0000
G00 X-6.9746 Y6.6242
G01 F70.00
G01 Z-0.0600
G01 F120.00
G01 X-6.9553 Y6.6167
G01 X-6.8961 Y6.5904
G01 X-6.8390 Y6.5616
G01 X-6.7819 Y6.5293
G01 X-6.7278 Y6.4950
G01 X-6.6749 Y6.4577
G01 X-6.6238 Y6.4179
G01 X-6.5741 Y6.3750
G01 X-6.5278 Y6.3309
G01 X-6.4820 Y6.2827
G01 X-6.4408 Y6.2349
G01 X-6.4020 Y6.1852
G01 X-6.3641 Y6.1316
G01 X-6.3290 Y6.0761
G01 X-6.2967 Y6.0190
G01 X-6.2676 Y5.9611
G01 X-6.2420 Y5.9034
G01 X-6.2345 Y5.8842
G01 X-6.1703 Y5.8842
G01 X-6.1863 Y5.9256
G01 X-6.2137 Y5.9875
G01 X-6.2442 Y6.0480
G01 X-6.2776 Y6.1070
G01 X-6.3138 Y6.1642
G01 X-6.3528 Y6.2196
G01 X-6.3945 Y6.2729
G01 X-6.4387 Y6.3242
G01 X-6.4854 Y6.3733
G01 X-6.5345 Y6.4200
G01 X-6.5858 Y6.4642
G01 X-6.6391 Y6.5059
G01 X-6.6945 Y6.5449
G01 X-6.7517 Y6.5811
G01 X-6.8107 Y6.6145
G01 X-6.8712 Y6.6450
G01 X-6.9331 Y6.6724
G01 X-6.9746 Y6.6884
G01 X-6.9746 Y6.6242
G00 Z2.0000
G00 X-3.7124 Y10.0147
G01 F70.00
G01 Z-0.0600
G01 F120.00
G01 X-3.3635 Y9.6658
G01 X-3.3211 Y9.7082
G01 X-3.5781 Y9.9652
G01 X-3.5838 Y9.9716
G01 X-3.5899 Y9.9809
G01 X-3.5942 Y9.9903
G01 X-3.5971 Y10.0002
G01 X-3.5985 Y10.0104
G01 X-3.5983 Y10.0207
G01 X-3.5965 Y10.0317
G01 X-3.5933 Y10.0415
G01 X-3.5886 Y10.0507
G01 X-3.5838 Y10.0578
G01 X-3.5781 Y10.0642
G01 X-2.4467 Y11.1956
G01 X-2.4368 Y11.2038
G01 X-2.4264 Y11.2097
G01 X-2.4142 Y11.2140
G01 X-2.4023 Y11.2159
G01 X-2.3903 Y11.2158
G01 X-2.3777 Y11.2133
G01 X-2.3665 Y11.2090
G01 X-2.3562 Y11.2028
G01 X-2.3477 Y11.1956
G01 X-2.0907 Y10.9386
G01 X-2.0483 Y10.9810
G01 X-2.3972 Y11.3299
G01 X-3.7124 Y10.0147
G00 Z2.0000
G00 X-2.9582 Y9.2605
G01 F70.00
G01 Z-0.0600
G01 F120.00
G01 X-2.6093 Y8.9116
G01 X-2.1544 Y9.3665
G01 X-2.1968 Y9.4089
G01 X-2.5610 Y9.0447
G01 X-2.5690 Y9.0382
G01 X-2.5786 Y9.0325
G01 X-2.5890 Y9.0284
G01 X-2.5999 Y9.0260
G01 X-2.6153 Y9.0257
G01 X-2.6296 Y9.0284
G01 X-2.6438 Y9.0345
G01 X-2.6557 Y9.0430
G01 X-2.9158 Y9.3029
G01 X-2.9582 Y9.2605
G00 Z2.0000
G00 X-1.7491 Y9.7718
G01 F70.00
G01 Z-0.0600
G01 F120.00
G01 X-1.2941 Y10.2268
G01 X-1.6430 Y10.5757
G01 X-1.6854 Y10.5333
G01 X-1.4255 Y10.2732
G01 X-1.4166 Y10.2606
G01 X-1.4109 Y10.2471
G01 X-1.4081 Y10.2319
G01 X-1.4085 Y10.2174
G01 X-1.4109 Y10.2065
G01 X-1.4146 Y10.1969
G01 X-1.4202 Y10.1872
G01 X-1.4272 Y10.1785
G01 X-1.7915 Y9.8143
G01 X-1.7491 Y9.7718
G00 Z2.0000
G00 X-17.4616 Y15.5622
G01 F70.00
G01 Z-0.0600
G01 F120.00
G01 X-17.4595 Y15.5469
G01 X-17.4610 Y15.5307
G01 X-17.5213 Y15.2893
G01 X-17.5227 Y15.2805
G01 X-17.5223 Y15.2725
G01 X-17.5203 Y15.2647
G01 X-17.5169 Y15.2574
G01 X-17.5121 Y15.2509
G01 X-17.5061 Y15.2455
G01 X-17.4992 Y15.2414
G01 X-17.4917 Y15.2387
G01 X-17.4837 Y15.2375
G01 X-17.4757 Y15.2379
G01 X-17.4698 Y15.2392
G01 X-17.4589 Y15.2444
G01 X-17.4541 Y15.2481
G01 X-17.4487 Y15.2541
G01 X-17.4431 Y15.2647
G01 X-17.3754 Y15.5344
G01 X-17.3740 Y15.5432
G01 X-17.3754 Y15.5560
G01 X-17.4417 Y15.8209
G01 X-17.4455 Y15.8311
G01 X-17.4513 Y15.8393
G01 X-17.4613 Y15.8474
G01 X-17.6820 Y15.9800
G01 X-17.6882 Y15.9831
G01 X-17.6959 Y15.9854
G01 X-17.7048 Y15.9863
G01 X-18.1474 Y15.9863
G01 X-18.1602 Y15.9845
G01 X-18.1702 Y15.9800
G01 X-18.3910 Y15.8474
G01 X-18.3980 Y15.8423
G01 X-18.4045 Y15.8349
G01 X-18.4090 Y15.8262
G01 X-18.4112 Y15.8177
G01 X-18.4554 Y15.5528
G01 X-18.4560 Y15.5442
G01 X-18.4097 Y15.2659
G01 X-18.4064 Y15.2585
G01 X-18.4019 Y15.2519
G01 X-18.3961 Y15.2463
G01 X-18.3893 Y15.2420
G01 X-18.3818 Y15.2390
G01 X-18.3739 Y15.2376
G01 X-18.3659 Y15.2377
G01 X-18.3580 Y15.2394
G01 X-18.3506 Y15.2427
G01 X-18.3456 Y15.2460
G01 X-18.3411 Y15.2500
G01 X-18.3361 Y15.2563
G01 X-18.3311 Y15.2673
G01 X-18.3299 Y15.2732
G01 X-18.3297 Y15.2812
G01 X-18.3716 Y15.5345
G01 X-18.3724 Y15.5482
G01 X-18.3715 Y15.5567
G01 X-18.3385 Y15.7545
G01 X-18.3353 Y15.7668
G01 X-18.3303 Y15.7777
G01 X-18.3240 Y15.7868
G01 X-18.3164 Y15.7949
G01 X-18.3069 Y15.8021
G01 X-18.1506 Y15.8959
G01 X-18.1354 Y15.9018
G01 X-18.1270 Y15.9035
G01 X-18.1184 Y15.9041
G01 X-17.7330 Y15.9041
G01 X-17.7176 Y15.9020
G01 X-17.7024 Y15.8963
G01 X-17.5408 Y15.7994
G01 X-17.5300 Y15.7909
G01 X-17.5215 Y15.7812
G01 X-17.5150 Y15.7702
G01 X-17.5108 Y15.7589
G01 X-17.4616 Y15.5622
G00 Z2.0000
G00 X-17.4159 Y16.4751
G01 F70.00
G01 Z-0.0600
G01 F120.00
G01 X-18.4170 Y16.4750
G01 X-18.4250 Y16.4738
G01 X-18.4325 Y16.4711
G01 X-18.4394 Y16.4670
G01 X-18.4454 Y16.4616
G01 X-18.4502 Y16.4551
G01 X-18.4536 Y16.4478
G01 X-18.4556 Y16.4400
G01 X-18.4560 Y16.4320
G01 X-18.4552 Y16.4260
G01 X-18.4529 Y16.4183
G01 X-18.4491 Y16.4112
G01 X-18.4440 Y16.4050
G01 X-18.4378 Y16.3999
G01 X-18.4307 Y16.3961
G01 X-18.4250 Y16.3942
G01 X-18.4170 Y16.3930
G01 X-17.4130 Y16.3930
G01 X-17.4050 Y16.3942
G01 X-17.3975 Y16.3969
G01 X-17.3906 Y16.4010
G01 X-17.3846 Y16.4064
G01 X-17.3798 Y16.4129
G01 X-17.3764 Y16.4202
G01 X-17.3744 Y16.4280
G01 X-17.3740 Y16.4360
G01 X-17.3752 Y16.4440
G01 X-17.3779 Y16.4515
G01 X-17.3820 Y16.4584
G01 X-17.3874 Y16.4644
G01 X-17.3939 Y16.4692
G01 X-17.4012 Y16.4726
G01 X-17.4090 Y16.4746
G01 X-17.4159 Y16.4751
G00 Z2.0000
G00 X-16.8986 Y17.0460
G01 F70.00
G01 Z-0.0600
G01 F120.00
G01 X-16.8981 Y17.0339
G01 X-16.8986 Y17.0219
G01 X-16.9002 Y17.0100
G01 X-16.9032 Y16.9966
G01 X-16.9069 Y16.9851
G01 X-16.9123 Y16.9725
G01 X-16.9181 Y16.9620
G01 X-16.9247 Y16.9518
G01 X-16.7417 Y16.9518
G01 X-16.8986 Y17.0460
G00 Z2.0000
G00 X-17.6920 Y17.5896
G01 F70.00
G01 Z-0.0600
G01 F120.00
G01 X-17.6719 Y17.5775
G01 X-17.6724 Y17.5896
G01 X-17.6719 Y17.6017
G01 X-17.6920 Y17.5896
G00 Z2.0000
G00 X-16.8987 Y18.1331
G01 F70.00
G01 Z-0.0600
G01 F120.00
G01 X-16.7417 Y18.2273
G01 X-16.9248 Y18.2273
G01 X-16.9181 Y18.2171
G01 X-16.9124 Y18.2066
G01 X-16.9070 Y18.1939
G01 X-16.9033 Y18.1825
G01 X-16.9005 Y18.1708
G01 X-16.8987 Y18.1572
G01 X-16.8982 Y18.1452
G01 X-16.8987 Y18.1331
G00 Z2.0000
G00 X-16.6381 Y18.2973
G01 F70.00
G01 Z-0.0600
G01 F120.00
G01 X-18.4141 Y18.2973
G01 X-18.4269 Y18.2955
G01 X-18.4343 Y18.2924
G01 X-18.4394 Y18.2892
G01 X-18.4480 Y18.2806
G01 X-18.4512 Y18.2755
G01 X-18.4543 Y18.2681
G01 X-18.4560 Y18.2562
G01 X-18.4543 Y18.2443
G01 X-18.4512 Y18.2369
G01 X-18.4480 Y18.2318
G01 X-18.4394 Y18.2232
G01 X-18.4288 Y18.2176
G01 X-18.4170 Y18.2152
G01 X-17.0373 Y18.2151
G01 X-17.0254 Y18.2140
G01 X-17.0130 Y18.2105
G01 X-17.0022 Y18.2052
G01 X-16.9925 Y18.1982
G01 X-16.9820 Y18.1869
G01 X-16.9742 Y18.1735
G01 X-16.9694 Y18.1580
G01 X-16.9682 Y18.1426
G01 X-16.9705 Y18.1273
G01 X-16.9760 Y18.1129
G01 X-16.9846 Y18.1001
G01 X-16.9958 Y18.0895
G01 X-17.7687 Y17.6252
G01 X-17.7773 Y17.6186
G01 X-17.7835 Y17.6107
G01 X-17.7876 Y17.6015
G01 X-17.7893 Y17.5896
G01 X-17.7876 Y17.5777
G01 X-17.7835 Y17.5685
G01 X-17.7773 Y17.5606
G01 X-17.7687 Y17.5540
G01 X-16.9992 Y17.0921
G01 X-16.9924 Y17.0869
G01 X-16.9862 Y17.0809
G01 X-16.9809 Y17.0742
G01 X-16.9764 Y17.0669
G01 X-16.9728 Y17.0591
G01 X-16.9702 Y17.0509
G01 X-16.9686 Y17.0425
G01 X-16.9681 Y17.0339
G01 X-16.9695 Y17.0203
G01 X-16.9731 Y17.0079
G01 X-16.9790 Y16.9965
G01 X-16.9868 Y16.9863
G01 X-16.9964 Y16.9777
G01 X-17.0074 Y16.9710
G01 X-17.0195 Y16.9665
G01 X-17.0321 Y16.9642
G01 X-18.4170 Y16.9639
G01 X-18.4269 Y16.9622
G01 X-18.4378 Y16.9570
G01 X-18.4467 Y16.9489
G01 X-18.4521 Y16.9404
G01 X-18.4556 Y16.9289
G01 X-18.4558 Y16.9189
G01 X-18.4529 Y16.9072
G01 X-18.4480 Y16.8985
G01 X-18.4410 Y16.8912
G01 X-18.4325 Y16.8858
G01 X-18.4230 Y16.8827
G01 X-18.4141 Y16.8818
G01 X-16.6381 Y16.8818
G01 X-16.6253 Y16.8836
G01 X-16.6179 Y16.8867
G01 X-16.6128 Y16.8899
G01 X-16.6055 Y16.8969
G01 X-16.6001 Y16.9053
G01 X-16.5970 Y16.9149
G01 X-16.5962 Y16.9229
G01 X-16.5974 Y16.9329
G01 X-16.6010 Y16.9422
G01 X-16.6055 Y16.9489
G01 X-16.6127 Y16.9558
G01 X-17.5699 Y17.5305
G01 X-17.5775 Y17.5360
G01 X-17.5837 Y17.5420
G01 X-17.5892 Y17.5486
G01 X-17.5938 Y17.5559
G01 X-17.5974 Y17.5636
G01 X-17.6001 Y17.5718
G01 X-17.6018 Y17.5802
G01 X-17.6024 Y17.5887
G01 X-17.6020 Y17.5973
G01 X-17.6003 Y17.6066
G01 X-17.5978 Y17.6148
G01 X-17.5938 Y17.6233
G01 X-17.5887 Y17.6313
G01 X-17.5832 Y17.6378
G01 X-17.5769 Y17.6437
G01 X-17.5699 Y17.6487
G01 X-16.6127 Y18.2233
G01 X-16.6082 Y18.2272
G01 X-16.6031 Y18.2334
G01 X-16.5979 Y18.2443
G01 X-16.5962 Y18.2562
G01 X-16.5966 Y18.2622
G01 X-16.5986 Y18.2700
G01 X-16.6042 Y18.2806
G01 X-16.6096 Y18.2866
G01 X-16.6144 Y18.2903
G01 X-16.6253 Y18.2955
G01 X-16.6381 Y18.2973
G00 Z2.0000
G00 X-18.1001 Y21.9758
G01 F70.00
G01 Z-0.0600
G01 F120.00
G01 X-18.1405 Y21.9625
G01 X-18.1895 Y21.9436
G01 X-18.2375 Y21.9223
G01 X-18.2844 Y21.8987
G01 X-18.3301 Y21.8728
G01 X-18.3745 Y21.8447
G01 X-18.4174 Y21.8144
G01 X-18.4588 Y21.7821
G01 X-18.4986 Y21.7478
G01 X-18.5366 Y21.7116
G01 X-18.5728 Y21.6736
G01 X-18.6071 Y21.6338
G01 X-18.6394 Y21.5924
G01 X-18.6697 Y21.5495
G01 X-18.6978 Y21.5051
G01 X-18.7237 Y21.4594
G01 X-18.7473 Y21.4125
G01 X-18.7686 Y21.3645
G01 X-18.7875 Y21.3155
G01 X-18.8039 Y21.2656
G01 X-18.8179 Y21.2150
G01 X-18.8294 Y21.1637
G01 X-18.8384 Y21.1120
G01 X-18.8448 Y21.0599
G01 X-18.8487 Y21.0075
G01 X-18.8500 Y20.9550
G01 X-18.8487 Y20.9025
G01 X-18.8448 Y20.8501
G01 X-18.8384 Y20.7980
G01 X-18.8294 Y20.7463
G01 X-18.8179 Y20.6950
G01 X-18.8039 Y20.6444
G01 X-18.7875 Y20.5945
G01 X-18.7686 Y20.5455
G01 X-18.7473 Y20.4975
G01 X-18.7237 Y20.4506
G01 X-18.6978 Y20.4049
G01 X-18.6697 Y20.3605
G01 X-18.6394 Y20.3176
G01 X-18.6071 Y20.2762
G01 X-18.5728 Y20.2364
G01 X-18.5366 Y20.1984
G01 X-18.4986 Y20.1622
G01 X-18.4588 Y20.1279
G01 X-18.4174 Y20.0956
G01 X-18.3745 Y20.0653
G01 X-18.3301 Y20.0372
G01 X-18.2844 Y20.0113
G01 X-18.2375 Y19.9877
G01 X-18.1895 Y19.9664
G01 X-18.1405 Y19.9475
G01 X-18.0906 Y19.9311
G01 X-18.0400 Y19.9171
G01 X-17.9887 Y19.9056
G01 X-17.9370 Y19.8966
G01 X-17.8849 Y19.8902
G01 X-17.8325 Y19.8863
G01 X-17.7800 Y19.8850
G01 X-17.7275 Y19.8863
G01 X-17.6751 Y19.8902
G01 X-17.6230 Y19.8966
G01 X-17.5713 Y19.9056
G01 X-17.5200 Y19.9171
G01 X-17.4694 Y19.9311
G01 X-17.4195 Y19.9475
G01 X-17.3721 Y19.9658
G01 X-17.3210 Y19.9885
G01 X-17.2756 Y20.0113
G01 X-17.2299 Y20.0372
G01 X-17.1855 Y20.0653
G01 X-17.1440 Y20.0946
G01 X-17.0999 Y20.1290
G01 X-17.0614 Y20.1622
G01 X-17.0234 Y20.1984
G01 X-16.9860 Y20.2377
G01 X-16.9529 Y20.2762
G01 X-16.9206 Y20.3176
G01 X-16.8903 Y20.3605
G01 X-16.8631 Y20.4034
G01 X-16.8356 Y20.4521
G01 X-16.8127 Y20.4975
G01 X-16.7914 Y20.5455
G01 X-16.7725 Y20.5945
G01 X-16.7566 Y20.6428
G01 X-16.7417 Y20.6967
G01 X-16.7306 Y20.7463
G01 X-16.7216 Y20.7980
G01 X-16.7152 Y20.8501
G01 X-16.7114 Y20.9008
G01 X-16.7100 Y20.9550
G01 X-16.7113 Y21.0075
G01 X-16.7150 Y21.0582
G01 X-16.7216 Y21.1120
G01 X-16.7306 Y21.1637
G01 X-16.7417 Y21.2133
G01 X-16.7566 Y21.2672
G01 X-16.7725 Y21.3155
G01 X-16.7914 Y21.3645
G01 X-16.8127 Y21.4125
G01 X-16.8356 Y21.4579
G01 X-16.8631 Y21.5066
G01 X-16.8903 Y21.5495
G01 X-16.9206 Y21.5924
G01 X-16.9529 Y21.6338
G01 X-16.9860 Y21.6723
G01 X-17.0234 Y21.7116
G01 X-17.0614 Y21.7478
G01 X-17.0999 Y21.7810
G01 X-17.1440 Y21.8154
G01 X-17.1855 Y21.8447
G01 X-17.2284 Y21.8719
G01 X-17.2771 Y21.8994
G01 X-17.3225 Y21.9223
G01 X-17.3705 Y21.9436
G01 X-17.4195 Y21.9625
G01 X-17.4599 Y21.9758
G01 X-17.4599 Y23.3624
G01 X-12.7876 Y28.0346
G01 X-12.7579 Y28.0138
G01 X-12.6824 Y27.9660
G01 X-12.6054 Y27.9224
G01 X-12.5249 Y27.8819
G01 X-12.4440 Y27.8460
G01 X-12.3606 Y27.8139
G01 X-12.2758 Y27.7859
G01 X-12.1906 Y27.7623
G01 X-12.1026 Y27.7425
G01 X-12.0145 Y27.7272
G01 X-11.9259 Y27.7163
G01 X-11.8385 Y27.7098
G01 X-11.7458 Y27.7075
G01 X-11.6582 Y27.7097
G01 X-11.5683 Y27.7164
G01 X-11.4805 Y27.7272
G01 X-11.3924 Y27.7425
G01 X-11.3053 Y27.7620
G01 X-11.2192 Y27.7859
G01 X-11.1344 Y27.8139
G01 X-11.0510 Y27.8460
G01 X-10.9693 Y27.8822
G01 X-10.8911 Y27.9216
G01 X-10.8118 Y27.9664
G01 X-10.7378 Y28.0133
G01 X-10.6620 Y28.0667
G01 X-10.5929 Y28.1206
G01 X-10.5253 Y28.1790
G01 X-10.4606 Y28.2406
G01 X-10.3990 Y28.3053
G01 X-10.3406 Y28.3729
G01 X-10.2857 Y28.4433
G01 X-10.2342 Y28.5164
G01 X-10.1864 Y28.5918
G01 X-10.1424 Y28.6696
G01 X-10.1022 Y28.7493
G01 X-10.0660 Y28.8310
G01 X-10.0339 Y28.9144
G01 X-10.0059 Y28.9992
G01 X-9.9820 Y29.0853
G01 X-9.9625 Y29.1724
G01 X-9.9472 Y29.2605
G01 X-9.9363 Y29.3491
G01 X-9.9297 Y29.4382
G01 X-9.9275 Y29.5275
G01 X-9.9298 Y29.6185
G01 X-9.9363 Y29.7059
G01 X-9.9472 Y29.7945
G01 X-9.9625 Y29.8826
G01 X-9.9825 Y29.9714
G01 X-10.0064 Y30.0575
G01 X-10.0339 Y30.1406
G01 X-10.0654 Y30.2224
G01 X-10.1022 Y30.3057
G01 X-10.1416 Y30.3839
G01 X-10.1864 Y30.4632
G01 X-10.2342 Y30.5386
G01 X-10.2857 Y30.6117
G01 X-10.3406 Y30.6821
G01 X-10.3990 Y30.7497
G01 X-10.4606 Y30.8144
G01 X-10.5253 Y30.8760
G01 X-10.5922 Y30.9338
G01 X-10.6633 Y30.9893
G01 X-10.7364 Y31.0408
G01 X-10.8118 Y31.0886
G01 X-10.8896 Y31.1326
G01 X-10.9693 Y31.1728
G01 X-11.0510 Y31.2090
G01 X-11.1344 Y31.2411
G01 X-11.2192 Y31.2691
G01 X-11.3053 Y31.2930
G01 X-11.3924 Y31.3125
G01 X-11.4805 Y31.3278
G01 X-11.5691 Y31.3387
G01 X-11.6582 Y31.3453
G01 X-11.7475 Y31.3475
G01 X-11.8368 Y31.3453
G01 X-11.9259 Y31.3387
G01 X-12.0145 Y31.3278
G01 X-12.1026 Y31.3125
G01 X-12.1897 Y31.2930
G01 X-12.2758 Y31.2691
G01 X-12.3606 Y31.2411
G01 X-12.4440 Y31.2090
G01 X-12.5257 Y31.1728
G01 X-12.6054 Y31.1326
G01 X-12.6832 Y31.0886
G01 X-12.7586 Y31.0408
G01 X-12.8317 Y30.9893
G01 X-12.9021 Y30.9344
G01 X-12.9697 Y30.8760
G01 X-13.0344 Y30.8144
G01 X-13.0960 Y30.7497
G01 X-13.1538 Y30.6828
G01 X-13.2103 Y30.6103
G01 X-13.2608 Y30.5386
G01 X-13.3086 Y30.4632
G01 X-13.3526 Y30.3854
G01 X-13.3920 Y30.3072
G01 X-13.4296 Y30.2224
G01 X-13.4611 Y30.1406
G01 X-13.4891 Y30.0558
G01 X-13.5130 Y29.9697
G01 X-13.5322 Y29.8842
G01 X-13.5480 Y29.7928
G01 X-13.5587 Y29.7059
G01 X-13.5653 Y29.6159
G01 X-13.5675 Y29.5275
G01 X-13.5654 Y29.4399
G01 X-13.5585 Y29.3474
G01 X-13.5478 Y29.2605
G01 X-13.5325 Y29.1724
G01 X-13.5130 Y29.0853
G01 X-13.4894 Y29.0000
G01 X-13.4605 Y28.9128
G01 X-13.4290 Y28.8310
G01 X-13.3924 Y28.7486
G01 X-13.3526 Y28.6696
G01 X-13.3090 Y28.5926
G01 X-13.2612 Y28.5171
G01 X-13.2404 Y28.4874
G01 X-18.0064 Y23.7214
G01 X-18.0183 Y23.7087
G01 X-18.0371 Y23.6857
G01 X-18.0471 Y23.6714
G01 X-18.0623 Y23.6459
G01 X-18.0751 Y23.6191
G01 X-18.0814 Y23.6028
G01 X-18.0901 Y23.5744
G01 X-18.0940 Y23.5575
G01 X-18.0984 Y23.5281
G01 X-18.0998 Y23.5098
G01 X-18.1001 Y21.9758
G00 Z2.0000
G00 X-21.3408 Y21.2751
G01 F70.00
G01 Z-0.0600
G01 F120.00
G01 X-23.1954 Y21.2751
G01 X-23.7675 Y21.8472
G01 X-23.7675 Y22.5871
G01 X-23.7700 Y22.6032
G01 X-23.7762 Y22.6183
G01 X-23.7856 Y22.6315
G01 X-23.7979 Y22.6422
G01 X-23.8068 Y22.6474
G01 X-23.8164 Y22.6512
G01 X-23.8264 Y22.6536
G01 X-23.8366 Y22.6545
G01 X-25.0592 Y22.6545
G01 X-25.0703 Y22.6533
G01 X-25.0803 Y22.6507
G01 X-25.0897 Y22.6466
G01 X-25.0985 Y22.6412
G01 X-25.1064 Y22.6346
G01 X-25.1132 Y22.6269
G01 X-25.1188 Y22.6183
G01 X-25.1234 Y22.6081
G01 X-25.1265 Y22.5965
G01 X-25.1275 Y22.5845
G01 X-25.1275 Y21.5628
G01 X-25.1266 Y21.5534
G01 X-25.1247 Y21.5450
G01 X-25.1215 Y21.5361
G01 X-25.1171 Y21.5278
G01 X-25.1116 Y21.5201
G01 X-25.1051 Y21.5132
G01 X-25.0978 Y21.5073
G01 X-25.0897 Y21.5024
G01 X-25.0745 Y21.4966
G01 X-25.0584 Y21.4945
G01 X-24.3202 Y21.4945
G01 X-23.5442 Y20.7190
G01 X-23.5187 Y20.6979
G01 X-23.4911 Y20.6796
G01 X-23.4664 Y20.6664
G01 X-23.4521 Y20.6599
G01 X-23.4209 Y20.6487
G01 X-23.4041 Y20.6441
G01 X-23.3750 Y20.6383
G01 X-23.3577 Y20.6363
G01 X-23.3289 Y20.6349
G01 X-21.3408 Y20.6349
G01 X-21.3275 Y20.5945
G01 X-21.3092 Y20.5471
G01 X-21.2880 Y20.4991
G01 X-21.2637 Y20.4506
G01 X-21.2386 Y20.4064
G01 X-21.2097 Y20.3605
G01 X-21.1794 Y20.3176
G01 X-21.1471 Y20.2762
G01 X-21.1140 Y20.2377
G01 X-21.0766 Y20.1984
G01 X-21.0386 Y20.1622
G01 X-20.9988 Y20.1279
G01 X-20.9574 Y20.0956
G01 X-20.9145 Y20.0653
G01 X-20.8701 Y20.0372
G01 X-20.8244 Y20.0113
G01 X-20.7790 Y19.9885
G01 X-20.7295 Y19.9664
G01 X-20.6805 Y19.9475
G01 X-20.6306 Y19.9311
G01 X-20.5800 Y19.9171
G01 X-20.5287 Y19.9056
G01 X-20.4770 Y19.8966
G01 X-20.4249 Y19.8902
G01 X-20.3725 Y19.8863
G01 X-20.3200 Y19.8850
G01 X-20.2675 Y19.8863
G01 X-20.2151 Y19.8902
G01 X-20.1630 Y19.8966
G01 X-20.1113 Y19.9056
G01 X-20.0600 Y19.9171
G01 X-20.0094 Y19.9311
G01 X-19.9603 Y19.9473
G01 X-19.9089 Y19.9671
G01 X-19.8625 Y19.9877
G01 X-19.8156 Y20.0113
G01 X-19.7684 Y20.0381
G01 X-19.7255 Y20.0653
G01 X-19.6840 Y20.0946
G01 X-19.6412 Y20.1279
G01 X-19.6002 Y20.1634
G01 X-19.5634 Y20.1984
G01 X-19.5284 Y20.2352
G01 X-19.4918 Y20.2775
G01 X-19.4606 Y20.3176
G01 X-19.4313 Y20.3591
G01 X-19.4022 Y20.4049
G01 X-19.3763 Y20.4506
G01 X-19.3535 Y20.4960
G01 X-19.3314 Y20.5455
G01 X-19.3120 Y20.5962
G01 X-19.2961 Y20.6444
G01 X-19.2821 Y20.6950
G01 X-19.2706 Y20.7463
G01 X-19.2619 Y20.7963
G01 X-19.2552 Y20.8501
G01 X-19.2513 Y20.9025
G01 X-19.2500 Y20.9550
G01 X-19.2513 Y21.0075
G01 X-19.2550 Y21.0582
G01 X-19.2619 Y21.1137
G01 X-19.2706 Y21.1637
G01 X-19.2821 Y21.2150
G01 X-19.2961 Y21.2656
G01 X-19.3120 Y21.3138
G01 X-19.3321 Y21.3661
G01 X-19.3527 Y21.4125
G01 X-19.3763 Y21.4594
G01 X-19.4022 Y21.5051
G01 X-19.4303 Y21.5495
G01 X-19.4606 Y21.5924
G01 X-19.4918 Y21.6325
G01 X-19.5284 Y21.6748
G01 X-19.5634 Y21.7116
G01 X-19.6014 Y21.7478
G01 X-19.6412 Y21.7821
G01 X-19.6826 Y21.8144
G01 X-19.7255 Y21.8447
G01 X-19.7684 Y21.8719
G01 X-19.8171 Y21.8994
G01 X-19.8625 Y21.9223
G01 X-19.9105 Y21.9436
G01 X-19.9595 Y21.9625
G01 X-19.9999 Y21.9758
G01 X-19.9999 Y23.0925
G01 X-19.5131 Y23.0928
G01 X-19.5022 Y23.0948
G01 X-19.4916 Y23.0985
G01 X-19.4818 Y23.1038
G01 X-19.4730 Y23.1106
G01 X-19.4653 Y23.1188
G01 X-19.4591 Y23.1280
G01 X-19.4544 Y23.1381
G01 X-19.4513 Y23.1488
G01 X-19.4500 Y23.1625
G01 X-19.4500 Y24.4642
G01 X-19.4509 Y24.4736
G01 X-19.4528 Y24.4820
G01 X-19.4557 Y24.4901
G01 X-19.4600 Y24.4985
G01 X-19.4648 Y24.5056
G01 X-19.4711 Y24.5126
G01 X-19.4776 Y24.5182
G01 X-19.4855 Y24.5234
G01 X-19.4932 Y24.5272
G01 X-19.5022 Y24.5302
G01 X-19.5114 Y24.5320
G01 X-19.5200 Y24.5325
G01 X-21.1209 Y24.5325
G01 X-21.1303 Y24.5317
G01 X-21.1387 Y24.5300
G01 X-21.1476 Y24.5268
G01 X-21.1552 Y24.5230
G01 X-21.1631 Y24.5177
G01 X-21.1701 Y24.5114
G01 X-21.1762 Y24.5042
G01 X-21.1809 Y24.4970
G01 X-21.1850 Y24.4885
G01 X-21.1877 Y24.4803
G01 X-21.1895 Y24.4711
G01 X-21.1900 Y24.4625
G01 X-21.1900 Y23.1625
G01 X-21.1885 Y23.1480
G01 X-21.1853 Y23.1373
G01 X-21.1805 Y23.1273
G01 X-21.1741 Y23.1181
G01 X-21.1670 Y23.1106
G01 X-21.1582 Y23.1038
G01 X-21.1484 Y23.0985
G01 X-21.1378 Y23.0948
G01 X-21.1269 Y23.0928
G01 X-20.6401 Y23.0925
G01 X-20.6401 Y21.9758
G01 X-20.6805 Y21.9625
G01 X-20.7279 Y21.9442
G01 X-20.7759 Y21.9230
G01 X-20.8244 Y21.8987
G01 X-20.8701 Y21.8728
G01 X-20.9159 Y21.8437
G01 X-20.9574 Y21.8144
G01 X-20.9975 Y21.7832
G01 X-21.0386 Y21.7478
G01 X-21.0766 Y21.7116
G01 X-21.1140 Y21.6723
G01 X-21.1471 Y21.6338
G01 X-21.1784 Y21.5938
G01 X-21.2097 Y21.5495
G01 X-21.2378 Y21.5051
G01 X-21.2637 Y21.4594
G01 X-21.2880 Y21.4109
G01 X-21.3092 Y21.3629
G01 X-21.3275 Y21.3155
G01 X-21.3408 Y21.2751
G00 Z2.0000
G00 X-24.3742 Y21.4345
G01 F70.00
G01 Z-0.0600
G01 F120.00
G01 X-24.3614 Y21.4333
G01 X-24.3482 Y21.4295
G01 X-24.3360 Y21.4232
G01 X-24.3259 Y21.4152
G01 X-23.5833 Y20.6733
G01 X-23.5545 Y20.6496
G01 X-23.5235 Y20.6289
G01 X-23.5072 Y20.6197
G01 X-23.4735 Y20.6037
G01 X-23.4384 Y20.5912
G01 X-23.4204 Y20.5862
G01 X-23.3838 Y20.5789
G01 X-23.3467 Y20.5753
G01 X-23.3271 Y20.5748
G01 X-21.4321 Y20.5748
G01 X-21.4236 Y20.5742
G01 X-21.4151 Y20.5727
G01 X-21.4022 Y20.5681
G01 X-21.3911 Y20.5615
G01 X-21.3814 Y20.5530
G01 X-21.3734 Y20.5429
G01 X-21.3681 Y20.5331
G01 X-21.3415 Y20.4719
G01 X-21.3166 Y20.4223
G01 X-21.2892 Y20.3741
G01 X-21.2595 Y20.3272
G01 X-21.2276 Y20.2819
G01 X-21.1935 Y20.2381
G01 X-21.1573 Y20.1962
G01 X-21.1190 Y20.1560
G01 X-21.0788 Y20.1177
G01 X-21.0369 Y20.0815
G01 X-20.9931 Y20.0474
G01 X-20.9478 Y20.0155
G01 X-20.9009 Y19.9858
G01 X-20.8527 Y19.9584
G01 X-20.8031 Y19.9335
G01 X-20.7524 Y19.9110
G01 X-20.7007 Y19.8911
G01 X-20.6480 Y19.8737
G01 X-20.5946 Y19.8589
G01 X-20.5404 Y19.8467
G01 X-20.4858 Y19.8373
G01 X-20.4308 Y19.8305
G01 X-20.3754 Y19.8264
G01 X-20.3200 Y19.8250
G01 X-20.2646 Y19.8264
G01 X-20.2092 Y19.8305
G01 X-20.1542 Y19.8373
G01 X-20.0996 Y19.8467
G01 X-20.0454 Y19.8589
G01 X-19.9920 Y19.8737
G01 X-19.9393 Y19.8911
G01 X-19.8876 Y19.9110
G01 X-19.8369 Y19.9335
G01 X-19.7873 Y19.9584
G01 X-19.7391 Y19.9858
G01 X-19.6922 Y20.0155
G01 X-19.6469 Y20.0474
G01 X-19.6031 Y20.0815
G01 X-19.5612 Y20.1177
G01 X-19.5210 Y20.1560
G01 X-19.4827 Y20.1962
G01 X-19.4465 Y20.2381
G01 X-19.4124 Y20.2819
G01 X-19.3805 Y20.3272
G01 X-19.3508 Y20.3741
G01 X-19.3234 Y20.4223
G01 X-19.2985 Y20.4719
G01 X-19.2760 Y20.5226
G01 X-19.2561 Y20.5743
G01 X-19.2387 Y20.6270
G01 X-19.2239 Y20.6804
G01 X-19.2117 Y20.7346
G01 X-19.2023 Y20.7892
G01 X-19.1955 Y20.8442
G01 X-19.1914 Y20.8996
G01 X-19.1900 Y20.9550
G01 X-19.1914 Y21.0104
G01 X-19.1955 Y21.0658
G01 X-19.2023 Y21.1208
G01 X-19.2117 Y21.1754
G01 X-19.2239 Y21.2296
G01 X-19.2387 Y21.2830
G01 X-19.2561 Y21.3357
G01 X-19.2760 Y21.3874
G01 X-19.2985 Y21.4381
G01 X-19.3234 Y21.4877
G01 X-19.3508 Y21.5359
G01 X-19.3805 Y21.5828
G01 X-19.4124 Y21.6281
G01 X-19.4465 Y21.6719
G01 X-19.4827 Y21.7138
G01 X-19.5210 Y21.7540
G01 X-19.5612 Y21.7923
G01 X-19.6031 Y21.8285
G01 X-19.6469 Y21.8626
G01 X-19.6922 Y21.8945
G01 X-19.7391 Y21.9242
G01 X-19.7873 Y21.9516
G01 X-19.8369 Y21.9765
G01 X-19.8989 Y22.0035
G01 X-19.9101 Y22.0099
G01 X-19.9216 Y22.0201
G01 X-19.9311 Y22.0334
G01 X-19.9370 Y22.0476
G01 X-19.9397 Y22.0637
G01 X-19.9398 Y22.9634
G01 X-19.9391 Y22.9719
G01 X-19.9375 Y22.9803
G01 X-19.9348 Y22.9885
G01 X-19.9307 Y22.9970
G01 X-19.9260 Y23.0042
G01 X-19.9205 Y23.0108
G01 X-19.9142 Y23.0166
G01 X-19.9065 Y23.0221
G01 X-19.8989 Y23.0261
G01 X-19.8909 Y23.0292
G01 X-19.8826 Y23.0313
G01 X-19.8741 Y23.0324
G01 X-19.3900 Y23.0325
G01 X-19.3900 Y24.5925
G01 X-21.2500 Y24.5925
G01 X-21.2500 Y23.0325
G01 X-20.7659 Y23.0324
G01 X-20.7574 Y23.0313
G01 X-20.7491 Y23.0292
G01 X-20.7411 Y23.0261
G01 X-20.7335 Y23.0221
G01 X-20.7258 Y23.0166
G01 X-20.7195 Y23.0108
G01 X-20.7140 Y23.0042
G01 X-20.7093 Y22.9970
G01 X-20.7056 Y22.9893
G01 X-20.7028 Y22.9812
G01 X-20.7010 Y22.9728
G01 X-20.7002 Y22.9634
G01 X-20.7003 Y22.0637
G01 X-20.7028 Y22.0485
G01 X-20.7085 Y22.0341
G01 X-20.7172 Y22.0214
G01 X-20.7285 Y22.0109
G01 X-20.7403 Y22.0038
G01 X-20.8031 Y21.9765
G01 X-20.8527 Y21.9516
G01 X-20.9009 Y21.9242
G01 X-20.9478 Y21.8945
G01 X-20.9931 Y21.8626
G01 X-21.0369 Y21.8285
G01 X-21.0788 Y21.7923
G01 X-21.1190 Y21.7540
G01 X-21.1573 Y21.7138
G01 X-21.1935 Y21.6719
G01 X-21.2276 Y21.6281
G01 X-21.2595 Y21.5828
G01 X-21.2892 Y21.5359
G01 X-21.3166 Y21.4877
G01 X-21.3415 Y21.4381
G01 X-21.3712 Y21.3707
G01 X-21.3759 Y21.3635
G01 X-21.3814 Y21.3570
G01 X-21.3877 Y21.3511
G01 X-21.3947 Y21.3461
G01 X-21.4030 Y21.3416
G01 X-21.4126 Y21.3380
G01 X-21.4219 Y21.3360
G01 X-21.4321 Y21.3352
G01 X-23.1415 Y21.3352
G01 X-23.1535 Y21.3363
G01 X-23.1651 Y21.3393
G01 X-23.1790 Y21.3461
G01 X-23.1910 Y21.3557
G01 X-23.6876 Y21.8523
G01 X-23.6962 Y21.8630
G01 X-23.7025 Y21.8752
G01 X-23.7063 Y21.8884
G01 X-23.7075 Y21.9012
G01 X-23.7075 Y22.7145
G01 X-25.1875 Y22.7145
G01 X-25.1875 Y21.4345
G01 X-24.3742 Y21.4345
G00 Z2.0000
G00 X-25.9975 Y21.2945
G01 F70.00
G01 Z-0.0600
G01 F120.00
G01 X-25.9975 Y21.6945
G01 X-26.4975 Y21.6945
G01 X-26.4975 Y21.6345
G01 X-26.1249 Y21.6345
G01 X-26.1138 Y21.6332
G01 X-26.1031 Y21.6301
G01 X-26.0930 Y21.6254
G01 X-26.0838 Y21.6192
G01 X-26.0734 Y21.6089
G01 X-26.0658 Y21.5975
G01 X-26.0603 Y21.5840
G01 X-26.0578 Y21.5705
G01 X-26.0575 Y21.2945
G01 X-25.9975 Y21.2945
G00 Z2.0000
G00 X-25.9975 Y20.4145
G01 F70.00
G01 Z-0.0600
G01 F120.00
G01 X-25.9975 Y20.8145
G01 X-26.0575 Y20.8145
G01 X-26.0578 Y20.5376
G01 X-26.0608 Y20.5234
G01 X-26.0670 Y20.5093
G01 X-26.0762 Y20.4969
G01 X-26.0879 Y20.4868
G01 X-26.0968 Y20.4816
G01 X-26.1055 Y20.4780
G01 X-26.1155 Y20.4755
G01 X-26.1258 Y20.4745
G01 X-26.4975 Y20.4745
G01 X-26.4975 Y20.4145
G01 X-25.9975 Y20.4145
G00 Z2.0000
G00 X-27.4775 Y20.8145
G01 F70.00
G01 Z-0.0600
G01 F120.00
G01 X-27.4775 Y20.4145
G01 X-26.9775 Y20.4145
G01 X-26.9775 Y20.4745
G01 X-27.3501 Y20.4745
G01 X-27.3612 Y20.4758
G01 X-27.3719 Y20.4789
G01 X-27.3820 Y20.4836
G01 X-27.3912 Y20.4898
G01 X-27.4011 Y20.4994
G01 X-27.4092 Y20.5115
G01 X-27.4147 Y20.5250
G01 X-27.4172 Y20.5385
G01 X-27.4175 Y20.8145
G01 X-27.4775 Y20.8145
G00 Z2.0000
G00 X-26.9775 Y21.6945
G01 F70.00
G01 Z-0.0600
G01 F120.00
G01 X-27.4775 Y21.6945
G01 X-27.4775 Y21.2945
G01 X-27.4175 Y21.2945
G01 X-27.4172 Y21.5705
G01 X-27.4145 Y21.5848
G01 X-27.4092 Y21.5975
G01 X-27.4016 Y21.6089
G01 X-27.3912 Y21.6192
G01 X-27.3820 Y21.6254
G01 X-27.3719 Y21.6301
G01 X-27.3612 Y21.6332
G01 X-27.3501 Y21.6345
G01 X-26.9775 Y21.6345
G01 X-26.9775 Y21.6945
G00 Z2.0000
G00 X-30.0767 Y21.9460
G01 F70.00
G01 Z-0.0600
G01 F120.00
G01 X-30.0210 Y21.9215
G01 X-29.9756 Y21.8987
G01 X-29.9284 Y21.8719
G01 X-29.8855 Y21.8447
G01 X-29.8426 Y21.8144
G01 X-29.8012 Y21.7821
G01 X-29.7614 Y21.7478
G01 X-29.7234 Y21.7116
G01 X-29.6860 Y21.6723
G01 X-29.6529 Y21.6338
G01 X-29.6216 Y21.5938
G01 X-29.5913 Y21.5509
G01 X-29.5622 Y21.5051
G01 X-29.5363 Y21.4594
G01 X-29.5127 Y21.4125
G01 X-29.4890 Y21.3583
G01 X-29.4248 Y21.3583
G01 X-29.4360 Y21.3874
G01 X-29.4585 Y21.4381
G01 X-29.4834 Y21.4877
G01 X-29.5108 Y21.5359
G01 X-29.5405 Y21.5828
G01 X-29.5724 Y21.6281
G01 X-29.6065 Y21.6719
G01 X-29.6427 Y21.7138
G01 X-29.6810 Y21.7540
G01 X-29.7212 Y21.7923
G01 X-29.7631 Y21.8285
G01 X-29.8069 Y21.8626
G01 X-29.8522 Y21.8945
G01 X-29.8991 Y21.9242
G01 X-29.9473 Y21.9516
G01 X-29.9969 Y21.9765
G01 X-30.0476 Y21.9990
G01 X-30.0767 Y22.0102
G01 X-30.0767 Y21.9460
G00 Z2.0000
G00 X-31.5352 Y21.3583
G01 F70.00
G01 Z-0.0600
G01 F120.00
G01 X-31.4710 Y21.3583
G01 X-31.4465 Y21.4140
G01 X-31.4237 Y21.4594
G01 X-31.3969 Y21.5066
G01 X-31.3697 Y21.5495
G01 X-31.3394 Y21.5924
G01 X-31.3071 Y21.6338
G01 X-31.2728 Y21.6736
G01 X-31.2366 Y21.7116
G01 X-31.1973 Y21.7490
G01 X-31.1588 Y21.7821
G01 X-31.1188 Y21.8134
G01 X-31.0759 Y21.8437
G01 X-31.0301 Y21.8728
G01 X-30.9844 Y21.8987
G01 X-30.9375 Y21.9223
G01 X-30.8833 Y21.9460
G01 X-30.8833 Y22.0102
G01 X-30.9124 Y21.9990
G01 X-30.9631 Y21.9765
G01 X-31.0127 Y21.9516
G01 X-31.0609 Y21.9242
G01 X-31.1078 Y21.8945
G01 X-31.1531 Y21.8626
G01 X-31.1969 Y21.8285
G01 X-31.2388 Y21.7923
G01 X-31.2790 Y21.7540
G01 X-31.3173 Y21.7138
G01 X-31.3535 Y21.6719
G01 X-31.3876 Y21.6281
G01 X-31.4195 Y21.5828
G01 X-31.4492 Y21.5359
G01 X-31.4766 Y21.4877
G01 X-31.5015 Y21.4381
G01 X-31.5240 Y21.3874
G01 X-31.5352 Y21.3583
G00 Z2.0000
G00 X-31.5352 Y20.5517
G01 F70.00
G01 Z-0.0600
G01 F120.00
G01 X-31.5240 Y20.5226
G01 X-31.5015 Y20.4719
G01 X-31.4766 Y20.4223
G01 X-31.4492 Y20.3741
G01 X-31.4195 Y20.3272
G01 X-31.3876 Y20.2819
G01 X-31.3535 Y20.2381
G01 X-31.3173 Y20.1962
G01 X-31.2790 Y20.1560
G01 X-31.2388 Y20.1177
G01 X-31.1969 Y20.0815
G01 X-31.1531 Y20.0474
G01 X-31.1078 Y20.0155
G01 X-31.0609 Y19.9858
G01 X-31.0127 Y19.9584
G01 X-30.9631 Y19.9335
G01 X-30.9124 Y19.9110
G01 X-30.8833 Y19.8998
G01 X-30.8833 Y19.9640
G01 X-30.9390 Y19.9885
G01 X-30.9844 Y20.0113
G01 X-31.0316 Y20.0381
G01 X-31.0745 Y20.0653
G01 X-31.1174 Y20.0956
G01 X-31.1588 Y20.1279
G01 X-31.1986 Y20.1622
G01 X-31.2366 Y20.1984
G01 X-31.2740 Y20.2377
G01 X-31.3071 Y20.2762
G01 X-31.3384 Y20.3162
G01 X-31.3687 Y20.3591
G01 X-31.3978 Y20.4049
G01 X-31.4237 Y20.4506
G01 X-31.4473 Y20.4975
G01 X-31.4710 Y20.5517
G01 X-31.5352 Y20.5517
G00 Z2.0000
G00 X-30.0767 Y19.8998
G01 F70.00
G01 Z-0.0600
G01 F120.00
G01 X-30.0476 Y19.9110
G01 X-29.9969 Y19.9335
G01 X-29.9473 Y19.9584
G01 X-29.8991 Y19.9858
G01 X-29.8522 Y20.0155
G01 X-29.8069 Y20.0474
G01 X-29.7631 Y20.0815
G01 X-29.7212 Y20.1177
G01 X-29.6810 Y20.1560
G01 X-29.6427 Y20.1962
G01 X-29.6065 Y20.2381
G01 X-29.5724 Y20.2819
G01 X-29.5405 Y20.3272
G01 X-29.5108 Y20.3741
G01 X-29.4834 Y20.4223
G01 X-29.4585 Y20.4719
G01 X-29.4360 Y20.5226
G01 X-29.4248 Y20.5517
G01 X-29.4890 Y20.5517
G01 X-29.5135 Y20.4960
G01 X-29.5363 Y20.4506
G01 X-29.5631 Y20.4034
G01 X-29.5903 Y20.3605
G01 X-29.6206 Y20.3176
G01 X-29.6529 Y20.2762
G01 X-29.6872 Y20.2364
G01 X-29.7234 Y20.1984
G01 X-29.7627 Y20.1610
G01 X-29.8012 Y20.1279
G01 X-29.8412 Y20.0966
G01 X-29.8841 Y20.0663
G01 X-29.9299 Y20.0372
G01 X-29.9756 Y20.0113
G01 X-30.0225 Y19.9877
G01 X-30.0767 Y19.9640
G01 X-30.0767 Y19.8998
G00 Z2.0000
G00 X-30.4440 Y25.2406
G01 F70.00
G01 Z-0.0600
G01 F120.00
G01 X-29.9440 Y25.2406
G01 X-29.9440 Y25.6406
G01 X-30.0040 Y25.6406
G01 X-30.0043 Y25.3646
G01 X-30.0070 Y25.3503
G01 X-30.0123 Y25.3376
G01 X-30.0199 Y25.3262
G01 X-30.0303 Y25.3159
G01 X-30.0395 Y25.3097
G01 X-30.0496 Y25.3050
G01 X-30.0603 Y25.3019
G01 X-30.0714 Y25.3006
G01 X-30.4440 Y25.3006
G01 X-30.4440 Y25.2406
G00 Z2.0000
G00 X-31.4240 Y25.2406
G01 F70.00
G01 Z-0.0600
G01 F120.00
G01 X-30.9240 Y25.2406
G01 X-30.9240 Y25.3006
G01 X-31.2957 Y25.3006
G01 X-31.3060 Y25.3016
G01 X-31.3160 Y25.3041
G01 X-31.3247 Y25.3077
G01 X-31.3336 Y25.3129
G01 X-31.3453 Y25.3230
G01 X-31.3545 Y25.3354
G01 X-31.3607 Y25.3495
G01 X-31.3637 Y25.3637
G01 X-31.3640 Y25.6406
G01 X-31.4240 Y25.6406
G01 X-31.4240 Y25.2406
G00 Z2.0000
G00 X-30.9240 Y26.5206
G01 F70.00
G01 Z-0.0600
G01 F120.00
G01 X-31.4240 Y26.5206
G01 X-31.4240 Y26.1206
G01 X-31.3640 Y26.1206
G01 X-31.3637 Y26.3966
G01 X-31.3610 Y26.4109
G01 X-31.3557 Y26.4236
G01 X-31.3481 Y26.4350
G01 X-31.3377 Y26.4453
G01 X-31.3285 Y26.4515
G01 X-31.3184 Y26.4562
G01 X-31.3077 Y26.4593
G01 X-31.2966 Y26.4606
G01 X-30.9240 Y26.4606
G01 X-30.9240 Y26.5206
G00 Z2.0000
G00 X-29.9440 Y26.1206
G01 F70.00
G01 Z-0.0600
G01 F120.00
G01 X-29.9440 Y26.5206
G01 X-30.4440 Y26.5206
G01 X-30.4440 Y26.4606
G01 X-30.0714 Y26.4606
G01 X-30.0603 Y26.4593
G01 X-30.0496 Y26.4562
G01 X-30.0395 Y26.4515
G01 X-30.0303 Y26.4453
G01 X-30.0199 Y26.4350
G01 X-30.0123 Y26.4236
G01 X-30.0068 Y26.4101
G01 X-30.0043 Y26.3966
G01 X-30.0040 Y26.1206
G01 X-29.9440 Y26.1206
G00 Z2.0000
G00 X-30.0767 Y27.5198
G01 F70.00
G01 Z-0.0600
G01 F120.00
G01 X-30.0476 Y27.5310
G01 X-29.9969 Y27.5535
G01 X-29.9473 Y27.5784
G01 X-29.8991 Y27.6058
G01 X-29.8522 Y27.6355
G01 X-29.8069 Y27.6674
G01 X-29.7631 Y27.7015
G01 X-29.7212 Y27.7377
G01 X-29.6810 Y27.7760
G01 X-29.6427 Y27.8162
G01 X-29.6065 Y27.8581
G01 X-29.5724 Y27.9019
G01 X-29.5405 Y27.9472
G01 X-29.5108 Y27.9941
G01 X-29.4834 Y28.0423
G01 X-29.4585 Y28.0919
G01 X-29.4360 Y28.1426
G01 X-29.4248 Y28.1717
G01 X-29.4890 Y28.1717
G01 X-29.5135 Y28.1160
G01 X-29.5363 Y28.0706
G01 X-29.5631 Y28.0234
G01 X-29.5903 Y27.9805
G01 X-29.6206 Y27.9376
G01 X-29.6529 Y27.8962
G01 X-29.6872 Y27.8564
G01 X-29.7234 Y27.8184
G01 X-29.7627 Y27.7810
G01 X-29.8012 Y27.7479
G01 X-29.8412 Y27.7166
G01 X-29.8841 Y27.6863
G01 X-29.9299 Y27.6572
G01 X-29.9756 Y27.6313
G01 X-30.0225 Y27.6077
G01 X-30.0767 Y27.5840
G01 X-30.0767 Y27.5198
G00 Z2.0000
G00 X-31.5352 Y28.1717
G01 F70.00
G01 Z-0.0600
G01 F120.00
G01 X-31.5240 Y28.1426
G01 X-31.5015 Y28.0919
G01 X-31.4766 Y28.0423
G01 X-31.4492 Y27.9941
G01 X-31.4195 Y27.9472
G01 X-31.3876 Y27.9019
G01 X-31.3535 Y27.8581
G01 X-31.3173 Y27.8162
G01 X-31.2790 Y27.7760
G01 X-31.2388 Y27.7377
G01 X-31.1969 Y27.7015
G01 X-31.1531 Y27.6674
G01 X-31.1078 Y27.6355
G01 X-31.0609 Y27.6058
G01 X-31.0127 Y27.5784
G01 X-30.9631 Y27.5535
G01 X-30.9124 Y27.5310
G01 X-30.8833 Y27.5198
G01 X-30.8833 Y27.5840
G01 X-30.9390 Y27.6085
G01 X-30.9844 Y27.6313
G01 X-31.0316 Y27.6581
G01 X-31.0745 Y27.6853
G01 X-31.1174 Y27.7156
G01 X-31.1588 Y27.7479
G01 X-31.1986 Y27.7822
G01 X-31.2366 Y27.8184
G01 X-31.2740 Y27.8577
G01 X-31.3071 Y27.8962
G01 X-31.3384 Y27.9362
G01 X-31.3687 Y27.9791
G01 X-31.3978 Y28.0249
G01 X-31.4237 Y28.0706
G01 X-31.4473 Y28.1175
G01 X-31.4710 Y28.1717
G01 X-31.5352 Y28.1717
G00 Z2.0000
G00 X-31.5352 Y28.9783
G01 F70.00
G01 Z-0.0600
G01 F120.00
G01 X-31.4710 Y28.9783
G01 X-31.4465 Y29.0340
G01 X-31.4237 Y29.0794
G01 X-31.3969 Y29.1266
G01 X-31.3697 Y29.1695
G01 X-31.3394 Y29.2124
G01 X-31.3071 Y29.2538
G01 X-31.2728 Y29.2936
G01 X-31.2366 Y29.3316
G01 X-31.1973 Y29.3690
G01 X-31.1588 Y29.4021
G01 X-31.1188 Y29.4334
G01 X-31.0759 Y29.4637
G01 X-31.0301 Y29.4928
G01 X-30.9844 Y29.5187
G01 X-30.9375 Y29.5423
G01 X-30.8833 Y29.5660
G01 X-30.8833 Y29.6302
G01 X-30.9124 Y29.6190
G01 X-30.9631 Y29.5965
G01 X-31.0127 Y29.5716
G01 X-31.0609 Y29.5442
G01 X-31.1078 Y29.5145
G01 X-31.1531 Y29.4826
G01 X-31.1969 Y29.4485
G01 X-31.2388 Y29.4123
G01 X-31.2790 Y29.3740
G01 X-31.3173 Y29.3338
G01 X-31.3535 Y29.2919
G01 X-31.3876 Y29.2481
G01 X-31.4195 Y29.2028
G01 X-31.4492 Y29.1559
G01 X-31.4766 Y29.1077
G01 X-31.5015 Y29.0581
G01 X-31.5240 Y29.0074
G01 X-31.5352 Y28.9783
G00 Z2.0000
G00 X-30.0767 Y29.5660
G01 F70.00
G01 Z-0.0600
G01 F120.00
G01 X-30.0210 Y29.5415
G01 X-29.9756 Y29.5187
G01 X-29.9284 Y29.4919
G01 X-29.8855 Y29.4647
G01 X-29.8426 Y29.4344
G01 X-29.8012 Y29.4021
G01 X-29.7614 Y29.3678
G01 X-29.7234 Y29.3316
G01 X-29.6860 Y29.2923
G01 X-29.6529 Y29.2538
G01 X-29.6216 Y29.2138
G01 X-29.5913 Y29.1709
G01 X-29.5622 Y29.1251
G01 X-29.5363 Y29.0794
G01 X-29.5127 Y29.0325
G01 X-29.4890 Y28.9783
G01 X-29.4248 Y28.9783
G01 X-29.4360 Y29.0074
G01 X-29.4585 Y29.0581
G01 X-29.4834 Y29.1077
G01 X-29.5108 Y29.1559
G01 X-29.5405 Y29.2028
G01 X-29.5724 Y29.2481
G01 X-29.6065 Y29.2919
G01 X-29.6427 Y29.3338
G01 X-29.6810 Y29.3740
G01 X-29.7212 Y29.4123
G01 X-29.7631 Y29.4485
G01 X-29.8069 Y29.4826
G01 X-29.8522 Y29.5145
G01 X-29.8991 Y29.5442
G01 X-29.9473 Y29.5716
G01 X-29.9969 Y29.5965
G01 X-30.0476 Y29.6190
G01 X-30.0767 Y29.6302
G01 X-30.0767 Y29.5660
G00 Z2.0000
G00 X-30.6568 Y30.9978
G01 F70.00
G01 Z-0.0600
G01 F120.00
G01 X-26.9901 Y27.3312
G01 X-26.9901 Y26.8683
G01 X-27.3834 Y26.8683
G01 X-27.3937 Y26.8675
G01 X-27.4062 Y26.8645
G01 X-27.4172 Y26.8596
G01 X-27.4278 Y26.8524
G01 X-27.4364 Y26.8440
G01 X-27.4439 Y26.8335
G01 X-27.4490 Y26.8227
G01 X-27.4524 Y26.8103
G01 X-27.4534 Y26.7983
G01 X-27.4534 Y25.1983
G01 X-27.4526 Y25.1880
G01 X-27.4501 Y25.1772
G01 X-27.4455 Y25.1661
G01 X-27.4396 Y25.1566
G01 X-27.4323 Y25.1482
G01 X-27.4237 Y25.1411
G01 X-27.4141 Y25.1354
G01 X-27.4037 Y25.1313
G01 X-27.3920 Y25.1288
G01 X-27.3834 Y25.1283
G01 X-26.9901 Y25.1283
G01 X-26.9901 Y23.6745
G01 X-27.3492 Y23.6745
G01 X-27.3586 Y23.6736
G01 X-27.3678 Y23.6715
G01 X-27.3759 Y23.6685
G01 X-27.3842 Y23.6641
G01 X-27.3964 Y23.6546
G01 X-27.4062 Y23.6427
G01 X-27.4131 Y23.6289
G01 X-27.4169 Y23.6139
G01 X-27.4175 Y23.6045
G01 X-27.4175 Y23.4146
G01 X-29.8053 Y23.4146
G01 X-30.0040 Y23.6133
G01 X-30.0040 Y24.3532
G01 X-30.0065 Y24.3693
G01 X-30.0127 Y24.3844
G01 X-30.0221 Y24.3976
G01 X-30.0283 Y24.4036
G01 X-30.0351 Y24.4088
G01 X-30.0441 Y24.4139
G01 X-30.0537 Y24.4176
G01 X-30.0629 Y24.4197
G01 X-30.0731 Y24.4206
G01 X-31.3000 Y24.4203
G01 X-31.3118 Y24.4183
G01 X-31.3239 Y24.4139
G01 X-31.3350 Y24.4073
G01 X-31.3447 Y24.3989
G01 X-31.3527 Y24.3888
G01 X-31.3583 Y24.3782
G01 X-31.3621 Y24.3668
G01 X-31.3639 Y24.3540
G01 X-31.3640 Y23.3297
G01 X-31.3619 Y23.3136
G01 X-31.3593 Y23.3054
G01 X-31.3557 Y23.2976
G01 X-31.3507 Y23.2896
G01 X-31.3453 Y23.2830
G01 X-31.3384 Y23.2765
G01 X-31.3314 Y23.2715
G01 X-31.3239 Y23.2673
G01 X-31.3151 Y23.2639
G01 X-31.3068 Y23.2618
G01 X-31.2974 Y23.2607
G01 X-30.5567 Y23.2606
G01 X-30.1643 Y22.8681
G01 X-30.1416 Y22.8476
G01 X-30.1272 Y22.8364
G01 X-30.1039 Y22.8208
G01 X-30.0732 Y22.8044
G01 X-30.0474 Y22.7937
G01 X-30.0308 Y22.7882
G01 X-30.0140 Y22.7836
G01 X-29.9849 Y22.7778
G01 X-29.9676 Y22.7758
G01 X-29.9379 Y22.7744
G01 X-27.4175 Y22.7744
G01 X-27.4175 Y22.5836
G01 X-27.4158 Y22.5692
G01 X-27.4128 Y22.5593
G01 X-27.4084 Y22.5500
G01 X-27.4027 Y22.5414
G01 X-27.3958 Y22.5338
G01 X-27.3878 Y22.5273
G01 X-27.3797 Y22.5224
G01 X-27.3703 Y22.5183
G01 X-27.3603 Y22.5157
G01 X-27.3475 Y22.5145
G01 X-26.1275 Y22.5145
G01 X-26.1189 Y22.5150
G01 X-26.1105 Y22.5166
G01 X-26.1023 Y22.5192
G01 X-26.0945 Y22.5228
G01 X-26.0872 Y22.5273
G01 X-26.0799 Y22.5332
G01 X-26.0739 Y22.5394
G01 X-26.0684 Y22.5471
G01 X-26.0639 Y22.5554
G01 X-26.0608 Y22.5634
G01 X-26.0585 Y22.5725
G01 X-26.0575 Y22.5819
G01 X-26.0578 Y23.6114
G01 X-26.0598 Y23.6223
G01 X-26.0635 Y23.6329
G01 X-26.0688 Y23.6427
G01 X-26.0756 Y23.6515
G01 X-26.0838 Y23.6592
G01 X-26.0930 Y23.6654
G01 X-26.1023 Y23.6698
G01 X-26.1130 Y23.6730
G01 X-26.1266 Y23.6745
G01 X-26.3499 Y23.6745
G01 X-26.3499 Y25.1283
G01 X-26.0834 Y25.1283
G01 X-26.0714 Y25.1293
G01 X-26.0614 Y25.1318
G01 X-26.0512 Y25.1362
G01 X-26.0424 Y25.1416
G01 X-26.0345 Y25.1482
G01 X-26.0272 Y25.1566
G01 X-26.0217 Y25.1653
G01 X-26.0175 Y25.1747
G01 X-26.0147 Y25.1846
G01 X-26.0134 Y25.1983
G01 X-26.0135 Y26.8026
G01 X-26.0151 Y26.8136
G01 X-26.0187 Y26.8251
G01 X-26.0238 Y26.8350
G01 X-26.0304 Y26.8440
G01 X-26.0390 Y26.8524
G01 X-26.0482 Y26.8588
G01 X-26.0590 Y26.8639
G01 X-26.0697 Y26.8670
G01 X-26.0834 Y26.8683
G01 X-26.3499 Y26.8683
G01 X-26.3503 Y27.4795
G01 X-26.3533 Y27.5108
G01 X-26.3599 Y27.5432
G01 X-26.3642 Y27.5584
G01 X-26.3736 Y27.5847
G01 X-26.3877 Y27.6147
G01 X-26.4029 Y27.6402
G01 X-26.4129 Y27.6545
G01 X-26.4236 Y27.6682
G01 X-26.4436 Y27.6902
G01 X-30.2040 Y31.4506
G01 X-30.1926 Y31.4735
G01 X-30.1723 Y31.5193
G01 X-30.1546 Y31.5652
G01 X-30.1392 Y31.6119
G01 X-30.1252 Y31.6626
G01 X-30.1146 Y31.7098
G01 X-30.1062 Y31.7583
G01 X-30.0998 Y31.8105
G01 X-30.0962 Y31.8588
G01 X-30.0950 Y31.9088
G01 X-30.0962 Y31.9588
G01 X-30.0998 Y32.0071
G01 X-30.1062 Y32.0593
G01 X-30.1146 Y32.1078
G01 X-30.1252 Y32.1550
G01 X-30.1394 Y32.2065
G01 X-30.1546 Y32.2524
G01 X-30.1726 Y32.2991
G01 X-30.1929 Y32.3449
G01 X-30.2146 Y32.3881
G01 X-30.2410 Y32.4346
G01 X-30.2669 Y32.4755
G01 X-30.2957 Y32.5164
G01 X-30.3265 Y32.5559
G01 X-30.3581 Y32.5925
G01 X-30.3938 Y32.6300
G01 X-30.4300 Y32.6646
G01 X-30.4666 Y32.6962
G01 X-30.5074 Y32.7281
G01 X-30.5483 Y32.7569
G01 X-30.5892 Y32.7828
G01 X-30.6357 Y32.8092
G01 X-30.6789 Y32.8309
G01 X-30.7231 Y32.8505
G01 X-30.7730 Y32.8697
G01 X-30.8189 Y32.8849
G01 X-30.8672 Y32.8982
G01 X-30.9160 Y32.9092
G01 X-30.9636 Y32.9175
G01 X-31.0167 Y32.9240
G01 X-31.0650 Y32.9276
G01 X-31.1150 Y32.9288
G01 X-31.1650 Y32.9276
G01 X-31.2133 Y32.9240
G01 X-31.2647 Y32.9178
G01 X-31.3140 Y32.9092
G01 X-31.3612 Y32.8986
G01 X-31.4111 Y32.8849
G01 X-31.4586 Y32.8692
G01 X-31.5037 Y32.8518
G01 X-31.5519 Y32.8305
G01 X-31.5958 Y32.8084
G01 X-31.6394 Y32.7837
G01 X-31.6817 Y32.7569
G01 X-31.7226 Y32.7281
G01 X-31.7621 Y32.6973
G01 X-31.8000 Y32.6646
G01 X-31.8362 Y32.6300
G01 X-31.8708 Y32.5938
G01 X-31.9035 Y32.5559
G01 X-31.9343 Y32.5164
G01 X-31.9631 Y32.4755
G01 X-31.9899 Y32.4332
G01 X-32.0146 Y32.3896
G01 X-32.0371 Y32.3449
G01 X-32.0574 Y32.2991
G01 X-32.0754 Y32.2524
G01 X-32.0911 Y32.2049
G01 X-32.1044 Y32.1566
G01 X-32.1154 Y32.1078
G01 X-32.1240 Y32.0585
G01 X-32.1301 Y32.0088
G01 X-32.1338 Y31.9588
G01 X-32.1350 Y31.9088
G01 X-32.1338 Y31.8588
G01 X-32.1301 Y31.8088
G01 X-32.1240 Y31.7591
G01 X-32.1154 Y31.7098
G01 X-32.1044 Y31.6610
G01 X-32.0911 Y31.6127
G01 X-32.0754 Y31.5652
G01 X-32.0574 Y31.5185
G01 X-32.0367 Y31.4719
G01 X-32.0146 Y31.4280
G01 X-31.9899 Y31.3844
G01 X-31.9631 Y31.3421
G01 X-31.9343 Y31.3012
G01 X-31.9035 Y31.2617
G01 X-31.8708 Y31.2238
G01 X-31.8362 Y31.1876
G01 X-31.8000 Y31.1530
G01 X-31.7621 Y31.1203
G01 X-31.7226 Y31.0895
G01 X-31.6817 Y31.0607
G01 X-31.6394 Y31.0339
G01 X-31.5958 Y31.0092
G01 X-31.5511 Y30.9867
G01 X-31.5053 Y30.9664
G01 X-31.4578 Y30.9481
G01 X-31.4111 Y30.9327
G01 X-31.3628 Y30.9194
G01 X-31.3140 Y30.9084
G01 X-31.2647 Y30.8998
G01 X-31.2150 Y30.8937
G01 X-31.1650 Y30.8900
G01 X-31.1150 Y30.8888
G01 X-31.0641 Y30.8901
G01 X-31.0150 Y30.8937
G01 X-30.9653 Y30.8998
G01 X-30.9160 Y30.9084
G01 X-30.8663 Y30.9196
G01 X-30.8189 Y30.9327
G01 X-30.7706 Y30.9487
G01 X-30.7239 Y30.9668
G01 X-30.6797 Y30.9864
G01 X-30.6568 Y30.9978
G00 Z2.0000
G00 X-29.7341 Y31.1369
G01 F70.00
G01 Z-0.0600
G01 F120.00
G01 X-29.7523 Y31.1253
G01 X-29.7714 Y31.1169
G01 X-26.8269 Y28.1724
G01 X-26.8185 Y28.1915
G01 X-26.8069 Y28.2097
G01 X-26.8337 Y28.2209
G01 X-26.8509 Y28.2294
G01 X-26.8691 Y28.2395
G01 X-26.8853 Y28.2497
G01 X-26.9024 Y28.2616
G01 X-26.9175 Y28.2734
G01 X-26.9459 Y28.2991
G01 X-29.6459 Y30.9992
G01 X-29.6715 Y31.0276
G01 X-29.6832 Y31.0428
G01 X-29.6951 Y31.0599
G01 X-29.7144 Y31.0929
G01 X-29.7229 Y31.1101
G01 X-29.7341 Y31.1369
G00 Z2.0000
G00 X-26.8467 Y32.8197
G01 F70.00
G01 Z-0.0600
G01 F120.00
G01 X-26.8697 Y32.8312
G01 X-26.9139 Y32.8508
G01 X-26.9606 Y32.8689
G01 X-27.0089 Y32.8849
G01 X-27.0563 Y32.8980
G01 X-27.1060 Y32.9092
G01 X-27.1553 Y32.9178
G01 X-27.2050 Y32.9239
G01 X-27.2541 Y32.9275
G01 X-27.3050 Y32.9288
G01 X-27.3550 Y32.9276
G01 X-27.4050 Y32.9239
G01 X-27.4547 Y32.9178
G01 X-27.5040 Y32.9092
G01 X-27.5528 Y32.8982
G01 X-27.6011 Y32.8849
G01 X-27.6478 Y32.8695
G01 X-27.6953 Y32.8512
G01 X-27.7411 Y32.8309
G01 X-27.7858 Y32.8084
G01 X-27.8294 Y32.7837
G01 X-27.8717 Y32.7569
G01 X-27.9126 Y32.7281
G01 X-27.9521 Y32.6973
G01 X-27.9900 Y32.6646
G01 X-28.0262 Y32.6300
G01 X-28.0608 Y32.5938
G01 X-28.0935 Y32.5559
G01 X-28.1243 Y32.5164
G01 X-28.1531 Y32.4755
G01 X-28.1799 Y32.4332
G01 X-28.2046 Y32.3896
G01 X-28.2267 Y32.3457
G01 X-28.2474 Y32.2991
G01 X-28.2654 Y32.2524
G01 X-28.2811 Y32.2049
G01 X-28.2944 Y32.1566
G01 X-28.3054 Y32.1078
G01 X-28.3140 Y32.0585
G01 X-28.3201 Y32.0088
G01 X-28.3238 Y31.9588
G01 X-28.3250 Y31.9088
G01 X-28.3238 Y31.8588
G01 X-28.3201 Y31.8088
G01 X-28.3140 Y31.7591
G01 X-28.3054 Y31.7098
G01 X-28.2944 Y31.6610
G01 X-28.2811 Y31.6127
G01 X-28.2654 Y31.5652
G01 X-28.2474 Y31.5185
G01 X-28.2271 Y31.4727
G01 X-28.2046 Y31.4280
G01 X-28.1799 Y31.3844
G01 X-28.1531 Y31.3421
G01 X-28.1243 Y31.3012
G01 X-28.0935 Y31.2617
G01 X-28.0608 Y31.2238
G01 X-28.0262 Y31.1876
G01 X-27.9900 Y31.1530
G01 X-27.9521 Y31.1203
G01 X-27.9126 Y31.0895
G01 X-27.8717 Y31.0607
G01 X-27.8294 Y31.0339
G01 X-27.7858 Y31.0092
G01 X-27.7419 Y30.9871
G01 X-27.6937 Y30.9658
G01 X-27.6486 Y30.9484
G01 X-27.6011 Y30.9327
G01 X-27.5512 Y30.9190
G01 X-27.5040 Y30.9084
G01 X-27.4547 Y30.8998
G01 X-27.4033 Y30.8936
G01 X-27.3550 Y30.8900
G01 X-27.3050 Y30.8888
G01 X-27.2550 Y30.8900
G01 X-27.2067 Y30.8936
G01 X-27.1536 Y30.9001
G01 X-27.1060 Y30.9084
G01 X-27.0588 Y30.9190
G01 X-27.0073 Y30.9332
G01 X-26.9614 Y30.9484
G01 X-26.9147 Y30.9664
G01 X-26.8689 Y30.9867
G01 X-26.8257 Y31.0084
G01 X-26.7792 Y31.0348
G01 X-26.7383 Y31.0607
G01 X-26.6974 Y31.0895
G01 X-26.6579 Y31.1203
G01 X-26.6213 Y31.1519
G01 X-26.5838 Y31.1876
G01 X-26.5481 Y31.2251
G01 X-26.5165 Y31.2617
G01 X-26.4857 Y31.3012
G01 X-26.4569 Y31.3421
G01 X-26.4310 Y31.3830
G01 X-26.4046 Y31.4295
G01 X-26.3829 Y31.4727
G01 X-26.3626 Y31.5185
G01 X-26.3446 Y31.5652
G01 X-26.3294 Y31.6111
G01 X-26.3152 Y31.6626
G01 X-26.3046 Y31.7098
G01 X-26.2962 Y31.7583
G01 X-26.2898 Y31.8105
G01 X-26.2862 Y31.8588
G01 X-26.2850 Y31.9088
G01 X-26.2862 Y31.9588
G01 X-26.2898 Y32.0071
G01 X-26.2962 Y32.0593
G01 X-26.3046 Y32.1078
G01 X-26.3152 Y32.1550
G01 X-26.3292 Y32.2057
G01 X-26.3446 Y32.2524
G01 X-26.3623 Y32.2983
G01 X-26.3826 Y32.3441
G01 X-26.3940 Y32.3670
G01 X-24.9499 Y33.8111
G01 X-16.9601 Y33.8111
G01 X-16.2475 Y33.0992
G01 X-16.2245 Y33.0804
G01 X-16.1998 Y33.0638
G01 X-16.1832 Y33.0544
G01 X-16.1563 Y33.0417
G01 X-16.1267 Y33.0312
G01 X-16.0979 Y33.0239
G01 X-16.0791 Y33.0206
G01 X-16.0486 Y33.0177
G01 X-6.0064 Y33.0174
G01 X-3.8126 Y30.8236
G01 X-3.8126 Y28.3813
G01 X-5.6995 Y26.3056
G01 X-5.7326 Y26.3265
G01 X-5.8088 Y26.3697
G01 X-5.8886 Y26.4099
G01 X-5.9710 Y26.4465
G01 X-6.0536 Y26.4783
G01 X-6.1392 Y26.5066
G01 X-6.2253 Y26.5305
G01 X-6.3124 Y26.5500
G01 X-6.3996 Y26.5652
G01 X-6.4891 Y26.5762
G01 X-6.5782 Y26.5828
G01 X-6.6675 Y26.5850
G01 X-6.7568 Y26.5828
G01 X-6.8459 Y26.5762
G01 X-6.9345 Y26.5653
G01 X-7.0226 Y26.5500
G01 X-7.1089 Y26.5307
G01 X-7.1958 Y26.5066
G01 X-7.2806 Y26.4786
G01 X-7.3640 Y26.4465
G01 X-7.4457 Y26.4103
G01 X-7.5254 Y26.3701
G01 X-7.6032 Y26.3261
G01 X-7.6786 Y26.2783
G01 X-7.7517 Y26.2268
G01 X-7.8221 Y26.1719
G01 X-7.8897 Y26.1135
G01 X-7.9544 Y26.0519
G01 X-8.0160 Y25.9872
G01 X-8.0744 Y25.9196
G01 X-8.1293 Y25.8492
G01 X-8.1808 Y25.7761
G01 X-8.2286 Y25.7007
G01 X-8.2734 Y25.6214
G01 X-8.3128 Y25.5432
G01 X-8.3483 Y25.4631
G01 X-8.3811 Y25.3781
G01 X-8.4091 Y25.2933
G01 X-8.4330 Y25.2072
G01 X-8.4528 Y25.1184
G01 X-8.4678 Y25.0320
G01 X-8.4785 Y24.9451
G01 X-8.4853 Y24.8543
G01 X-8.4875 Y24.7650
G01 X-8.4852 Y24.6740
G01 X-8.4787 Y24.5866
G01 X-8.4680 Y24.4997
G01 X-8.4525 Y24.4099
G01 X-8.4330 Y24.3228
G01 X-8.4086 Y24.2350
G01 X-8.3805 Y24.1503
G01 X-8.3490 Y24.0685
G01 X-8.3135 Y23.9884
G01 X-8.2726 Y23.9071
G01 X-8.2286 Y23.8293
G01 X-8.1808 Y23.7539
G01 X-8.1283 Y23.6795
G01 X-8.0733 Y23.6091
G01 X-8.0160 Y23.5428
G01 X-7.9556 Y23.4793
G01 X-7.8897 Y23.4165
G01 X-7.8208 Y23.3570
G01 X-7.7517 Y23.3032
G01 X-7.6801 Y23.2527
G01 X-7.6046 Y23.2048
G01 X-7.5254 Y23.1599
G01 X-7.4457 Y23.1197
G01 X-7.3640 Y23.0835
G01 X-7.2790 Y23.0508
G01 X-7.1958 Y23.0234
G01 X-7.1114 Y23.0000
G01 X-7.0226 Y22.9800
G01 X-6.9328 Y22.9645
G01 X-6.8459 Y22.9538
G01 X-6.7568 Y22.9472
G01 X-6.6658 Y22.9450
G01 X-6.5782 Y22.9472
G01 X-6.4891 Y22.9538
G01 X-6.3988 Y22.9650
G01 X-6.3124 Y22.9800
G01 X-6.2253 Y22.9995
G01 X-6.1375 Y23.0239
G01 X-6.0544 Y23.0514
G01 X-5.9726 Y23.0829
G01 X-5.8878 Y23.1205
G01 X-5.8096 Y23.1599
G01 X-5.7333 Y23.2031
G01 X-5.6564 Y23.2517
G01 X-5.5820 Y23.3042
G01 X-5.5129 Y23.3581
G01 X-5.4465 Y23.4153
G01 X-5.3806 Y23.4781
G01 X-5.3178 Y23.5440
G01 X-5.2606 Y23.6104
G01 X-5.2057 Y23.6808
G01 X-5.1542 Y23.7539
G01 X-5.1073 Y23.8279
G01 X-5.0616 Y23.9086
G01 X-5.0222 Y23.9868
G01 X-4.9860 Y24.0685
G01 X-4.9539 Y24.1519
G01 X-4.9264 Y24.2350
G01 X-4.9016 Y24.3244
G01 X-4.8825 Y24.4099
G01 X-4.8672 Y24.4980
G01 X-4.8563 Y24.5866
G01 X-4.8498 Y24.6740
G01 X-4.8475 Y24.7659
G01 X-4.8497 Y24.8543
G01 X-4.8561 Y24.9417
G01 X-4.8675 Y25.0337
G01 X-4.8825 Y25.1201
G01 X-4.9020 Y25.2072
G01 X-4.9259 Y25.2933
G01 X-4.9536 Y25.3773
G01 X-4.9867 Y25.4631
G01 X-5.0222 Y25.5432
G01 X-5.0628 Y25.6237
G01 X-5.1064 Y25.7007
G01 X-5.1538 Y25.7754
G01 X-5.2052 Y25.8485
G01 X-5.2258 Y25.8750
G01 X-3.2551 Y28.0428
G01 X-3.2367 Y28.0651
G01 X-3.2265 Y28.0793
G01 X-3.2172 Y28.0941
G01 X-3.2040 Y28.1188
G01 X-3.1906 Y28.1511
G01 X-3.1824 Y28.1779
G01 X-3.1786 Y28.1949
G01 X-3.1739 Y28.2261
G01 X-3.1724 Y28.2575
G01 X-3.1724 Y30.9571
G01 X-3.1741 Y30.9893
G01 X-3.1782 Y31.0170
G01 X-3.1816 Y31.0323
G01 X-3.1911 Y31.0640
G01 X-3.2035 Y31.0938
G01 X-3.2179 Y31.1208
G01 X-3.2344 Y31.1455
G01 X-3.2461 Y31.1606
G01 X-3.2661 Y31.1826
G01 X-5.6480 Y33.5645
G01 X-5.6694 Y33.5839
G01 X-5.6831 Y33.5946
G01 X-5.7078 Y33.6112
G01 X-5.7229 Y33.6198
G01 X-5.7497 Y33.6326
G01 X-5.7660 Y33.6389
G01 X-5.7825 Y33.6443
G01 X-5.8113 Y33.6515
G01 X-5.8424 Y33.6561
G01 X-5.8738 Y33.6576
G01 X-15.9012 Y33.6576
G01 X-16.6132 Y34.3690
G01 X-16.6354 Y34.3873
G01 X-16.6511 Y34.3983
G01 X-16.6766 Y34.4135
G01 X-16.7034 Y34.4263
G01 X-16.7213 Y34.4332
G01 X-16.7497 Y34.4417
G01 X-16.7788 Y34.4476
G01 X-16.7970 Y34.4499
G01 X-16.8275 Y34.4513
G01 X-25.0973 Y34.4510
G01 X-25.1278 Y34.4481
G01 X-25.1466 Y34.4448
G01 X-25.1754 Y34.4375
G01 X-25.2050 Y34.4270
G01 X-25.2334 Y34.4135
G01 X-25.2589 Y34.3983
G01 X-25.2746 Y34.3873
G01 X-25.2981 Y34.3678
G01 X-26.8467 Y32.8197
G00 Z2.0000
G00 X-23.5334 Y34.6297
G01 F70.00
G01 Z-0.0600
G01 F120.00
G01 X-23.5290 Y34.6154
G01 X-23.5263 Y34.6020
G01 X-23.5249 Y34.5883
G01 X-23.5249 Y34.5746
G01 X-23.5263 Y34.5609
G01 X-23.5290 Y34.5474
G01 X-23.5330 Y34.5343
G01 X-23.5383 Y34.5213
G01 X-23.4517 Y34.5213
G01 X-23.4570 Y34.5343
G01 X-23.4610 Y34.5474
G01 X-23.4637 Y34.5609
G01 X-23.4651 Y34.5746
G01 X-23.4651 Y34.5883
G01 X-23.4637 Y34.6020
G01 X-23.4610 Y34.6154
G01 X-23.4566 Y34.6297
G01 X-23.4950 Y34.6288
G01 X-23.5334 Y34.6297
G00 Z2.0000
G00 X-22.2307 Y33.7411
G01 F70.00
G01 Z-0.0600
G01 F120.00
G01 X-22.2226 Y33.7200
G01 X-22.2180 Y33.6969
G01 X-22.1976 Y33.7048
G01 X-22.1794 Y33.7108
G01 X-22.1423 Y33.7201
G01 X-22.1044 Y33.7257
G01 X-22.0662 Y33.7276
G01 X-17.1450 Y33.7276
G01 X-17.1224 Y33.7269
G01 X-17.0895 Y33.7236
G01 X-17.0655 Y33.7194
G01 X-17.0318 Y33.7108
G01 X-16.9989 Y33.6992
G01 X-16.9782 Y33.6902
G01 X-16.9581 Y33.6799
G01 X-16.9283 Y33.6619
G01 X-16.9099 Y33.6488
G01 X-16.8843 Y33.6277
G01 X-16.8692 Y33.6134
G01 X-16.1896 Y32.9339
G01 X-6.1912 Y32.9339
G01 X-6.1686 Y32.9332
G01 X-6.1340 Y32.9297
G01 X-6.1117 Y32.9257
G01 X-6.0796 Y32.9176
G01 X-6.0598 Y32.9111
G01 X-6.0387 Y32.9029
G01 X-6.0103 Y32.8894
G01 X-5.9906 Y32.8784
G01 X-5.9745 Y32.8682
G01 X-5.9561 Y32.8551
G01 X-5.9318 Y32.8351
G01 X-5.9166 Y32.8209
G01 X-4.0091 Y30.9134
G01 X-3.9857 Y30.8876
G01 X-3.9708 Y30.8684
G01 X-3.9516 Y30.8394
G01 X-3.9350 Y30.8087
G01 X-3.9245 Y30.7849
G01 X-3.9129 Y30.7520
G01 X-3.9043 Y30.7183
G01 X-3.9001 Y30.6943
G01 X-3.8968 Y30.6614
G01 X-3.8961 Y30.6388
G01 X-3.8961 Y28.5733
G01 X-3.8980 Y28.5368
G01 X-3.9029 Y28.5023
G01 X-3.9086 Y28.4769
G01 X-3.9189 Y28.4436
G01 X-3.9335 Y28.4082
G01 X-3.9421 Y28.3911
G01 X-3.9534 Y28.3715
G01 X-3.9708 Y28.3454
G01 X-3.9825 Y28.3302
G01 X-3.9960 Y28.3143
G01 X-4.0091 Y28.3004
G01 X-5.3729 Y26.9366
G01 X-5.3598 Y26.9310
G01 X-5.3477 Y26.9243
G01 X-5.3364 Y26.9165
G01 X-5.3246 Y26.9065
G01 X-5.3152 Y26.8966
G01 X-5.3057 Y26.8843
G01 X-5.2977 Y26.8711
G01 X-5.2917 Y26.8583
G01 X-3.8826 Y28.4083
G01 X-3.8826 Y30.7946
G01 X-6.0354 Y32.9474
G01 X-16.0529 Y32.9478
G01 X-16.0876 Y32.9511
G01 X-16.1133 Y32.9556
G01 X-16.1470 Y32.9642
G01 X-16.1799 Y32.9758
G01 X-16.2037 Y32.9863
G01 X-16.2344 Y33.0029
G01 X-16.2634 Y33.0221
G01 X-16.2826 Y33.0370
G01 X-16.3097 Y33.0616
G01 X-16.9891 Y33.7411
G01 X-22.2307 Y33.7411
G00 Z2.0000
G00 X-23.0367 Y32.8197
G01 F70.00
G01 Z-0.0600
G01 F120.00
G01 X-23.0597 Y32.8312
G01 X-23.1039 Y32.8508
G01 X-23.1506 Y32.8689
G01 X-23.1989 Y32.8849
G01 X-23.2463 Y32.8980
G01 X-23.2960 Y32.9092
G01 X-23.3453 Y32.9178
G01 X-23.3950 Y32.9239
G01 X-23.4441 Y32.9275
G01 X-23.4950 Y32.9288
G01 X-23.5450 Y32.9276
G01 X-23.5950 Y32.9239
G01 X-23.6447 Y32.9178
G01 X-23.6940 Y32.9092
G01 X-23.7428 Y32.8982
G01 X-23.7911 Y32.8849
G01 X-23.8378 Y32.8695
G01 X-23.8853 Y32.8512
G01 X-23.9311 Y32.8309
G01 X-23.9758 Y32.8084
G01 X-24.0194 Y32.7837
G01 X-24.0617 Y32.7569
G01 X-24.1026 Y32.7281
G01 X-24.1421 Y32.6973
G01 X-24.1800 Y32.6646
G01 X-24.2162 Y32.6300
G01 X-24.2508 Y32.5938
G01 X-24.2835 Y32.5559
G01 X-24.3143 Y32.5164
G01 X-24.3431 Y32.4755
G01 X-24.3699 Y32.4332
G01 X-24.3946 Y32.3896
G01 X-24.4167 Y32.3457
G01 X-24.4374 Y32.2991
G01 X-24.4554 Y32.2524
G01 X-24.4711 Y32.2049
G01 X-24.4844 Y32.1566
G01 X-24.4954 Y32.1078
G01 X-24.5040 Y32.0585
G01 X-24.5101 Y32.0088
G01 X-24.5138 Y31.9588
G01 X-24.5150 Y31.9088
G01 X-24.5138 Y31.8588
G01 X-24.5101 Y31.8088
G01 X-24.5040 Y31.7591
G01 X-24.4954 Y31.7098
G01 X-24.4844 Y31.6610
G01 X-24.4711 Y31.6127
G01 X-24.4554 Y31.5652
G01 X-24.4374 Y31.5185
G01 X-24.4171 Y31.4727
G01 X-24.3946 Y31.4280
G01 X-24.3699 Y31.3844
G01 X-24.3431 Y31.3421
G01 X-24.3143 Y31.3012
G01 X-24.2835 Y31.2617
G01 X-24.2508 Y31.2238
G01 X-24.2162 Y31.1876
G01 X-24.1800 Y31.1530
G01 X-24.1421 Y31.1203
G01 X-24.1026 Y31.0895
G01 X-24.0617 Y31.0607
G01 X-24.0194 Y31.0339
G01 X-23.9758 Y31.0092
G01 X-23.9319 Y30.9871
G01 X-23.8837 Y30.9658
G01 X-23.8386 Y30.9484
G01 X-23.7911 Y30.9327
G01 X-23.7412 Y30.9190
G01 X-23.6940 Y30.9084
G01 X-23.6447 Y30.8998
G01 X-23.5933 Y30.8936
G01 X-23.5450 Y30.8900
G01 X-23.4950 Y30.8888
G01 X-23.4450 Y30.8900
G01 X-23.3967 Y30.8936
G01 X-23.3436 Y30.9001
G01 X-23.2960 Y30.9084
G01 X-23.2488 Y30.9190
G01 X-23.1973 Y30.9332
G01 X-23.1514 Y30.9484
G01 X-23.1047 Y30.9664
G01 X-23.0589 Y30.9867
G01 X-23.0157 Y31.0084
G01 X-22.9692 Y31.0348
G01 X-22.9283 Y31.0607
G01 X-22.8874 Y31.0895
G01 X-22.8479 Y31.1203
G01 X-22.8113 Y31.1519
G01 X-22.7731 Y31.1882
G01 X-22.7392 Y31.2238
G01 X-22.7076 Y31.2604
G01 X-22.6747 Y31.3026
G01 X-22.6469 Y31.3421
G01 X-22.6201 Y31.3844
G01 X-22.5954 Y31.4280
G01 X-22.5737 Y31.4711
G01 X-22.5520 Y31.5201
G01 X-22.5346 Y31.5652
G01 X-22.5189 Y31.6127
G01 X-22.5052 Y31.6626
G01 X-22.4946 Y31.7098
G01 X-22.4862 Y31.7583
G01 X-22.4798 Y31.8105
G01 X-22.4762 Y31.8588
G01 X-22.4750 Y31.9088
G01 X-22.4762 Y31.9588
G01 X-22.4798 Y32.0071
G01 X-22.4862 Y32.0593
G01 X-22.4946 Y32.1078
G01 X-22.5052 Y32.1550
G01 X-22.5192 Y32.2057
G01 X-22.5346 Y32.2524
G01 X-22.5523 Y32.2983
G01 X-22.5726 Y32.3441
G01 X-22.5840 Y32.3670
G01 X-21.9336 Y33.0174
G01 X-17.2776 Y33.0174
G01 X-16.5649 Y32.3055
G01 X-16.5419 Y32.2867
G01 X-16.5172 Y32.2701
G01 X-16.5006 Y32.2607
G01 X-16.4737 Y32.2480
G01 X-16.4458 Y32.2380
G01 X-16.4273 Y32.2329
G01 X-16.3982 Y32.2271
G01 X-16.3669 Y32.2241
G01 X-6.3238 Y32.2237
G01 X-4.6063 Y30.5062
G01 X-4.6063 Y28.7076
G01 X-5.8476 Y27.4663
G01 X-9.3662 Y27.4663
G01 X-9.3976 Y27.4648
G01 X-9.4270 Y27.4605
G01 X-9.4608 Y27.4520
G01 X-9.4871 Y27.4426
G01 X-9.5046 Y27.4348
G01 X-9.5293 Y27.4216
G01 X-9.5440 Y27.4124
G01 X-9.5679 Y27.3947
G01 X-9.5818 Y27.3828
G01 X-10.7073 Y26.2578
G01 X-10.7371 Y26.2787
G01 X-10.8126 Y26.3265
G01 X-10.8896 Y26.3701
G01 X-10.9686 Y26.4099
G01 X-11.0526 Y26.4471
G01 X-11.1344 Y26.4786
G01 X-11.2184 Y26.5064
G01 X-11.3069 Y26.5309
G01 X-11.3924 Y26.5500
G01 X-11.4805 Y26.5653
G01 X-11.5691 Y26.5762
G01 X-11.6565 Y26.5827
G01 X-11.7484 Y26.5850
G01 X-11.8368 Y26.5828
G01 X-11.9242 Y26.5764
G01 X-12.0162 Y26.5650
G01 X-12.1026 Y26.5500
G01 X-12.1897 Y26.5305
G01 X-12.2758 Y26.5066
G01 X-12.3590 Y26.4792
G01 X-12.4456 Y26.4458
G01 X-12.5257 Y26.4103
G01 X-12.6054 Y26.3701
G01 X-12.6832 Y26.3261
G01 X-12.7572 Y26.2792
G01 X-12.8324 Y26.2263
G01 X-12.9021 Y26.1719
G01 X-12.9685 Y26.1147
G01 X-13.0344 Y26.0519
G01 X-13.0972 Y25.9860
G01 X-13.1544 Y25.9196
G01 X-13.2093 Y25.8492
G01 X-13.2617 Y25.7747
G01 X-13.3086 Y25.7007
G01 X-13.3526 Y25.6229
G01 X-13.3935 Y25.5416
G01 X-13.4290 Y25.4615
G01 X-13.4605 Y25.3797
G01 X-13.4891 Y25.2933
G01 X-13.5134 Y25.2056
G01 X-13.5325 Y25.1201
G01 X-13.5475 Y25.0337
G01 X-13.5589 Y24.9417
G01 X-13.5653 Y24.8543
G01 X-13.5675 Y24.7667
G01 X-13.5653 Y24.6757
G01 X-13.5585 Y24.5849
G01 X-13.5478 Y24.4980
G01 X-13.5325 Y24.4099
G01 X-13.5130 Y24.3228
G01 X-13.4896 Y24.2383
G01 X-13.4611 Y24.1519
G01 X-13.4290 Y24.0685
G01 X-13.3935 Y23.9884
G01 X-13.3526 Y23.9071
G01 X-13.3086 Y23.8293
G01 X-13.2617 Y23.7553
G01 X-13.2093 Y23.6808
G01 X-13.1533 Y23.6091
G01 X-13.0960 Y23.5428
G01 X-13.0356 Y23.4793
G01 X-12.9685 Y23.4153
G01 X-12.9021 Y23.3581
G01 X-12.8317 Y23.3032
G01 X-12.7572 Y23.2508
G01 X-12.6832 Y23.2039
G01 X-12.6069 Y23.1607
G01 X-12.5241 Y23.1190
G01 X-12.4440 Y23.0835
G01 X-12.3622 Y23.0520
G01 X-12.2758 Y23.0234
G01 X-12.1881 Y22.9991
G01 X-12.1026 Y22.9800
G01 X-12.0162 Y22.9650
G01 X-11.9259 Y22.9538
G01 X-11.8368 Y22.9472
G01 X-11.7492 Y22.9450
G01 X-11.6582 Y22.9472
G01 X-11.5691 Y22.9538
G01 X-11.4822 Y22.9645
G01 X-11.3924 Y22.9800
G01 X-11.3053 Y22.9995
G01 X-11.2208 Y23.0229
G01 X-11.1344 Y23.0514
G01 X-11.0510 Y23.0835
G01 X-10.9709 Y23.1190
G01 X-10.8896 Y23.1599
G01 X-10.8118 Y23.2039
G01 X-10.7378 Y23.2508
G01 X-10.6633 Y23.3032
G01 X-10.5916 Y23.3592
G01 X-10.5253 Y23.4165
G01 X-10.4606 Y23.4781
G01 X-10.3978 Y23.5440
G01 X-10.3406 Y23.6104
G01 X-10.2867 Y23.6795
G01 X-10.2333 Y23.7553
G01 X-10.1864 Y23.8293
G01 X-10.1424 Y23.9071
G01 X-10.1022 Y23.9868
G01 X-10.0667 Y24.0669
G01 X-10.0333 Y24.1535
G01 X-10.0059 Y24.2367
G01 X-9.9820 Y24.3228
G01 X-9.9625 Y24.4099
G01 X-9.9475 Y24.4963
G01 X-9.9361 Y24.5883
G01 X-9.9297 Y24.6757
G01 X-9.9275 Y24.7641
G01 X-9.9298 Y24.8560
G01 X-9.9363 Y24.9434
G01 X-9.9472 Y25.0320
G01 X-9.9625 Y25.1201
G01 X-9.9816 Y25.2056
G01 X-10.0061 Y25.2941
G01 X-10.0339 Y25.3781
G01 X-10.0654 Y25.4599
G01 X-10.1026 Y25.5439
G01 X-10.1424 Y25.6229
G01 X-10.1860 Y25.6999
G01 X-10.2338 Y25.7754
G01 X-10.2546 Y25.8051
G01 X-9.2336 Y26.8261
G01 X-5.7150 Y26.8261
G01 X-5.6976 Y26.8266
G01 X-5.6680 Y26.8295
G01 X-5.6389 Y26.8353
G01 X-5.6213 Y26.8401
G01 X-5.6055 Y26.8454
G01 X-5.5797 Y26.8561
G01 X-5.5504 Y26.8716
G01 X-5.5229 Y26.8901
G01 X-5.5013 Y26.9079
G01 X-5.4892 Y26.9192
G01 X-4.0598 Y28.3486
G01 X-4.0479 Y28.3613
G01 X-4.0291 Y28.3843
G01 X-4.0191 Y28.3986
G01 X-4.0047 Y28.4226
G01 X-3.9898 Y28.4541
G01 X-3.9804 Y28.4804
G01 X-3.9753 Y28.4989
G01 X-3.9719 Y28.5142
G01 X-3.9678 Y28.5419
G01 X-3.9661 Y28.5750
G01 X-3.9661 Y30.6397
G01 X-3.9678 Y30.6719
G01 X-3.9698 Y30.6875
G01 X-3.9753 Y30.7149
G01 X-3.9848 Y30.7466
G01 X-3.9972 Y30.7764
G01 X-4.0116 Y30.8034
G01 X-4.0281 Y30.8281
G01 X-4.0398 Y30.8432
G01 X-4.0592 Y30.8646
G01 X-5.9654 Y32.7708
G01 X-5.9868 Y32.7902
G01 X-6.0005 Y32.8009
G01 X-6.0148 Y32.8109
G01 X-6.0388 Y32.8253
G01 X-6.0559 Y32.8339
G01 X-6.0817 Y32.8446
G01 X-6.1151 Y32.8547
G01 X-6.1425 Y32.8602
G01 X-6.1581 Y32.8622
G01 X-6.1912 Y32.8639
G01 X-16.2186 Y32.8639
G01 X-16.9300 Y33.5747
G01 X-16.9433 Y33.5860
G01 X-16.9672 Y33.6037
G01 X-16.9926 Y33.6190
G01 X-17.0081 Y33.6269
G01 X-17.0241 Y33.6339
G01 X-17.0521 Y33.6438
G01 X-17.0809 Y33.6511
G01 X-17.0989 Y33.6543
G01 X-17.1276 Y33.6571
G01 X-17.1450 Y33.6576
G01 X-22.0662 Y33.6576
G01 X-22.0976 Y33.6561
G01 X-22.1270 Y33.6518
G01 X-22.1456 Y33.6476
G01 X-22.1757 Y33.6383
G01 X-22.2031 Y33.6269
G01 X-22.2308 Y33.6121
G01 X-22.2569 Y33.5946
G01 X-22.2799 Y33.5758
G01 X-23.0367 Y32.8197
G00 Z2.0000
G00 X-20.6930 Y31.5221
G01 F70.00
G01 Z-0.0600
G01 F120.00
G01 X-20.6828 Y31.4955
G01 X-20.6613 Y31.4470
G01 X-20.6375 Y31.3997
G01 X-20.6113 Y31.3536
G01 X-20.5830 Y31.3088
G01 X-20.5524 Y31.2655
G01 X-20.5198 Y31.2237
G01 X-20.4852 Y31.1835
G01 X-20.4487 Y31.1451
G01 X-20.4103 Y31.1086
G01 X-20.3701 Y31.0740
G01 X-20.3283 Y31.0414
G01 X-20.2850 Y31.0108
G01 X-20.2402 Y30.9825
G01 X-20.1941 Y30.9563
G01 X-20.1468 Y30.9325
G01 X-20.0983 Y30.9110
G01 X-20.0717 Y30.9008
G01 X-20.0717 Y30.9650
G01 X-20.1227 Y30.9875
G01 X-20.1658 Y31.0092
G01 X-20.2108 Y31.0348
G01 X-20.2517 Y31.0607
G01 X-20.2926 Y31.0895
G01 X-20.3321 Y31.1203
G01 X-20.3700 Y31.1530
G01 X-20.4062 Y31.1876
G01 X-20.4419 Y31.2251
G01 X-20.4735 Y31.2617
G01 X-20.5032 Y31.2998
G01 X-20.5321 Y31.3407
G01 X-20.5599 Y31.3844
G01 X-20.5846 Y31.4280
G01 X-20.6071 Y31.4727
G01 X-20.6288 Y31.5221
G01 X-20.6930 Y31.5221
G00 Z2.0000
G00 X-20.1623 Y32.9474
G01 F70.00
G01 Z-0.0600
G01 F120.00
G01 X-20.1569 Y32.9344
G01 X-20.1529 Y32.9213
G01 X-20.1502 Y32.9078
G01 X-20.1489 Y32.8951
G01 X-20.0989 Y32.9171
G01 X-20.0522 Y32.9351
G01 X-20.0151 Y32.9474
G01 X-20.1623 Y32.9474
G00 Z2.0000
G00 X-19.3549 Y32.9474
G01 F70.00
G01 Z-0.0600
G01 F120.00
G01 X-19.3178 Y32.9351
G01 X-19.2711 Y32.9171
G01 X-19.2211 Y32.8951
G01 X-19.2198 Y32.9078
G01 X-19.2171 Y32.9213
G01 X-19.2131 Y32.9344
G01 X-19.2077 Y32.9474
G01 X-19.3549 Y32.9474
G00 Z2.0000
G00 X-19.6417 Y34.5213
G01 F70.00
G01 Z-0.0600
G01 F120.00
G01 X-19.6470 Y34.5343
G01 X-19.6510 Y34.5474
G01 X-19.6537 Y34.5609
G01 X-19.6551 Y34.5746
G01 X-19.6551 Y34.5883
G01 X-19.6537 Y34.6020
G01 X-19.6510 Y34.6154
G01 X-19.6466 Y34.6297
G01 X-19.6850 Y34.6288
G01 X-19.7234 Y34.6297
G01 X-19.7190 Y34.6154
G01 X-19.7163 Y34.6020
G01 X-19.7149 Y34.5883
G01 X-19.7149 Y34.5746
G01 X-19.7163 Y34.5609
G01 X-19.7190 Y34.5474
G01 X-19.7230 Y34.5343
G01 X-19.7283 Y34.5213
G01 X-19.6417 Y34.5213
G00 Z2.0000
G00 X-18.7168 Y36.0389
G01 F70.00
G01 Z-0.0600
G01 F120.00
G01 X-18.7249 Y36.0632
G01 X-18.7423 Y36.1083
G01 X-18.7626 Y36.1541
G01 X-18.7854 Y36.1996
G01 X-18.8097 Y36.2424
G01 X-18.8369 Y36.2855
G01 X-18.8657 Y36.3264
G01 X-18.8965 Y36.3659
G01 X-18.9287 Y36.4032
G01 X-18.9638 Y36.4400
G01 X-19.0000 Y36.4746
G01 X-19.0379 Y36.5073
G01 X-19.0774 Y36.5381
G01 X-19.1183 Y36.5669
G01 X-19.1606 Y36.5937
G01 X-19.2042 Y36.6184
G01 X-19.2481 Y36.6405
G01 X-19.2947 Y36.6612
G01 X-19.3414 Y36.6792
G01 X-19.3889 Y36.6949
G01 X-19.4372 Y36.7082
G01 X-19.4860 Y36.7192
G01 X-19.5353 Y36.7278
G01 X-19.5850 Y36.7339
G01 X-19.6350 Y36.7376
G01 X-19.6850 Y36.7388
G01 X-19.7350 Y36.7376
G01 X-19.7850 Y36.7339
G01 X-19.8347 Y36.7278
G01 X-19.8840 Y36.7192
G01 X-19.9328 Y36.7082
G01 X-19.9811 Y36.6949
G01 X-20.0278 Y36.6795
G01 X-20.0753 Y36.6612
G01 X-20.1211 Y36.6409
G01 X-20.1658 Y36.6184
G01 X-20.2094 Y36.5937
G01 X-20.2517 Y36.5669
G01 X-20.2926 Y36.5381
G01 X-20.3321 Y36.5073
G01 X-20.3700 Y36.4746
G01 X-20.4062 Y36.4400
G01 X-20.4408 Y36.4038
G01 X-20.4735 Y36.3659
G01 X-20.5043 Y36.3264
G01 X-20.5331 Y36.2855
G01 X-20.5599 Y36.2432
G01 X-20.5846 Y36.1996
G01 X-20.6071 Y36.1549
G01 X-20.6274 Y36.1091
G01 X-20.6454 Y36.0624
G01 X-20.6611 Y36.0149
G01 X-20.6744 Y35.9666
G01 X-20.6854 Y35.9178
G01 X-20.6940 Y35.8685
G01 X-20.7001 Y35.8188
G01 X-20.7038 Y35.7688
G01 X-20.7050 Y35.7188
G01 X-20.7038 Y35.6688
G01 X-20.7001 Y35.6188
G01 X-20.6940 Y35.5691
G01 X-20.6854 Y35.5198
G01 X-20.6744 Y35.4710
G01 X-20.6611 Y35.4227
G01 X-20.6457 Y35.3760
G01 X-20.6267 Y35.3269
G01 X-20.6071 Y35.2827
G01 X-20.5846 Y35.2380
G01 X-20.5599 Y35.1944
G01 X-20.5340 Y35.1536
G01 X-20.5043 Y35.1112
G01 X-20.4735 Y35.0717
G01 X-20.4419 Y35.0351
G01 X-20.4062 Y34.9976
G01 X-20.3700 Y34.9630
G01 X-20.3334 Y34.9314
G01 X-20.2926 Y34.8995
G01 X-20.2517 Y34.8707
G01 X-20.2108 Y34.8448
G01 X-20.1658 Y34.8192
G01 X-20.1211 Y34.7967
G01 X-20.0769 Y34.7771
G01 X-20.0286 Y34.7584
G01 X-19.9811 Y34.7427
G01 X-19.9345 Y34.7298
G01 X-19.8840 Y34.7184
G01 X-19.8330 Y34.7096
G01 X-19.7850 Y34.7037
G01 X-19.7359 Y34.7001
G01 X-19.6833 Y34.6988
G01 X-19.6350 Y34.7000
G01 X-19.5850 Y34.7037
G01 X-19.5353 Y34.7098
G01 X-19.4877 Y34.7181
G01 X-19.4355 Y34.7298
G01 X-19.3889 Y34.7427
G01 X-19.3414 Y34.7584
G01 X-19.2947 Y34.7764
G01 X-19.2505 Y34.7960
G01 X-19.2027 Y34.8201
G01 X-19.1606 Y34.8439
G01 X-19.1176 Y34.8712
G01 X-19.0774 Y34.8995
G01 X-19.0393 Y34.9293
G01 X-18.9988 Y34.9642
G01 X-18.9638 Y34.9976
G01 X-18.9292 Y35.0338
G01 X-18.8965 Y35.0717
G01 X-18.8662 Y35.1105
G01 X-18.8369 Y35.1521
G01 X-18.8110 Y35.1930
G01 X-18.7850 Y35.2387
G01 X-18.7629 Y35.2827
G01 X-18.7430 Y35.3277
G01 X-18.7249 Y35.3744
G01 X-18.7168 Y35.3987
G01 X-16.3251 Y35.3987
G01 X-15.4550 Y34.5290
G01 X-15.4321 Y34.5101
G01 X-15.4164 Y34.4991
G01 X-15.3909 Y34.4839
G01 X-15.3641 Y34.4711
G01 X-15.3462 Y34.4642
G01 X-15.3178 Y34.4557
G01 X-15.2887 Y34.4498
G01 X-15.2705 Y34.4475
G01 X-15.2400 Y34.4461
G01 X-5.6888 Y34.4461
G01 X-2.0663 Y30.8236
G01 X-2.0663 Y13.9438
G01 X-3.5811 Y12.4290
G01 X-3.6924 Y12.5403
G01 X-3.7004 Y12.5468
G01 X-3.7085 Y12.5517
G01 X-3.7187 Y12.5561
G01 X-3.7296 Y12.5587
G01 X-3.7407 Y12.5596
G01 X-3.7518 Y12.5587
G01 X-3.7627 Y12.5561
G01 X-3.7722 Y12.5521
G01 X-3.7817 Y12.5463
G01 X-3.7902 Y12.5391
G01 X-4.9216 Y11.4077
G01 X-4.9278 Y11.4006
G01 X-4.9334 Y11.3920
G01 X-4.9377 Y11.3826
G01 X-4.9406 Y11.3727
G01 X-4.9420 Y11.3625
G01 X-4.9418 Y11.3522
G01 X-4.9402 Y11.3420
G01 X-4.9371 Y11.3322
G01 X-4.9326 Y11.3230
G01 X-4.9278 Y11.3158
G01 X-4.9222 Y11.3093
G01 X-4.8115 Y11.1986
G01 X-6.3732 Y9.6370
G01 X-6.4010 Y9.6763
G01 X-6.4398 Y9.7261
G01 X-6.4831 Y9.7765
G01 X-6.5290 Y9.8246
G01 X-6.5747 Y9.8681
G01 X-6.6225 Y9.9093
G01 X-6.6749 Y9.9502
G01 X-6.7293 Y9.9885
G01 X-6.7826 Y10.0222
G01 X-6.8375 Y10.0533
G01 X-6.8953 Y10.0825
G01 X-6.9561 Y10.1095
G01 X-7.0181 Y10.1334
G01 X-7.0780 Y10.1532
G01 X-7.1388 Y10.1700
G01 X-7.2037 Y10.1846
G01 X-7.2675 Y10.1957
G01 X-7.3335 Y10.2038
G01 X-7.3964 Y10.2084
G01 X-7.4595 Y10.2100
G01 X-7.5251 Y10.2084
G01 X-7.5923 Y10.2035
G01 X-7.6549 Y10.1957
G01 X-7.7170 Y10.1850
G01 X-7.7819 Y10.1704
G01 X-7.8460 Y10.1526
G01 X-7.9059 Y10.1328
G01 X-7.9647 Y10.1102
G01 X-8.0256 Y10.0833
G01 X-8.0834 Y10.0541
G01 X-8.1383 Y10.0231
G01 X-8.1946 Y9.9875
G01 X-8.2489 Y9.9492
G01 X-8.2986 Y9.9104
G01 X-8.3464 Y9.8692
G01 X-8.3946 Y9.8234
G01 X-8.4404 Y9.7752
G01 X-8.4816 Y9.7274
G01 X-8.5204 Y9.6777
G01 X-8.5587 Y9.6234
G01 X-8.5943 Y9.5671
G01 X-8.6253 Y9.5122
G01 X-8.6515 Y9.4603
G01 X-11.9859 Y9.4603
G01 X-12.0121 Y9.5122
G01 X-12.0431 Y9.5671
G01 X-12.0787 Y9.6234
G01 X-12.1160 Y9.6763
G01 X-12.1548 Y9.7261
G01 X-12.1981 Y9.7765
G01 X-12.2440 Y9.8246
G01 X-12.2897 Y9.8681
G01 X-12.3388 Y9.9104
G01 X-12.3913 Y9.9512
G01 X-12.4428 Y9.9875
G01 X-12.4976 Y10.0222
G01 X-12.5555 Y10.0549
G01 X-12.6118 Y10.0833
G01 X-12.6711 Y10.1095
G01 X-12.7331 Y10.1334
G01 X-12.7930 Y10.1532
G01 X-12.8555 Y10.1704
G01 X-12.9187 Y10.1846
G01 X-12.9808 Y10.1954
G01 X-13.0468 Y10.2036
G01 X-13.1114 Y10.2084
G01 X-13.1745 Y10.2100
G01 X-13.2418 Y10.2084
G01 X-13.3056 Y10.2036
G01 X-13.3699 Y10.1957
G01 X-13.4337 Y10.1846
G01 X-13.4953 Y10.1708
G01 X-13.5610 Y10.1526
G01 X-13.6209 Y10.1328
G01 X-13.6813 Y10.1095
G01 X-13.7406 Y10.0833
G01 X-13.7969 Y10.0549
G01 X-13.8563 Y10.0213
G01 X-13.9096 Y9.9875
G01 X-13.9625 Y9.9502
G01 X-14.0136 Y9.9104
G01 X-14.0614 Y9.8692
G01 X-14.1108 Y9.8222
G01 X-14.1543 Y9.7765
G01 X-14.1966 Y9.7274
G01 X-14.2364 Y9.6763
G01 X-14.2728 Y9.6248
G01 X-14.3093 Y9.5671
G01 X-14.3403 Y9.5122
G01 X-14.3695 Y9.4544
G01 X-14.3957 Y9.3951
G01 X-14.4184 Y9.3363
G01 X-14.4398 Y9.2715
G01 X-14.4566 Y9.2107
G01 X-14.4708 Y9.1475
G01 X-14.4819 Y9.0837
G01 X-14.4898 Y9.0194
G01 X-14.4946 Y8.9548
G01 X-14.4962 Y8.8900
G01 X-14.4946 Y8.8252
G01 X-14.4898 Y8.7606
G01 X-14.4819 Y8.6963
G01 X-14.4708 Y8.6325
G01 X-14.4566 Y8.5693
G01 X-14.4394 Y8.5068
G01 X-14.4190 Y8.4453
G01 X-14.3957 Y8.3849
G01 X-14.3695 Y8.3256
G01 X-14.3403 Y8.2678
G01 X-14.3084 Y8.2114
G01 X-14.2737 Y8.1566
G01 X-14.2364 Y8.1037
G01 X-14.1966 Y8.0526
G01 X-14.1543 Y8.0035
G01 X-14.1096 Y7.9566
G01 X-14.0627 Y7.9119
G01 X-14.0136 Y7.8696
G01 X-13.9625 Y7.8298
G01 X-13.9096 Y7.7925
G01 X-13.8548 Y7.7578
G01 X-13.7984 Y7.7259
G01 X-13.7406 Y7.6967
G01 X-13.6813 Y7.6705
G01 X-13.6209 Y7.6472
G01 X-13.5594 Y7.6268
G01 X-13.4969 Y7.6096
G01 X-13.4337 Y7.5954
G01 X-13.3699 Y7.5843
G01 X-13.3073 Y7.5765
G01 X-13.2393 Y7.5715
G01 X-13.1762 Y7.5700
G01 X-13.1114 Y7.5716
G01 X-13.0468 Y7.5764
G01 X-12.9842 Y7.5841
G01 X-12.9170 Y7.5957
G01 X-12.8555 Y7.6096
G01 X-12.7930 Y7.6268
G01 X-12.7315 Y7.6472
G01 X-12.6727 Y7.6698
G01 X-12.6103 Y7.6975
G01 X-12.5540 Y7.7259
G01 X-12.4976 Y7.7578
G01 X-12.4428 Y7.7925
G01 X-12.3913 Y7.8288
G01 X-12.3375 Y7.8707
G01 X-12.2897 Y7.9119
G01 X-12.2428 Y7.9566
G01 X-12.1981 Y8.0035
G01 X-12.1569 Y8.0513
G01 X-12.1150 Y8.1051
G01 X-12.0787 Y8.1566
G01 X-12.0440 Y8.2114
G01 X-12.0121 Y8.2678
G01 X-11.9859 Y8.3197
G01 X-8.6515 Y8.3197
G01 X-8.6253 Y8.2678
G01 X-8.5934 Y8.2114
G01 X-8.5587 Y8.1566
G01 X-8.5214 Y8.1037
G01 X-8.4816 Y8.0526
G01 X-8.4393 Y8.0035
G01 X-8.3946 Y7.9566
G01 X-8.3477 Y7.9119
G01 X-8.2986 Y7.8696
G01 X-8.2475 Y7.8298
G01 X-8.1946 Y7.7925
G01 X-8.1398 Y7.7578
G01 X-8.0834 Y7.7259
G01 X-8.0256 Y7.6967
G01 X-7.9663 Y7.6705
G01 X-7.9075 Y7.6478
G01 X-7.8427 Y7.6264
G01 X-7.7819 Y7.6096
G01 X-7.7170 Y7.5950
G01 X-7.6549 Y7.5843
G01 X-7.5906 Y7.5764
G01 X-7.5260 Y7.5716
G01 X-7.4595 Y7.5700
G01 X-7.3964 Y7.5716
G01 X-7.3318 Y7.5764
G01 X-7.2675 Y7.5843
G01 X-7.2037 Y7.5954
G01 X-7.1405 Y7.6096
G01 X-7.0780 Y7.6268
G01 X-7.0165 Y7.6472
G01 X-6.9561 Y7.6705
G01 X-6.8968 Y7.6967
G01 X-6.8405 Y7.7251
G01 X-6.7826 Y7.7578
G01 X-6.7278 Y7.7925
G01 X-6.6763 Y7.8288
G01 X-6.6225 Y7.8707
G01 X-6.5747 Y7.9119
G01 X-6.5278 Y7.9566
G01 X-6.4831 Y8.0035
G01 X-6.4419 Y8.0513
G01 X-6.4000 Y8.1051
G01 X-6.3637 Y8.1566
G01 X-6.3299 Y8.2099
G01 X-6.2963 Y8.2693
G01 X-6.2679 Y8.3256
G01 X-6.2417 Y8.3849
G01 X-6.2184 Y8.4453
G01 X-6.1986 Y8.5052
G01 X-6.1808 Y8.5693
G01 X-6.1662 Y8.6342
G01 X-6.1555 Y8.6963
G01 X-6.1476 Y8.7606
G01 X-6.1428 Y8.8252
G01 X-6.1412 Y8.8883
G01 X-6.1433 Y8.9615
G01 X-4.3588 Y10.7459
G01 X-3.9979 Y10.3853
G01 X-3.9895 Y10.3793
G01 X-3.9804 Y10.3746
G01 X-3.9715 Y10.3714
G01 X-3.9614 Y10.3694
G01 X-3.9511 Y10.3689
G01 X-3.9417 Y10.3698
G01 X-3.9317 Y10.3722
G01 X-3.9221 Y10.3760
G01 X-3.9125 Y10.3817
G01 X-3.9033 Y10.3894
G01 X-2.7695 Y11.5233
G01 X-2.7618 Y11.5336
G01 X-2.7564 Y11.5443
G01 X-2.7529 Y11.5558
G01 X-2.7514 Y11.5686
G01 X-2.7522 Y11.5806
G01 X-2.7552 Y11.5931
G01 X-2.7601 Y11.6041
G01 X-2.7667 Y11.6140
G01 X-3.1284 Y11.9763
G01 X-1.5186 Y13.5861
G01 X-1.4998 Y13.6068
G01 X-1.4891 Y13.6205
G01 X-1.4791 Y13.6348
G01 X-1.4647 Y13.6588
G01 X-1.4498 Y13.6903
G01 X-1.4404 Y13.7166
G01 X-1.4355 Y13.7342
G01 X-1.4319 Y13.7504
G01 X-1.4278 Y13.7781
G01 X-1.4261 Y13.8112
G01 X-1.4261 Y30.9562
G01 X-1.4276 Y30.9876
G01 X-1.4322 Y31.0187
G01 X-1.4399 Y31.0491
G01 X-1.4504 Y31.0787
G01 X-1.4639 Y31.1071
G01 X-1.4800 Y31.1341
G01 X-1.4987 Y31.1593
G01 X-1.5198 Y31.1826
G01 X-5.3298 Y34.9926
G01 X-5.3545 Y35.0147
G01 X-5.3769 Y35.0314
G01 X-5.3916 Y35.0408
G01 X-5.4068 Y35.0493
G01 X-5.4321 Y35.0613
G01 X-5.4641 Y35.0728
G01 X-5.4921 Y35.0798
G01 X-5.5092 Y35.0829
G01 X-5.5388 Y35.0858
G01 X-5.5562 Y35.0863
G01 X-15.1074 Y35.0863
G01 X-15.9769 Y35.9554
G01 X-16.0032 Y35.9769
G01 X-16.0265 Y35.9925
G01 X-16.0416 Y36.0011
G01 X-16.0716 Y36.0152
G01 X-16.0979 Y36.0246
G01 X-16.1139 Y36.0291
G01 X-16.1472 Y36.0357
G01 X-16.1751 Y36.0384
G01 X-16.1925 Y36.0389
G01 X-18.7168 Y36.0389
G00 Z2.0000
G00 X-19.2983 Y30.9008
G01 F70.00
G01 Z-0.0600
G01 F120.00
G01 X-19.2717 Y30.9110
G01 X-19.2232 Y30.9325
G01 X-19.1759 Y30.9563
G01 X-19.1298 Y30.9825
G01 X-19.0850 Y31.0108
G01 X-19.0417 Y31.0414
G01 X-18.9999 Y31.0740
G01 X-18.9597 Y31.1086
G01 X-18.9213 Y31.1451
G01 X-18.8848 Y31.1835
G01 X-18.8502 Y31.2237
G01 X-18.8176 Y31.2655
G01 X-18.7870 Y31.3088
G01 X-18.7587 Y31.3536
G01 X-18.7325 Y31.3997
G01 X-18.7087 Y31.4470
G01 X-18.6872 Y31.4955
G01 X-18.6770 Y31.5221
G01 X-18.7412 Y31.5221
G01 X-18.7637 Y31.4711
G01 X-18.7854 Y31.4280
G01 X-18.8110 Y31.3830
G01 X-18.8369 Y31.3421
G01 X-18.8657 Y31.3012
G01 X-18.8965 Y31.2617
G01 X-18.9292 Y31.2238
G01 X-18.9638 Y31.1876
G01 X-19.0013 Y31.1519
G01 X-19.0379 Y31.1203
G01 X-19.0760 Y31.0906
G01 X-19.1169 Y31.0617
G01 X-19.1606 Y31.0339
G01 X-19.2042 Y31.0092
G01 X-19.2489 Y30.9867
G01 X-19.2983 Y30.9650
G01 X-19.2983 Y30.9008
G00 Z2.0000
G00 X-17.2845 Y29.5232
G01 F70.00
G01 Z-0.0600
G01 F120.00
G01 X-17.3225 Y29.5423
G01 X-17.3705 Y29.5636
G01 X-17.4195 Y29.5825
G01 X-17.4694 Y29.5989
G01 X-17.5200 Y29.6129
G01 X-17.5713 Y29.6244
G01 X-17.6230 Y29.6334
G01 X-17.6751 Y29.6398
G01 X-17.7275 Y29.6437
G01 X-17.7800 Y29.6450
G01 X-17.8325 Y29.6437
