(G-CODE GENERATED BY FLATCAM v8.993 - www.flatcam.org - Version Date: 2020/06/05)

(Name: CW_Ф2_низ.gbr_cutout_cnc)
(Type: G-code from Geometry)
(Units: MM)

(Created on Wednesday, 08 December 2021 at 16:16)

(This preprocessor is the default preprocessor used by FlatCAM.)
(It is made to work with MACH3 compatible motion controllers.)

(TOOL DIAMETER: 2.0 mm)
(Feedrate_XY: 120.0 mm/min)
(Feedrate_Z: 70.0 mm/min)
(Feedrate rapids 1500.0 mm/min)

(Z_Cut: -1.9000000000000001 mm)
(DepthPerCut: 0.1 mm <=>19 passes)
(Z_Move: 2.0 mm)
(Z Start: None mm)
(Z End: 25.0 mm)
(Steps per circle: 128)
(Preprocessor Geometry: default)

(X range:  -46.1000 ...    1.1000  mm)
(Y range:   -1.1000 ...   41.1000  mm)

(Spindle Speed: 10000 RPM)
G21
G90
G94



G01 F120.00
G00 Z2.0000

M03 S10000
G00 X-0.0000 Y-1.1000
G01 F70.00
G01 Z-0.1000
G01 F120.00
G01 X-45.0000 Y-1.1000
G01 X-45.1078 Y-1.0947
G01 X-45.2146 Y-1.0789
G01 X-45.3193 Y-1.0526
G01 X-45.4210 Y-1.0163
G01 X-45.5185 Y-0.9701
G01 X-45.6111 Y-0.9146
G01 X-45.6978 Y-0.8503
G01 X-45.7778 Y-0.7778
G01 X-45.8503 Y-0.6978
G01 X-45.9146 Y-0.6111
G01 X-45.9701 Y-0.5185
G01 X-46.0163 Y-0.4210
G01 X-46.0526 Y-0.3193
G01 X-46.0789 Y-0.2146
G01 X-46.0947 Y-0.1078
G01 X-46.1000 Y0.0000
G01 X-46.1000 Y40.0000
G01 X-46.0947 Y40.1078
G01 X-46.0789 Y40.2146
G01 X-46.0526 Y40.3193
G01 X-46.0163 Y40.4210
G01 X-45.9701 Y40.5185
G01 X-45.9146 Y40.6111
G01 X-45.8503 Y40.6978
G01 X-45.7778 Y40.7778
G01 X-45.6978 Y40.8503
G01 X-45.6111 Y40.9146
G01 X-45.5185 Y40.9701
G01 X-45.4210 Y41.0163
G01 X-45.3193 Y41.0526
G01 X-45.2146 Y41.0789
G01 X-45.1078 Y41.0947
G01 X-45.0000 Y41.1000
G01 X-0.0000 Y41.1000
G01 X0.1078 Y41.0947
G01 X0.2146 Y41.0789
G01 X0.3193 Y41.0526
G01 X0.4210 Y41.0163
G01 X0.5185 Y40.9701
G01 X0.6111 Y40.9146
G01 X0.6978 Y40.8503
G01 X0.7778 Y40.7778
G01 X0.8503 Y40.6978
G01 X0.9146 Y40.6111
G01 X0.9701 Y40.5185
G01 X1.0163 Y40.4210
G01 X1.0526 Y40.3193
G01 X1.0789 Y40.2146
G01 X1.0947 Y40.1078
G01 X1.1000 Y40.0000
G01 X1.1000 Y0.0000
G01 X1.0947 Y-0.1078
G01 X1.0789 Y-0.2146
G01 X1.0526 Y-0.3193
G01 X1.0163 Y-0.4210
G01 X0.9701 Y-0.5185
G01 X0.9146 Y-0.6111
G01 X0.8503 Y-0.6978
G01 X0.7778 Y-0.7778
G01 X0.6978 Y-0.8503
G01 X0.6111 Y-0.9146
G01 X0.5185 Y-0.9701
G01 X0.4210 Y-1.0163
G01 X0.3193 Y-1.0526
G01 X0.2146 Y-1.0789
G01 X0.1078 Y-1.0947
G01 X-0.0000 Y-1.1000
G00 X-0.0000 Y-1.1000
G01 F70.00
G01 Z-0.2000
G01 F120.00
G01 X0.1078 Y-1.0947
G01 X0.2146 Y-1.0789
G01 X0.3193 Y-1.0526
G01 X0.4210 Y-1.0163
G01 X0.5185 Y-0.9701
G01 X0.6111 Y-0.9146
G01 X0.6978 Y-0.8503
G01 X0.7778 Y-0.7778
G01 X0.8503 Y-0.6978
G01 X0.9146 Y-0.6111
G01 X0.9701 Y-0.5185
G01 X1.0163 Y-0.4210
G01 X1.0526 Y-0.3193
G01 X1.0789 Y-0.2146
G01 X1.0947 Y-0.1078
G01 X1.1000 Y0.0000
G01 X1.1000 Y40.0000
G01 X1.0947 Y40.1078
G01 X1.0789 Y40.2146
G01 X1.0526 Y40.3193
G01 X1.0163 Y40.4210
G01 X0.9701 Y40.5185
G01 X0.9146 Y40.6111
G01 X0.8503 Y40.6978
G01 X0.7778 Y40.7778
G01 X0.6978 Y40.8503
G01 X0.6111 Y40.9146
G01 X0.5185 Y40.9701
G01 X0.4210 Y41.0163
G01 X0.3193 Y41.0526
G01 X0.2146 Y41.0789
G01 X0.1078 Y41.0947
G01 X-0.0000 Y41.1000
G01 X-45.0000 Y41.1000
G01 X-45.1078 Y41.0947
G01 X-45.2146 Y41.0789
G01 X-45.3193 Y41.0526
G01 X-45.4210 Y41.0163
G01 X-45.5185 Y40.9701
G01 X-45.6111 Y40.9146
G01 X-45.6978 Y40.8503
G01 X-45.7778 Y40.7778
G01 X-45.8503 Y40.6978
G01 X-45.9146 Y40.6111
G01 X-45.9701 Y40.5185
G01 X-46.0163 Y40.4210
G01 X-46.0526 Y40.3193
G01 X-46.0789 Y40.2146
G01 X-46.0947 Y40.1078
G01 X-46.1000 Y40.0000
G01 X-46.1000 Y0.0000
G01 X-46.0947 Y-0.1078
G01 X-46.0789 Y-0.2146
G01 X-46.0526 Y-0.3193
G01 X-46.0163 Y-0.4210
G01 X-45.9701 Y-0.5185
G01 X-45.9146 Y-0.6111
G01 X-45.8503 Y-0.6978
G01 X-45.7778 Y-0.7778
G01 X-45.6978 Y-0.8503
G01 X-45.6111 Y-0.9146
G01 X-45.5185 Y-0.9701
G01 X-45.4210 Y-1.0163
G01 X-45.3193 Y-1.0526
G01 X-45.2146 Y-1.0789
G01 X-45.1078 Y-1.0947
G01 X-45.0000 Y-1.1000
G01 X-0.0000 Y-1.1000
G00 X-0.0000 Y-1.1000
G01 F70.00
G01 Z-0.3000
G01 F120.00
G01 X-45.0000 Y-1.1000
G01 X-45.1078 Y-1.0947
G01 X-45.2146 Y-1.0789
G01 X-45.3193 Y-1.0526
G01 X-45.4210 Y-1.0163
G01 X-45.5185 Y-0.9701
G01 X-45.6111 Y-0.9146
G01 X-45.6978 Y-0.8503
G01 X-45.7778 Y-0.7778
G01 X-45.8503 Y-0.6978
G01 X-45.9146 Y-0.6111
G01 X-45.9701 Y-0.5185
G01 X-46.0163 Y-0.4210
G01 X-46.0526 Y-0.3193
G01 X-46.0789 Y-0.2146
G01 X-46.0947 Y-0.1078
G01 X-46.1000 Y0.0000
G01 X-46.1000 Y40.0000
G01 X-46.0947 Y40.1078
G01 X-46.0789 Y40.2146
G01 X-46.0526 Y40.3193
G01 X-46.0163 Y40.4210
G01 X-45.9701 Y40.5185
G01 X-45.9146 Y40.6111
G01 X-45.8503 Y40.6978
G01 X-45.7778 Y40.7778
G01 X-45.6978 Y40.8503
G01 X-45.6111 Y40.9146
G01 X-45.5185 Y40.9701
G01 X-45.4210 Y41.0163
G01 X-45.3193 Y41.0526
G01 X-45.2146 Y41.0789
G01 X-45.1078 Y41.0947
G01 X-45.0000 Y41.1000
G01 X-0.0000 Y41.1000
G01 X0.1078 Y41.0947
G01 X0.2146 Y41.0789
G01 X0.3193 Y41.0526
G01 X0.4210 Y41.0163
G01 X0.5185 Y40.9701
G01 X0.6111 Y40.9146
G01 X0.6978 Y40.8503
G01 X0.7778 Y40.7778
G01 X0.8503 Y40.6978
G01 X0.9146 Y40.6111
G01 X0.9701 Y40.5185
G01 X1.0163 Y40.4210
G01 X1.0526 Y40.3193
G01 X1.0789 Y40.2146
G01 X1.0947 Y40.1078
G01 X1.1000 Y40.0000
G01 X1.1000 Y0.0000
G01 X1.0947 Y-0.1078
G01 X1.0789 Y-0.2146
G01 X1.0526 Y-0.3193
G01 X1.0163 Y-0.4210
G01 X0.9701 Y-0.5185
G01 X0.9146 Y-0.6111
G01 X0.8503 Y-0.6978
G01 X0.7778 Y-0.7778
G01 X0.6978 Y-0.8503
G01 X0.6111 Y-0.9146
G01 X0.5185 Y-0.9701
G01 X0.4210 Y-1.0163
G01 X0.3193 Y-1.0526
G01 X0.2146 Y-1.0789
G01 X0.1078 Y-1.0947
G01 X-0.0000 Y-1.1000
G00 X-0.0000 Y-1.1000
G01 F70.00
G01 Z-0.4000
G01 F120.00
G01 X0.1078 Y-1.0947
G01 X0.2146 Y-1.0789
G01 X0.3193 Y-1.0526
G01 X0.4210 Y-1.0163
G01 X0.5185 Y-0.9701
G01 X0.6111 Y-0.9146
G01 X0.6978 Y-0.8503
G01 X0.7778 Y-0.7778
G01 X0.8503 Y-0.6978
G01 X0.9146 Y-0.6111
G01 X0.9701 Y-0.5185
G01 X1.0163 Y-0.4210
G01 X1.0526 Y-0.3193
G01 X1.0789 Y-0.2146
G01 X1.0947 Y-0.1078
G01 X1.1000 Y0.0000
G01 X1.1000 Y40.0000
G01 X1.0947 Y40.1078
G01 X1.0789 Y40.2146
G01 X1.0526 Y40.3193
G01 X1.0163 Y40.4210
G01 X0.9701 Y40.5185
G01 X0.9146 Y40.6111
G01 X0.8503 Y40.6978
G01 X0.7778 Y40.7778
G01 X0.6978 Y40.8503
G01 X0.6111 Y40.9146
G01 X0.5185 Y40.9701
G01 X0.4210 Y41.0163
G01 X0.3193 Y41.0526
G01 X0.2146 Y41.0789
G01 X0.1078 Y41.0947
G01 X-0.0000 Y41.1000
G01 X-45.0000 Y41.1000
G01 X-45.1078 Y41.0947
G01 X-45.2146 Y41.0789
G01 X-45.3193 Y41.0526
G01 X-45.4210 Y41.0163
G01 X-45.5185 Y40.9701
G01 X-45.6111 Y40.9146
G01 X-45.6978 Y40.8503
G01 X-45.7778 Y40.7778
G01 X-45.8503 Y40.6978
G01 X-45.9146 Y40.6111
G01 X-45.9701 Y40.5185
G01 X-46.0163 Y40.4210
G01 X-46.0526 Y40.3193
G01 X-46.0789 Y40.2146
G01 X-46.0947 Y40.1078
G01 X-46.1000 Y40.0000
G01 X-46.1000 Y0.0000
G01 X-46.0947 Y-0.1078
G01 X-46.0789 Y-0.2146
G01 X-46.0526 Y-0.3193
G01 X-46.0163 Y-0.4210
G01 X-45.9701 Y-0.5185
G01 X-45.9146 Y-0.6111
G01 X-45.8503 Y-0.6978
G01 X-45.7778 Y-0.7778
G01 X-45.6978 Y-0.8503
G01 X-45.6111 Y-0.9146
G01 X-45.5185 Y-0.9701
G01 X-45.4210 Y-1.0163
G01 X-45.3193 Y-1.0526
G01 X-45.2146 Y-1.0789
G01 X-45.1078 Y-1.0947
G01 X-45.0000 Y-1.1000
G01 X-0.0000 Y-1.1000
G00 X-0.0000 Y-1.1000
G01 F70.00
G01 Z-0.5000
G01 F120.00
G01 X-45.0000 Y-1.1000
G01 X-45.1078 Y-1.0947
G01 X-45.2146 Y-1.0789
G01 X-45.3193 Y-1.0526
G01 X-45.4210 Y-1.0163
G01 X-45.5185 Y-0.9701
G01 X-45.6111 Y-0.9146
G01 X-45.6978 Y-0.8503
G01 X-45.7778 Y-0.7778
G01 X-45.8503 Y-0.6978
G01 X-45.9146 Y-0.6111
G01 X-45.9701 Y-0.5185
G01 X-46.0163 Y-0.4210
G01 X-46.0526 Y-0.3193
G01 X-46.0789 Y-0.2146
G01 X-46.0947 Y-0.1078
G01 X-46.1000 Y0.0000
G01 X-46.1000 Y40.0000
G01 X-46.0947 Y40.1078
G01 X-46.0789 Y40.2146
G01 X-46.0526 Y40.3193
G01 X-46.0163 Y40.4210
G01 X-45.9701 Y40.5185
G01 X-45.9146 Y40.6111
G01 X-45.8503 Y40.6978
G01 X-45.7778 Y40.7778
G01 X-45.6978 Y40.8503
G01 X-45.6111 Y40.9146
G01 X-45.5185 Y40.9701
G01 X-45.4210 Y41.0163
G01 X-45.3193 Y41.0526
G01 X-45.2146 Y41.0789
G01 X-45.1078 Y41.0947
G01 X-45.0000 Y41.1000
G01 X-0.0000 Y41.1000
G01 X0.1078 Y41.0947
G01 X0.2146 Y41.0789
G01 X0.3193 Y41.0526
G01 X0.4210 Y41.0163
G01 X0.5185 Y40.9701
G01 X0.6111 Y40.9146
G01 X0.6978 Y40.8503
G01 X0.7778 Y40.7778
G01 X0.8503 Y40.6978
G01 X0.9146 Y40.6111
G01 X0.9701 Y40.5185
G01 X1.0163 Y40.4210
G01 X1.0526 Y40.3193
G01 X1.0789 Y40.2146
G01 X1.0947 Y40.1078
G01 X1.1000 Y40.0000
G01 X1.1000 Y0.0000
G01 X1.0947 Y-0.1078
G01 X1.0789 Y-0.2146
G01 X1.0526 Y-0.3193
G01 X1.0163 Y-0.4210
G01 X0.9701 Y-0.5185
G01 X0.9146 Y-0.6111
G01 X0.8503 Y-0.6978
G01 X0.7778 Y-0.7778
G01 X0.6978 Y-0.8503
G01 X0.6111 Y-0.9146
G01 X0.5185 Y-0.9701
G01 X0.4210 Y-1.0163
G01 X0.3193 Y-1.0526
G01 X0.2146 Y-1.0789
G01 X0.1078 Y-1.0947
G01 X-0.0000 Y-1.1000
G00 X-0.0000 Y-1.1000
G01 F70.00
G01 Z-0.6000
G01 F120.00
G01 X0.1078 Y-1.0947
G01 X0.2146 Y-1.0789
G01 X0.3193 Y-1.0526
G01 X0.4210 Y-1.0163
G01 X0.5185 Y-0.9701
G01 X0.6111 Y-0.9146
G01 X0.6978 Y-0.8503
G01 X0.7778 Y-0.7778
G01 X0.8503 Y-0.6978
G01 X0.9146 Y-0.6111
G01 X0.9701 Y-0.5185
G01 X1.0163 Y-0.4210
G01 X1.0526 Y-0.3193
G01 X1.0789 Y-0.2146
G01 X1.0947 Y-0.1078
G01 X1.1000 Y0.0000
G01 X1.1000 Y40.0000
G01 X1.0947 Y40.1078
G01 X1.0789 Y40.2146
G01 X1.0526 Y40.3193
G01 X1.0163 Y40.4210
G01 X0.9701 Y40.5185
G01 X0.9146 Y40.6111
G01 X0.8503 Y40.6978
G01 X0.7778 Y40.7778
G01 X0.6978 Y40.8503
G01 X0.6111 Y40.9146
G01 X0.5185 Y40.9701
G01 X0.4210 Y41.0163
G01 X0.3193 Y41.0526
G01 X0.2146 Y41.0789
G01 X0.1078 Y41.0947
G01 X-0.0000 Y41.1000
G01 X-45.0000 Y41.1000
G01 X-45.1078 Y41.0947
G01 X-45.2146 Y41.0789
G01 X-45.3193 Y41.0526
G01 X-45.4210 Y41.0163
G01 X-45.5185 Y40.9701
G01 X-45.6111 Y40.9146
G01 X-45.6978 Y40.8503
G01 X-45.7778 Y40.7778
G01 X-45.8503 Y40.6978
G01 X-45.9146 Y40.6111
G01 X-45.9701 Y40.5185
G01 X-46.0163 Y40.4210
G01 X-46.0526 Y40.3193
G01 X-46.0789 Y40.2146
G01 X-46.0947 Y40.1078
G01 X-46.1000 Y40.0000
G01 X-46.1000 Y0.0000
G01 X-46.0947 Y-0.1078
G01 X-46.0789 Y-0.2146
G01 X-46.0526 Y-0.3193
G01 X-46.0163 Y-0.4210
G01 X-45.9701 Y-0.5185
G01 X-45.9146 Y-0.6111
G01 X-45.8503 Y-0.6978
G01 X-45.7778 Y-0.7778
G01 X-45.6978 Y-0.8503
G01 X-45.6111 Y-0.9146
G01 X-45.5185 Y-0.9701
G01 X-45.4210 Y-1.0163
G01 X-45.3193 Y-1.0526
G01 X-45.2146 Y-1.0789
G01 X-45.1078 Y-1.0947
G01 X-45.0000 Y-1.1000
G01 X-0.0000 Y-1.1000
G00 X-0.0000 Y-1.1000
G01 F70.00
G01 Z-0.7000
G01 F120.00
G01 X-45.0000 Y-1.1000
G01 X-45.1078 Y-1.0947
G01 X-45.2146 Y-1.0789
G01 X-45.3193 Y-1.0526
G01 X-45.4210 Y-1.0163
G01 X-45.5185 Y-0.9701
G01 X-45.6111 Y-0.9146
G01 X-45.6978 Y-0.8503
G01 X-45.7778 Y-0.7778
G01 X-45.8503 Y-0.6978
G01 X-45.9146 Y-0.6111
G01 X-45.9701 Y-0.5185
G01 X-46.0163 Y-0.4210
G01 X-46.0526 Y-0.3193
G01 X-46.0789 Y-0.2146
G01 X-46.0947 Y-0.1078
G01 X-46.1000 Y0.0000
G01 X-46.1000 Y40.0000
G01 X-46.0947 Y40.1078
G01 X-46.0789 Y40.2146
G01 X-46.0526 Y40.3193
G01 X-46.0163 Y40.4210
G01 X-45.9701 Y40.5185
G01 X-45.9146 Y40.6111
G01 X-45.8503 Y40.6978
G01 X-45.7778 Y40.7778
G01 X-45.6978 Y40.8503
G01 X-45.6111 Y40.9146
G01 X-45.5185 Y40.9701
G01 X-45.4210 Y41.0163
G01 X-45.3193 Y41.0526
G01 X-45.2146 Y41.0789
G01 X-45.1078 Y41.0947
G01 X-45.0000 Y41.1000
G01 X-0.0000 Y41.1000
G01 X0.1078 Y41.0947
G01 X0.2146 Y41.0789
G01 X0.3193 Y41.0526
G01 X0.4210 Y41.0163
G01 X0.5185 Y40.9701
G01 X0.6111 Y40.9146
G01 X0.6978 Y40.8503
G01 X0.7778 Y40.7778
G01 X0.8503 Y40.6978
G01 X0.9146 Y40.6111
G01 X0.9701 Y40.5185
G01 X1.0163 Y40.4210
G01 X1.0526 Y40.3193
G01 X1.0789 Y40.2146
G01 X1.0947 Y40.1078
G01 X1.1000 Y40.0000
G01 X1.1000 Y0.0000
G01 X1.0947 Y-0.1078
G01 X1.0789 Y-0.2146
G01 X1.0526 Y-0.3193
G01 X1.0163 Y-0.4210
G01 X0.9701 Y-0.5185
G01 X0.9146 Y-0.6111
G01 X0.8503 Y-0.6978
G01 X0.7778 Y-0.7778
G01 X0.6978 Y-0.8503
G01 X0.6111 Y-0.9146
G01 X0.5185 Y-0.9701
G01 X0.4210 Y-1.0163
G01 X0.3193 Y-1.0526
G01 X0.2146 Y-1.0789
G01 X0.1078 Y-1.0947
G01 X-0.0000 Y-1.1000
G00 X-0.0000 Y-1.1000
G01 F70.00
G01 Z-0.8000
G01 F120.00
G01 X0.1078 Y-1.0947
G01 X0.2146 Y-1.0789
G01 X0.3193 Y-1.0526
G01 X0.4210 Y-1.0163
G01 X0.5185 Y-0.9701
G01 X0.6111 Y-0.9146
G01 X0.6978 Y-0.8503
G01 X0.7778 Y-0.7778
G01 X0.8503 Y-0.6978
G01 X0.9146 Y-0.6111
G01 X0.9701 Y-0.5185
G01 X1.0163 Y-0.4210
G01 X1.0526 Y-0.3193
G01 X1.0789 Y-0.2146
G01 X1.0947 Y-0.1078
G01 X1.1000 Y0.0000
G01 X1.1000 Y40.0000
G01 X1.0947 Y40.1078
G01 X1.0789 Y40.2146
G01 X1.0526 Y40.3193
G01 X1.0163 Y40.4210
G01 X0.9701 Y40.5185
G01 X0.9146 Y40.6111
G01 X0.8503 Y40.6978
G01 X0.7778 Y40.7778
G01 X0.6978 Y40.8503
G01 X0.6111 Y40.9146
G01 X0.5185 Y40.9701
G01 X0.4210 Y41.0163
G01 X0.3193 Y41.0526
G01 X0.2146 Y41.0789
G01 X0.1078 Y41.0947
G01 X-0.0000 Y41.1000
G01 X-45.0000 Y41.1000
G01 X-45.1078 Y41.0947
G01 X-45.2146 Y41.0789
G01 X-45.3193 Y41.0526
G01 X-45.4210 Y41.0163
G01 X-45.5185 Y40.9701
G01 X-45.6111 Y40.9146
G01 X-45.6978 Y40.8503
G01 X-45.7778 Y40.7778
G01 X-45.8503 Y40.6978
G01 X-45.9146 Y40.6111
G01 X-45.9701 Y40.5185
G01 X-46.0163 Y40.4210
G01 X-46.0526 Y40.3193
G01 X-46.0789 Y40.2146
G01 X-46.0947 Y40.1078
G01 X-46.1000 Y40.0000
G01 X-46.1000 Y0.0000
G01 X-46.0947 Y-0.1078
G01 X-46.0789 Y-0.2146
G01 X-46.0526 Y-0.3193
G01 X-46.0163 Y-0.4210
G01 X-45.9701 Y-0.5185
G01 X-45.9146 Y-0.6111
G01 X-45.8503 Y-0.6978
G01 X-45.7778 Y-0.7778
G01 X-45.6978 Y-0.8503
G01 X-45.6111 Y-0.9146
G01 X-45.5185 Y-0.9701
G01 X-45.4210 Y-1.0163
G01 X-45.3193 Y-1.0526
G01 X-45.2146 Y-1.0789
G01 X-45.1078 Y-1.0947
G01 X-45.0000 Y-1.1000
G01 X-0.0000 Y-1.1000
G00 X-0.0000 Y-1.1000
G01 F70.00
G01 Z-0.9000
G01 F120.00
G01 X-45.0000 Y-1.1000
G01 X-45.1078 Y-1.0947
G01 X-45.2146 Y-1.0789
G01 X-45.3193 Y-1.0526
G01 X-45.4210 Y-1.0163
G01 X-45.5185 Y-0.9701
G01 X-45.6111 Y-0.9146
G01 X-45.6978 Y-0.8503
G01 X-45.7778 Y-0.7778
G01 X-45.8503 Y-0.6978
G01 X-45.9146 Y-0.6111
G01 X-45.9701 Y-0.5185
G01 X-46.0163 Y-0.4210
G01 X-46.0526 Y-0.3193
G01 X-46.0789 Y-0.2146
G01 X-46.0947 Y-0.1078
G01 X-46.1000 Y0.0000
G01 X-46.1000 Y40.0000
G01 X-46.0947 Y40.1078
G01 X-46.0789 Y40.2146
G01 X-46.0526 Y40.3193
G01 X-46.0163 Y40.4210
G01 X-45.9701 Y40.5185
G01 X-45.9146 Y40.6111
G01 X-45.8503 Y40.6978
G01 X-45.7778 Y40.7778
G01 X-45.6978 Y40.8503
G01 X-45.6111 Y40.9146
G01 X-45.5185 Y40.9701
G01 X-45.4210 Y41.0163
G01 X-45.3193 Y41.0526
G01 X-45.2146 Y41.0789
G01 X-45.1078 Y41.0947
G01 X-45.0000 Y41.1000
G01 X-0.0000 Y41.1000
G01 X0.1078 Y41.0947
G01 X0.2146 Y41.0789
G01 X0.3193 Y41.0526
G01 X0.4210 Y41.0163
G01 X0.5185 Y40.9701
G01 X0.6111 Y40.9146
G01 X0.6978 Y40.8503
G01 X0.7778 Y40.7778
G01 X0.8503 Y40.6978
G01 X0.9146 Y40.6111
G01 X0.9701 Y40.5185
G01 X1.0163 Y40.4210
G01 X1.0526 Y40.3193
G01 X1.0789 Y40.2146
G01 X1.0947 Y40.1078
G01 X1.1000 Y40.0000
G01 X1.1000 Y0.0000
G01 X1.0947 Y-0.1078
G01 X1.0789 Y-0.2146
G01 X1.0526 Y-0.3193
G01 X1.0163 Y-0.4210
G01 X0.9701 Y-0.5185
G01 X0.9146 Y-0.6111
G01 X0.8503 Y-0.6978
G01 X0.7778 Y-0.7778
G01 X0.6978 Y-0.8503
G01 X0.6111 Y-0.9146
G01 X0.5185 Y-0.9701
G01 X0.4210 Y-1.0163
G01 X0.3193 Y-1.0526
G01 X0.2146 Y-1.0789
G01 X0.1078 Y-1.0947
G01 X-0.0000 Y-1.1000
G00 X-0.0000 Y-1.1000
G01 F70.00
G01 Z-1.0000
G01 F120.00
G01 X0.1078 Y-1.0947
G01 X0.2146 Y-1.0789
G01 X0.3193 Y-1.0526
G01 X0.4210 Y-1.0163
G01 X0.5185 Y-0.9701
G01 X0.6111 Y-0.9146
G01 X0.6978 Y-0.8503
G01 X0.7778 Y-0.7778
G01 X0.8503 Y-0.6978
G01 X0.9146 Y-0.6111
G01 X0.9701 Y-0.5185
G01 X1.0163 Y-0.4210
G01 X1.0526 Y-0.3193
G01 X1.0789 Y-0.2146
G01 X1.0947 Y-0.1078
G01 X1.1000 Y0.0000
G01 X1.1000 Y40.0000
G01 X1.0947 Y40.1078
G01 X1.0789 Y40.2146
G01 X1.0526 Y40.3193
G01 X1.0163 Y40.4210
G01 X0.9701 Y40.5185
G01 X0.9146 Y40.6111
G01 X0.8503 Y40.6978
G01 X0.7778 Y40.7778
G01 X0.6978 Y40.8503
G01 X0.6111 Y40.9146
G01 X0.5185 Y40.9701
G01 X0.4210 Y41.0163
G01 X0.3193 Y41.0526
G01 X0.2146 Y41.0789
G01 X0.1078 Y41.0947
G01 X-0.0000 Y41.1000
G01 X-45.0000 Y41.1000
G01 X-45.1078 Y41.0947
G01 X-45.2146 Y41.0789
G01 X-45.3193 Y41.0526
G01 X-45.4210 Y41.0163
G01 X-45.5185 Y40.9701
G01 X-45.6111 Y40.9146
G01 X-45.6978 Y40.8503
G01 X-45.7778 Y40.7778
G01 X-45.8503 Y40.6978
G01 X-45.9146 Y40.6111
G01 X-45.9701 Y40.5185
G01 X-46.0163 Y40.4210
G01 X-46.0526 Y40.3193
G01 X-46.0789 Y40.2146
G01 X-46.0947 Y40.1078
G01 X-46.1000 Y40.0000
G01 X-46.1000 Y0.0000
G01 X-46.0947 Y-0.1078
G01 X-46.0789 Y-0.2146
G01 X-46.0526 Y-0.3193
G01 X-46.0163 Y-0.4210
G01 X-45.9701 Y-0.5185
G01 X-45.9146 Y-0.6111
G01 X-45.8503 Y-0.6978
G01 X-45.7778 Y-0.7778
G01 X-45.6978 Y-0.8503
G01 X-45.6111 Y-0.9146
G01 X-45.5185 Y-0.9701
G01 X-45.4210 Y-1.0163
G01 X-45.3193 Y-1.0526
G01 X-45.2146 Y-1.0789
G01 X-45.1078 Y-1.0947
G01 X-45.0000 Y-1.1000
G01 X-0.0000 Y-1.1000
G00 X-0.0000 Y-1.1000
G01 F70.00
G01 Z-1.1000
G01 F120.00
G01 X-45.0000 Y-1.1000
G01 X-45.1078 Y-1.0947
G01 X-45.2146 Y-1.0789
G01 X-45.3193 Y-1.0526
G01 X-45.4210 Y-1.0163
G01 X-45.5185 Y-0.9701
G01 X-45.6111 Y-0.9146
G01 X-45.6978 Y-0.8503
G01 X-45.7778 Y-0.7778
G01 X-45.8503 Y-0.6978
G01 X-45.9146 Y-0.6111
G01 X-45.9701 Y-0.5185
G01 X-46.0163 Y-0.4210
G01 X-46.0526 Y-0.3193
G01 X-46.0789 Y-0.2146
G01 X-46.0947 Y-0.1078
G01 X-46.1000 Y0.0000
G01 X-46.1000 Y40.0000
G01 X-46.0947 Y40.1078
G01 X-46.0789 Y40.2146
G01 X-46.0526 Y40.3193
G01 X-46.0163 Y40.4210
G01 X-45.9701 Y40.5185
G01 X-45.9146 Y40.6111
G01 X-45.8503 Y40.6978
G01 X-45.7778 Y40.7778
G01 X-45.6978 Y40.8503
G01 X-45.6111 Y40.9146
G01 X-45.5185 Y40.9701
G01 X-45.4210 Y41.0163
G01 X-45.3193 Y41.0526
G01 X-45.2146 Y41.0789
G01 X-45.1078 Y41.0947
G01 X-45.0000 Y41.1000
G01 X-0.0000 Y41.1000
G01 X0.1078 Y41.0947
G01 X0.2146 Y41.0789
G01 X0.3193 Y41.0526
G01 X0.4210 Y41.0163
G01 X0.5185 Y40.9701
G01 X0.6111 Y40.9146
G01 X0.6978 Y40.8503
G01 X0.7778 Y40.7778
G01 X0.8503 Y40.6978
G01 X0.9146 Y40.6111
G01 X0.9701 Y40.5185
G01 X1.0163 Y40.4210
G01 X1.0526 Y40.3193
G01 X1.0789 Y40.2146
G01 X1.0947 Y40.1078
G01 X1.1000 Y40.0000
G01 X1.1000 Y0.0000
G01 X1.0947 Y-0.1078
G01 X1.0789 Y-0.2146
G01 X1.0526 Y-0.3193
G01 X1.0163 Y-0.4210
G01 X0.9701 Y-0.5185
G01 X0.9146 Y-0.6111
G01 X0.8503 Y-0.6978
G01 X0.7778 Y-0.7778
G01 X0.6978 Y-0.8503
G01 X0.6111 Y-0.9146
G01 X0.5185 Y-0.9701
G01 X0.4210 Y-1.0163
G01 X0.3193 Y-1.0526
G01 X0.2146 Y-1.0789
G01 X0.1078 Y-1.0947
G01 X-0.0000 Y-1.1000
G00 X-0.0000 Y-1.1000
G01 F70.00
G01 Z-1.2000
G01 F120.00
G01 X0.1078 Y-1.0947
G01 X0.2146 Y-1.0789
G01 X0.3193 Y-1.0526
G01 X0.4210 Y-1.0163
G01 X0.5185 Y-0.9701
G01 X0.6111 Y-0.9146
G01 X0.6978 Y-0.8503
G01 X0.7778 Y-0.7778
G01 X0.8503 Y-0.6978
G01 X0.9146 Y-0.6111
G01 X0.9701 Y-0.5185
G01 X1.0163 Y-0.4210
G01 X1.0526 Y-0.3193
G01 X1.0789 Y-0.2146
G01 X1.0947 Y-0.1078
G01 X1.1000 Y0.0000
G01 X1.1000 Y40.0000
G01 X1.0947 Y40.1078
G01 X1.0789 Y40.2146
G01 X1.0526 Y40.3193
G01 X1.0163 Y40.4210
G01 X0.9701 Y40.5185
G01 X0.9146 Y40.6111
G01 X0.8503 Y40.6978
G01 X0.7778 Y40.7778
G01 X0.6978 Y40.8503
G01 X0.6111 Y40.9146
G01 X0.5185 Y40.9701
G01 X0.4210 Y41.0163
G01 X0.3193 Y41.0526
G01 X0.2146 Y41.0789
G01 X0.1078 Y41.0947
G01 X-0.0000 Y41.1000
G01 X-45.0000 Y41.1000
G01 X-45.1078 Y41.0947
G01 X-45.2146 Y41.0789
G01 X-45.3193 Y41.0526
G01 X-45.4210 Y41.0163
G01 X-45.5185 Y40.9701
G01 X-45.6111 Y40.9146
G01 X-45.6978 Y40.8503
G01 X-45.7778 Y40.7778
G01 X-45.8503 Y40.6978
G01 X-45.9146 Y40.6111
G01 X-45.9701 Y40.5185
G01 X-46.0163 Y40.4210
G01 X-46.0526 Y40.3193
G01 X-46.0789 Y40.2146
G01 X-46.0947 Y40.1078
G01 X-46.1000 Y40.0000
G01 X-46.1000 Y0.0000
G01 X-46.0947 Y-0.1078
G01 X-46.0789 Y-0.2146
G01 X-46.0526 Y-0.3193
G01 X-46.0163 Y-0.4210
G01 X-45.9701 Y-0.5185
G01 X-45.9146 Y-0.6111
G01 X-45.8503 Y-0.6978
G01 X-45.7778 Y-0.7778
G01 X-45.6978 Y-0.8503
G01 X-45.6111 Y-0.9146
G01 X-45.5185 Y-0.9701
G01 X-45.4210 Y-1.0163
G01 X-45.3193 Y-1.0526
G01 X-45.2146 Y-1.0789
G01 X-45.1078 Y-1.0947
G01 X-45.0000 Y-1.1000
G01 X-0.0000 Y-1.1000
G00 X-0.0000 Y-1.1000
G01 F70.00
G01 Z-1.3000
G01 F120.00
G01 X-45.0000 Y-1.1000
G01 X-45.1078 Y-1.0947
G01 X-45.2146 Y-1.0789
G01 X-45.3193 Y-1.0526
G01 X-45.4210 Y-1.0163
G01 X-45.5185 Y-0.9701
G01 X-45.6111 Y-0.9146
G01 X-45.6978 Y-0.8503
G01 X-45.7778 Y-0.7778
G01 X-45.8503 Y-0.6978
G01 X-45.9146 Y-0.6111
G01 X-45.9701 Y-0.5185
G01 X-46.0163 Y-0.4210
G01 X-46.0526 Y-0.3193
G01 X-46.0789 Y-0.2146
G01 X-46.0947 Y-0.1078
G01 X-46.1000 Y0.0000
G01 X-46.1000 Y40.0000
G01 X-46.0947 Y40.1078
G01 X-46.0789 Y40.2146
G01 X-46.0526 Y40.3193
G01 X-46.0163 Y40.4210
G01 X-45.9701 Y40.5185
G01 X-45.9146 Y40.6111
G01 X-45.8503 Y40.6978
G01 X-45.7778 Y40.7778
G01 X-45.6978 Y40.8503
G01 X-45.6111 Y40.9146
G01 X-45.5185 Y40.9701
G01 X-45.4210 Y41.0163
G01 X-45.3193 Y41.0526
G01 X-45.2146 Y41.0789
G01 X-45.1078 Y41.0947
G01 X-45.0000 Y41.1000
G01 X-0.0000 Y41.1000
G01 X0.1078 Y41.0947
G01 X0.2146 Y41.0789
G01 X0.3193 Y41.0526
G01 X0.4210 Y41.0163
G01 X0.5185 Y40.9701
G01 X0.6111 Y40.9146
G01 X0.6978 Y40.8503
G01 X0.7778 Y40.7778
G01 X0.8503 Y40.6978
G01 X0.9146 Y40.6111
G01 X0.9701 Y40.5185
G01 X1.0163 Y40.4210
G01 X1.0526 Y40.3193
G01 X1.0789 Y40.2146
G01 X1.0947 Y40.1078
G01 X1.1000 Y40.0000
G01 X1.1000 Y0.0000
G01 X1.0947 Y-0.1078
G01 X1.0789 Y-0.2146
G01 X1.0526 Y-0.3193
G01 X1.0163 Y-0.4210
G01 X0.9701 Y-0.5185
G01 X0.9146 Y-0.6111
G01 X0.8503 Y-0.6978
G01 X0.7778 Y-0.7778
G01 X0.6978 Y-0.8503
G01 X0.6111 Y-0.9146
G01 X0.5185 Y-0.9701
G01 X0.4210 Y-1.0163
G01 X0.3193 Y-1.0526
G01 X0.2146 Y-1.0789
G01 X0.1078 Y-1.0947
G01 X-0.0000 Y-1.1000
G00 X-0.0000 Y-1.1000
G01 F70.00
G01 Z-1.4000
G01 F120.00
G01 X0.1078 Y-1.0947
G01 X0.2146 Y-1.0789
G01 X0.3193 Y-1.0526
G01 X0.4210 Y-1.0163
G01 X0.5185 Y-0.9701
G01 X0.6111 Y-0.9146
G01 X0.6978 Y-0.8503
G01 X0.7778 Y-0.7778
G01 X0.8503 Y-0.6978
G01 X0.9146 Y-0.6111
G01 X0.9701 Y-0.5185
G01 X1.0163 Y-0.4210
G01 X1.0526 Y-0.3193
G01 X1.0789 Y-0.2146
G01 X1.0947 Y-0.1078
G01 X1.1000 Y0.0000
G01 X1.1000 Y40.0000
G01 X1.0947 Y40.1078
G01 X1.0789 Y40.2146
G01 X1.0526 Y40.3193
G01 X1.0163 Y40.4210
G01 X0.9701 Y40.5185
G01 X0.9146 Y40.6111
G01 X0.8503 Y40.6978
G01 X0.7778 Y40.7778
G01 X0.6978 Y40.8503
G01 X0.6111 Y40.9146
G01 X0.5185 Y40.9701
G01 X0.4210 Y41.0163
G01 X0.3193 Y41.0526
G01 X0.2146 Y41.0789
G01 X0.1078 Y41.0947
G01 X-0.0000 Y41.1000
G01 X-45.0000 Y41.1000
G01 X-45.1078 Y41.0947
G01 X-45.2146 Y41.0789
G01 X-45.3193 Y41.0526
G01 X-45.4210 Y41.0163
G01 X-45.5185 Y40.9701
G01 X-45.6111 Y40.9146
G01 X-45.6978 Y40.8503
G01 X-45.7778 Y40.7778
G01 X-45.8503 Y40.6978
G01 X-45.9146 Y40.6111
G01 X-45.9701 Y40.5185
G01 X-46.0163 Y40.4210
G01 X-46.0526 Y40.3193
G01 X-46.0789 Y40.2146
G01 X-46.0947 Y40.1078
G01 X-46.1000 Y40.0000
G01 X-46.1000 Y0.0000
G01 X-46.0947 Y-0.1078
G01 X-46.0789 Y-0.2146
G01 X-46.0526 Y-0.3193
G01 X-46.0163 Y-0.4210
G01 X-45.9701 Y-0.5185
G01 X-45.9146 Y-0.6111
G01 X-45.8503 Y-0.6978
G01 X-45.7778 Y-0.7778
G01 X-45.6978 Y-0.8503
G01 X-45.6111 Y-0.9146
G01 X-45.5185 Y-0.9701
G01 X-45.4210 Y-1.0163
G01 X-45.3193 Y-1.0526
G01 X-45.2146 Y-1.0789
G01 X-45.1078 Y-1.0947
G01 X-45.0000 Y-1.1000
G01 X-0.0000 Y-1.1000
G00 X-0.0000 Y-1.1000
G01 F70.00
G01 Z-1.5000
G01 F120.00
G01 X-45.0000 Y-1.1000
G01 X-45.1078 Y-1.0947
G01 X-45.2146 Y-1.0789
G01 X-45.3193 Y-1.0526
G01 X-45.4210 Y-1.0163
G01 X-45.5185 Y-0.9701
G01 X-45.6111 Y-0.9146
G01 X-45.6978 Y-0.8503
G01 X-45.7778 Y-0.7778
G01 X-45.8503 Y-0.6978
G01 X-45.9146 Y-0.6111
G01 X-45.9701 Y-0.5185
G01 X-46.0163 Y-0.4210
G01 X-46.0526 Y-0.3193
G01 X-46.0789 Y-0.2146
G01 X-46.0947 Y-0.1078
G01 X-46.1000 Y0.0000
G01 X-46.1000 Y40.0000
G01 X-46.0947 Y40.1078
G01 X-46.0789 Y40.2146
G01 X-46.0526 Y40.3193
G01 X-46.0163 Y40.4210
G01 X-45.9701 Y40.5185
G01 X-45.9146 Y40.6111
G01 X-45.8503 Y40.6978
G01 X-45.7778 Y40.7778
G01 X-45.6978 Y40.8503
G01 X-45.6111 Y40.9146
G01 X-45.5185 Y40.9701
G01 X-45.4210 Y41.0163
G01 X-45.3193 Y41.0526
G01 X-45.2146 Y41.0789
G01 X-45.1078 Y41.0947
G01 X-45.0000 Y41.1000
G01 X-0.0000 Y41.1000
G01 X0.1078 Y41.0947
G01 X0.2146 Y41.0789
G01 X0.3193 Y41.0526
G01 X0.4210 Y41.0163
G01 X0.5185 Y40.9701
G01 X0.6111 Y40.9146
G01 X0.6978 Y40.8503
G01 X0.7778 Y40.7778
G01 X0.8503 Y40.6978
G01 X0.9146 Y40.6111
G01 X0.9701 Y40.5185
G01 X1.0163 Y40.4210
G01 X1.0526 Y40.3193
G01 X1.0789 Y40.2146
G01 X1.0947 Y40.1078
G01 X1.1000 Y40.0000
G01 X1.1000 Y0.0000
G01 X1.0947 Y-0.1078
G01 X1.0789 Y-0.2146
G01 X1.0526 Y-0.3193
G01 X1.0163 Y-0.4210
G01 X0.9701 Y-0.5185
G01 X0.9146 Y-0.6111
G01 X0.8503 Y-0.6978
G01 X0.7778 Y-0.7778
G01 X0.6978 Y-0.8503
G01 X0.6111 Y-0.9146
G01 X0.5185 Y-0.9701
G01 X0.4210 Y-1.0163
G01 X0.3193 Y-1.0526
G01 X0.2146 Y-1.0789
G01 X0.1078 Y-1.0947
G01 X-0.0000 Y-1.1000
G00 X-0.0000 Y-1.1000
G01 F70.00
G01 Z-1.6000
G01 F120.00
G01 X0.1078 Y-1.0947
G01 X0.2146 Y-1.0789
G01 X0.3193 Y-1.0526
G01 X0.4210 Y-1.0163
G01 X0.5185 Y-0.9701
G01 X0.6111 Y-0.9146
G01 X0.6978 Y-0.8503
G01 X0.7778 Y-0.7778
G01 X0.8503 Y-0.6978
G01 X0.9146 Y-0.6111
G01 X0.9701 Y-0.5185
G01 X1.0163 Y-0.4210
G01 X1.0526 Y-0.3193
G01 X1.0789 Y-0.2146
G01 X1.0947 Y-0.1078
G01 X1.1000 Y0.0000
G01 X1.1000 Y40.0000
G01 X1.0947 Y40.1078
G01 X1.0789 Y40.2146
G01 X1.0526 Y40.3193
G01 X1.0163 Y40.4210
G01 X0.9701 Y40.5185
G01 X0.9146 Y40.6111
G01 X0.8503 Y40.6978
G01 X0.7778 Y40.7778
G01 X0.6978 Y40.8503
G01 X0.6111 Y40.9146
G01 X0.5185 Y40.9701
G01 X0.4210 Y41.0163
G01 X0.3193 Y41.0526
G01 X0.2146 Y41.0789
G01 X0.1078 Y41.0947
G01 X-0.0000 Y41.1000
G01 X-45.0000 Y41.1000
G01 X-45.1078 Y41.0947
G01 X-45.2146 Y41.0789
G01 X-45.3193 Y41.0526
G01 X-45.4210 Y41.0163
G01 X-45.5185 Y40.9701
G01 X-45.6111 Y40.9146
G01 X-45.6978 Y40.8503
G01 X-45.7778 Y40.7778
G01 X-45.8503 Y40.6978
G01 X-45.9146 Y40.6111
G01 X-45.9701 Y40.5185
G01 X-46.0163 Y40.4210
G01 X-46.0526 Y40.3193
G01 X-46.0789 Y40.2146
G01 X-46.0947 Y40.1078
G01 X-46.1000 Y40.0000
G01 X-46.1000 Y0.0000
G01 X-46.0947 Y-0.1078
G01 X-46.0789 Y-0.2146
G01 X-46.0526 Y-0.3193
G01 X-46.0163 Y-0.4210
G01 X-45.9701 Y-0.5185
G01 X-45.9146 Y-0.6111
G01 X-45.8503 Y-0.6978
G01 X-45.7778 Y-0.7778
G01 X-45.6978 Y-0.8503
G01 X-45.6111 Y-0.9146
G01 X-45.5185 Y-0.9701
G01 X-45.4210 Y-1.0163
G01 X-45.3193 Y-1.0526
G01 X-45.2146 Y-1.0789
G01 X-45.1078 Y-1.0947
G01 X-45.0000 Y-1.1000
G01 X-0.0000 Y-1.1000
G00 X-0.0000 Y-1.1000
G01 F70.00
G01 Z-1.7000
G01 F120.00
G01 X-45.0000 Y-1.1000
G01 X-45.1078 Y-1.0947
G01 X-45.2146 Y-1.0789
G01 X-45.3193 Y-1.0526
G01 X-45.4210 Y-1.0163
G01 X-45.5185 Y-0.9701
G01 X-45.6111 Y-0.9146
G01 X-45.6978 Y-0.8503
G01 X-45.7778 Y-0.7778
G01 X-45.8503 Y-0.6978
G01 X-45.9146 Y-0.6111
G01 X-45.9701 Y-0.5185
G01 X-46.0163 Y-0.4210
G01 X-46.0526 Y-0.3193
G01 X-46.0789 Y-0.2146
G01 X-46.0947 Y-0.1078
G01 X-46.1000 Y0.0000
G01 X-46.1000 Y40.0000
G01 X-46.0947 Y40.1078
G01 X-46.0789 Y40.2146
G01 X-46.0526 Y40.3193
G01 X-46.0163 Y40.4210
G01 X-45.9701 Y40.5185
G01 X-45.9146 Y40.6111
G01 X-45.8503 Y40.6978
G01 X-45.7778 Y40.7778
G01 X-45.6978 Y40.8503
G01 X-45.6111 Y40.9146
G01 X-45.5185 Y40.9701
G01 X-45.4210 Y41.0163
G01 X-45.3193 Y41.0526
G01 X-45.2146 Y41.0789
G01 X-45.1078 Y41.0947
G01 X-45.0000 Y41.1000
G01 X-0.0000 Y41.1000
G01 X0.1078 Y41.0947
G01 X0.2146 Y41.0789
G01 X0.3193 Y41.0526
G01 X0.4210 Y41.0163
G01 X0.5185 Y40.9701
G01 X0.6111 Y40.9146
G01 X0.6978 Y40.8503
G01 X0.7778 Y40.7778
G01 X0.8503 Y40.6978
G01 X0.9146 Y40.6111
G01 X0.9701 Y40.5185
G01 X1.0163 Y40.4210
G01 X1.0526 Y40.3193
G01 X1.0789 Y40.2146
G01 X1.0947 Y40.1078
G01 X1.1000 Y40.0000
G01 X1.1000 Y0.0000
G01 X1.0947 Y-0.1078
G01 X1.0789 Y-0.2146
G01 X1.0526 Y-0.3193
G01 X1.0163 Y-0.4210
G01 X0.9701 Y-0.5185
G01 X0.9146 Y-0.6111
G01 X0.8503 Y-0.6978
G01 X0.7778 Y-0.7778
G01 X0.6978 Y-0.8503
G01 X0.6111 Y-0.9146
G01 X0.5185 Y-0.9701
G01 X0.4210 Y-1.0163
G01 X0.3193 Y-1.0526
G01 X0.2146 Y-1.0789
G01 X0.1078 Y-1.0947
G01 X-0.0000 Y-1.1000
G00 X-0.0000 Y-1.1000
G01 F70.00
G01 Z-1.8000
G01 F120.00
G01 X0.1078 Y-1.0947
G01 X0.2146 Y-1.0789
G01 X0.3193 Y-1.0526
G01 X0.4210 Y-1.0163
G01 X0.5185 Y-0.9701
G01 X0.6111 Y-0.9146
G01 X0.6978 Y-0.8503
G01 X0.7778 Y-0.7778
G01 X0.8503 Y-0.6978
G01 X0.9146 Y-0.6111
G01 X0.9701 Y-0.5185
G01 X1.0163 Y-0.4210
G01 X1.0526 Y-0.3193
G01 X1.0789 Y-0.2146
G01 X1.0947 Y-0.1078
G01 X1.1000 Y0.0000
G01 X1.1000 Y40.0000
G01 X1.0947 Y40.1078
G01 X1.0789 Y40.2146
G01 X1.0526 Y40.3193
G01 X1.0163 Y40.4210
G01 X0.9701 Y40.5185
G01 X0.9146 Y40.6111
G01 X0.8503 Y40.6978
G01 X0.7778 Y40.7778
G01 X0.6978 Y40.8503
G01 X0.6111 Y40.9146
G01 X0.5185 Y40.9701
G01 X0.4210 Y41.0163
G01 X0.3193 Y41.0526
G01 X0.2146 Y41.0789
G01 X0.1078 Y41.0947
G01 X-0.0000 Y41.1000
G01 X-45.0000 Y41.1000
G01 X-45.1078 Y41.0947
G01 X-45.2146 Y41.0789
G01 X-45.3193 Y41.0526
G01 X-45.4210 Y41.0163
G01 X-45.5185 Y40.9701
G01 X-45.6111 Y40.9146
G01 X-45.6978 Y40.8503
G01 X-45.7778 Y40.7778
G01 X-45.8503 Y40.6978
G01 X-45.9146 Y40.6111
G01 X-45.9701 Y40.5185
G01 X-46.0163 Y40.4210
G01 X-46.0526 Y40.3193
G01 X-46.0789 Y40.2146
G01 X-46.0947 Y40.1078
G01 X-46.1000 Y40.0000
G01 X-46.1000 Y0.0000
G01 X-46.0947 Y-0.1078
G01 X-46.0789 Y-0.2146
G01 X-46.0526 Y-0.3193
G01 X-46.0163 Y-0.4210
G01 X-45.9701 Y-0.5185
G01 X-45.9146 Y-0.6111
G01 X-45.8503 Y-0.6978
G01 X-45.7778 Y-0.7778
G01 X-45.6978 Y-0.8503
G01 X-45.6111 Y-0.9146
G01 X-45.5185 Y-0.9701
G01 X-45.4210 Y-1.0163
G01 X-45.3193 Y-1.0526
G01 X-45.2146 Y-1.0789
G01 X-45.1078 Y-1.0947
G01 X-45.0000 Y-1.1000
G01 X-0.0000 Y-1.1000
G00 X-0.0000 Y-1.1000
G01 F70.00
G01 Z-1.9000
G01 F120.00
G01 X-45.0000 Y-1.1000
G01 X-45.1078 Y-1.0947
G01 X-45.2146 Y-1.0789
G01 X-45.3193 Y-1.0526
G01 X-45.4210 Y-1.0163
G01 X-45.5185 Y-0.9701
G01 X-45.6111 Y-0.9146
G01 X-45.6978 Y-0.8503
G01 X-45.7778 Y-0.7778
G01 X-45.8503 Y-0.6978
G01 X-45.9146 Y-0.6111
G01 X-45.9701 Y-0.5185
G01 X-46.0163 Y-0.4210
G01 X-46.0526 Y-0.3193
G01 X-46.0789 Y-0.2146
G01 X-46.0947 Y-0.1078
G01 X-46.1000 Y0.0000
G01 X-46.1000 Y40.0000
G01 X-46.0947 Y40.1078
G01 X-46.0789 Y40.2146
G01 X-46.0526 Y40.3193
G01 X-46.0163 Y40.4210
G01 X-45.9701 Y40.5185
G01 X-45.9146 Y40.6111
G01 X-45.8503 Y40.6978
G01 X-45.7778 Y40.7778
G01 X-45.6978 Y40.8503
G01 X-45.6111 Y40.9146
G01 X-45.5185 Y40.9701
G01 X-45.4210 Y41.0163
G01 X-45.3193 Y41.0526
G01 X-45.2146 Y41.0789
G01 X-45.1078 Y41.0947
G01 X-45.0000 Y41.1000
G01 X-0.0000 Y41.1000
G01 X0.1078 Y41.0947
G01 X0.2146 Y41.0789
G01 X0.3193 Y41.0526
G01 X0.4210 Y41.0163
G01 X0.5185 Y40.9701
G01 X0.6111 Y40.9146
G01 X0.6978 Y40.8503
G01 X0.7778 Y40.7778
G01 X0.8503 Y40.6978
G01 X0.9146 Y40.6111
G01 X0.9701 Y40.5185
G01 X1.0163 Y40.4210
G01 X1.0526 Y40.3193
G01 X1.0789 Y40.2146
G01 X1.0947 Y40.1078
G01 X1.1000 Y40.0000
G01 X1.1000 Y0.0000
G01 X1.0947 Y-0.1078
G01 X1.0789 Y-0.2146
G01 X1.0526 Y-0.3193
G01 X1.0163 Y-0.4210
G01 X0.9701 Y-0.5185
G01 X0.9146 Y-0.6111
G01 X0.8503 Y-0.6978
G01 X0.7778 Y-0.7778
G01 X0.6978 Y-0.8503
G01 X0.6111 Y-0.9146
G01 X0.5185 Y-0.9701
G01 X0.4210 Y-1.0163
G01 X0.3193 Y-1.0526
G01 X0.2146 Y-1.0789
G01 X0.1078 Y-1.0947
G01 X-0.0000 Y-1.1000
G00 Z2.0000
M05
G00 Z2.0000
G00 Z25.00

