(G-CODE GENERATED BY FLATCAM v8.994 - www.flatcam.org - Version Date: 2020/11/7)

(Name: display_window_new_Ф2_низ.gbr_iso_combined_cnc)
(Type: G-code from Geometry)
(Units: MM)

(Created on Monday, 01 August 2022 at 15:05)

(This preprocessor is the default preprocessor used by FlatCAM.)
(It is made to work with MACH3 compatible motion controllers.)

(TOOL DIAMETER: 0.13 mm)
(Feedrate_XY: 10.0 mm/min)
(Feedrate_Z: 60.0 mm/min)
(Feedrate rapids 1500.0 mm/min)

(Z_Cut: 0.0 mm)
(Z_Move: 0.0 mm)
(Z Start: None mm)
(Z End: 0.0 mm)
(X,Y End: None mm)
(Steps per circle: 64)
(Preprocessor Geometry: default)

(X range:    0.1944 ...   36.2388  mm)
(Y range:  -10.2832 ...   -0.1943  mm)

(Spindle Speed: 10000.0 RPM)
G21
G90
G94

G01 F10.00

M5
G00 Z0.0000
G00 X0.0000 Y0.0000
T1
M6    
(MSG, Change to Tool Dia = 0.1300)
M0
G00 Z0.0000

M03 S10000.0
G01 F10.00
G00 X0.1944 Y-9.3634
G01 F60.00
G01 Z0.0000
G01 F10.00
G01 X0.1944 Y-1.1140
G01 X0.1990 Y-1.0213
G01 X0.2122 Y-0.9324
G01 X0.2340 Y-0.8451
G01 X0.2643 Y-0.7604
G01 X0.3028 Y-0.6791
G01 X0.3491 Y-0.6019
G01 X0.4027 Y-0.5296
G01 X0.4631 Y-0.4630
G01 X0.5297 Y-0.4026
G01 X0.6020 Y-0.3490
G01 X0.6792 Y-0.3027
G01 X0.7605 Y-0.2642
G01 X0.8452 Y-0.2339
G01 X0.9325 Y-0.2121
G01 X1.0214 Y-0.1989
G01 X1.1141 Y-0.1943
G01 X35.3191 Y-0.1944
G01 X35.4118 Y-0.1989
G01 X35.5007 Y-0.2121
G01 X35.5880 Y-0.2339
G01 X35.6727 Y-0.2642
G01 X35.7540 Y-0.3027
G01 X35.8312 Y-0.3490
G01 X35.9035 Y-0.4026
G01 X35.9701 Y-0.4630
G01 X36.0305 Y-0.5296
G01 X36.0841 Y-0.6019
G01 X36.1304 Y-0.6791
G01 X36.1689 Y-0.7604
G01 X36.1992 Y-0.8451
G01 X36.2210 Y-0.9324
G01 X36.2342 Y-1.0213
G01 X36.2388 Y-1.1140
G01 X36.2388 Y-9.3634
G01 X36.2343 Y-9.4561
G01 X36.2211 Y-9.5451
G01 X36.1993 Y-9.6323
G01 X36.1689 Y-9.7171
G01 X36.1305 Y-9.7984
G01 X36.0842 Y-9.8756
G01 X36.0306 Y-9.9478
G01 X35.9702 Y-10.0145
G01 X35.9035 Y-10.0749
G01 X35.8313 Y-10.1285
G01 X35.7541 Y-10.1748
G01 X35.6728 Y-10.2132
G01 X35.5880 Y-10.2436
G01 X35.5008 Y-10.2654
G01 X35.4118 Y-10.2786
G01 X35.3191 Y-10.2832
G01 X1.1141 Y-10.2832
G01 X1.0215 Y-10.2784
G01 X0.9324 Y-10.2652
G01 X0.8451 Y-10.2434
G01 X0.7604 Y-10.2131
G01 X0.6791 Y-10.1746
G01 X0.6019 Y-10.1284
G01 X0.5297 Y-10.0748
G01 X0.4630 Y-10.0144
G01 X0.4026 Y-9.9477
G01 X0.3490 Y-9.8755
G01 X0.3028 Y-9.7983
G01 X0.2643 Y-9.7170
G01 X0.2340 Y-9.6323
G01 X0.2122 Y-9.5450
G01 X0.1990 Y-9.4560
G01 X0.1944 Y-9.3634
G00 Z0.0000
M05
G00 Z0.0000
G00 Z0.00


