(G-CODE GENERATED BY FLATCAM v8.994 - www.flatcam.org - Version Date: 2020/11/7)

(Name: screen3_Ф2_низ.gbr_cutout_cnc)
(Type: G-code from Geometry)
(Units: MM)

(Created on Friday, 10 November 2023 at 13:43)

(This preprocessor is the default preprocessor used by FlatCAM.)
(It is made to work with MACH3 compatible motion controllers.)

(TOOL DIAMETER: 2.0 mm)
(Feedrate_XY: 120.0 mm/min)
(Feedrate_Z: 60.0 mm/min)
(Feedrate rapids 1500.0 mm/min)

(Z_Cut: -3.0 mm)
(DepthPerCut: 0.1 mm <=>30 passes)
(Z_Move: 5.0 mm)
(Z Start: None mm)
(Z End: 30.0 mm)
(X,Y End: None mm)
(Steps per circle: 64)
(Preprocessor Geometry: default)

(X range:   -3.0500 ...   35.5500  mm)
(Y range:   -9.5500 ...    3.0500  mm)

(Spindle Speed: 1700.0 RPM)
G21
G90
G94

G01 F120.00

M5
G00 Z30.0000
G00 X0.0000 Y0.0000
T1
M6    
(MSG, Change to Tool Dia = 2.0000)
M0
G00 Z30.0000

M03 S1700.0
G01 F120.00
G00 X-3.0500 Y-2.9500
G01 F60.00
G01 Z-0.1000
G01 F120.00
G01 X-3.0500 Y0.0500
G01 X-3.0356 Y0.3441
G01 X-2.9924 Y0.6353
G01 X-2.9208 Y0.9209
G01 X-2.8217 Y1.1981
G01 X-2.6958 Y1.4642
G01 X-2.5444 Y1.7167
G01 X-2.3691 Y1.9532
G01 X-2.1713 Y2.1713
G01 X-1.9532 Y2.3691
G01 X-1.7167 Y2.5444
G01 X-1.4642 Y2.6958
G01 X-1.1981 Y2.8217
G01 X-0.9209 Y2.9208
G01 X-0.6353 Y2.9924
G01 X-0.3441 Y3.0356
G01 X-0.0500 Y3.0500
G01 X32.5500 Y3.0500
G01 X32.8441 Y3.0356
G01 X33.1353 Y2.9924
G01 X33.4209 Y2.9208
G01 X33.6981 Y2.8217
G01 X33.9642 Y2.6958
G01 X34.2167 Y2.5444
G01 X34.4532 Y2.3691
G01 X34.6713 Y2.1713
G01 X34.8691 Y1.9532
G01 X35.0444 Y1.7167
G01 X35.1958 Y1.4642
G01 X35.3217 Y1.1981
G01 X35.4208 Y0.9209
G01 X35.4924 Y0.6353
G01 X35.5356 Y0.3441
G01 X35.5500 Y0.0500
G01 X35.5500 Y-0.9500
G00 X35.5500 Y-0.9500
G01 F60.00
G01 Z-0.2000
G01 F120.00
G01 X35.5500 Y0.0500
G01 X35.5356 Y0.3441
G01 X35.4924 Y0.6353
G01 X35.4208 Y0.9209
G01 X35.3217 Y1.1981
G01 X35.1958 Y1.4642
G01 X35.0444 Y1.7167
G01 X34.8691 Y1.9532
G01 X34.6713 Y2.1713
G01 X34.4532 Y2.3691
G01 X34.2167 Y2.5444
G01 X33.9642 Y2.6958
G01 X33.6981 Y2.8217
G01 X33.4209 Y2.9208
G01 X33.1353 Y2.9924
G01 X32.8441 Y3.0356
G01 X32.5500 Y3.0500
G01 X-0.0500 Y3.0500
G01 X-0.3441 Y3.0356
G01 X-0.6353 Y2.9924
G01 X-0.9209 Y2.9208
G01 X-1.1981 Y2.8217
G01 X-1.4642 Y2.6958
G01 X-1.7167 Y2.5444
G01 X-1.9532 Y2.3691
G01 X-2.1713 Y2.1713
G01 X-2.3691 Y1.9532
G01 X-2.5444 Y1.7167
G01 X-2.6958 Y1.4642
G01 X-2.8217 Y1.1981
G01 X-2.9208 Y0.9209
G01 X-2.9924 Y0.6353
G01 X-3.0356 Y0.3441
G01 X-3.0500 Y0.0500
G01 X-3.0500 Y-2.9500
G00 X-3.0500 Y-2.9500
G01 F60.00
G01 Z-0.3000
G01 F120.00
G01 X-3.0500 Y0.0500
G01 X-3.0356 Y0.3441
G01 X-2.9924 Y0.6353
G01 X-2.9208 Y0.9209
G01 X-2.8217 Y1.1981
G01 X-2.6958 Y1.4642
G01 X-2.5444 Y1.7167
G01 X-2.3691 Y1.9532
G01 X-2.1713 Y2.1713
G01 X-1.9532 Y2.3691
G01 X-1.7167 Y2.5444
G01 X-1.4642 Y2.6958
G01 X-1.1981 Y2.8217
G01 X-0.9209 Y2.9208
G01 X-0.6353 Y2.9924
G01 X-0.3441 Y3.0356
G01 X-0.0500 Y3.0500
G01 X32.5500 Y3.0500
G01 X32.8441 Y3.0356
G01 X33.1353 Y2.9924
G01 X33.4209 Y2.9208
G01 X33.6981 Y2.8217
G01 X33.9642 Y2.6958
G01 X34.2167 Y2.5444
G01 X34.4532 Y2.3691
G01 X34.6713 Y2.1713
G01 X34.8691 Y1.9532
G01 X35.0444 Y1.7167
G01 X35.1958 Y1.4642
G01 X35.3217 Y1.1981
G01 X35.4208 Y0.9209
G01 X35.4924 Y0.6353
G01 X35.5356 Y0.3441
G01 X35.5500 Y0.0500
G01 X35.5500 Y-0.9500
G00 X35.5500 Y-0.9500
G01 F60.00
G01 Z-0.4000
G01 F120.00
G01 X35.5500 Y0.0500
G01 X35.5356 Y0.3441
G01 X35.4924 Y0.6353
G01 X35.4208 Y0.9209
G01 X35.3217 Y1.1981
G01 X35.1958 Y1.4642
G01 X35.0444 Y1.7167
G01 X34.8691 Y1.9532
G01 X34.6713 Y2.1713
G01 X34.4532 Y2.3691
G01 X34.2167 Y2.5444
G01 X33.9642 Y2.6958
G01 X33.6981 Y2.8217
G01 X33.4209 Y2.9208
G01 X33.1353 Y2.9924
G01 X32.8441 Y3.0356
G01 X32.5500 Y3.0500
G01 X-0.0500 Y3.0500
G01 X-0.3441 Y3.0356
G01 X-0.6353 Y2.9924
G01 X-0.9209 Y2.9208
G01 X-1.1981 Y2.8217
G01 X-1.4642 Y2.6958
G01 X-1.7167 Y2.5444
G01 X-1.9532 Y2.3691
G01 X-2.1713 Y2.1713
G01 X-2.3691 Y1.9532
G01 X-2.5444 Y1.7167
G01 X-2.6958 Y1.4642
G01 X-2.8217 Y1.1981
G01 X-2.9208 Y0.9209
G01 X-2.9924 Y0.6353
G01 X-3.0356 Y0.3441
G01 X-3.0500 Y0.0500
G01 X-3.0500 Y-2.9500
G00 X-3.0500 Y-2.9500
G01 F60.00
G01 Z-0.5000
G01 F120.00
G01 X-3.0500 Y0.0500
G01 X-3.0356 Y0.3441
G01 X-2.9924 Y0.6353
G01 X-2.9208 Y0.9209
G01 X-2.8217 Y1.1981
G01 X-2.6958 Y1.4642
G01 X-2.5444 Y1.7167
G01 X-2.3691 Y1.9532
G01 X-2.1713 Y2.1713
G01 X-1.9532 Y2.3691
G01 X-1.7167 Y2.5444
G01 X-1.4642 Y2.6958
G01 X-1.1981 Y2.8217
G01 X-0.9209 Y2.9208
G01 X-0.6353 Y2.9924
G01 X-0.3441 Y3.0356
G01 X-0.0500 Y3.0500
G01 X32.5500 Y3.0500
G01 X32.8441 Y3.0356
G01 X33.1353 Y2.9924
G01 X33.4209 Y2.9208
G01 X33.6981 Y2.8217
G01 X33.9642 Y2.6958
G01 X34.2167 Y2.5444
G01 X34.4532 Y2.3691
G01 X34.6713 Y2.1713
G01 X34.8691 Y1.9532
G01 X35.0444 Y1.7167
G01 X35.1958 Y1.4642
G01 X35.3217 Y1.1981
G01 X35.4208 Y0.9209
G01 X35.4924 Y0.6353
G01 X35.5356 Y0.3441
G01 X35.5500 Y0.0500
G01 X35.5500 Y-0.9500
G00 X35.5500 Y-0.9500
G01 F60.00
G01 Z-0.6000
G01 F120.00
G01 X35.5500 Y0.0500
G01 X35.5356 Y0.3441
G01 X35.4924 Y0.6353
G01 X35.4208 Y0.9209
G01 X35.3217 Y1.1981
G01 X35.1958 Y1.4642
G01 X35.0444 Y1.7167
G01 X34.8691 Y1.9532
G01 X34.6713 Y2.1713
G01 X34.4532 Y2.3691
G01 X34.2167 Y2.5444
G01 X33.9642 Y2.6958
G01 X33.6981 Y2.8217
G01 X33.4209 Y2.9208
G01 X33.1353 Y2.9924
G01 X32.8441 Y3.0356
G01 X32.5500 Y3.0500
G01 X-0.0500 Y3.0500
G01 X-0.3441 Y3.0356
G01 X-0.6353 Y2.9924
G01 X-0.9209 Y2.9208
G01 X-1.1981 Y2.8217
G01 X-1.4642 Y2.6958
G01 X-1.7167 Y2.5444
G01 X-1.9532 Y2.3691
G01 X-2.1713 Y2.1713
G01 X-2.3691 Y1.9532
G01 X-2.5444 Y1.7167
G01 X-2.6958 Y1.4642
G01 X-2.8217 Y1.1981
G01 X-2.9208 Y0.9209
G01 X-2.9924 Y0.6353
G01 X-3.0356 Y0.3441
G01 X-3.0500 Y0.0500
G01 X-3.0500 Y-2.9500
G00 X-3.0500 Y-2.9500
G01 F60.00
G01 Z-0.7000
G01 F120.00
G01 X-3.0500 Y0.0500
G01 X-3.0356 Y0.3441
G01 X-2.9924 Y0.6353
G01 X-2.9208 Y0.9209
G01 X-2.8217 Y1.1981
G01 X-2.6958 Y1.4642
G01 X-2.5444 Y1.7167
G01 X-2.3691 Y1.9532
G01 X-2.1713 Y2.1713
G01 X-1.9532 Y2.3691
G01 X-1.7167 Y2.5444
G01 X-1.4642 Y2.6958
G01 X-1.1981 Y2.8217
G01 X-0.9209 Y2.9208
G01 X-0.6353 Y2.9924
G01 X-0.3441 Y3.0356
G01 X-0.0500 Y3.0500
G01 X32.5500 Y3.0500
G01 X32.8441 Y3.0356
G01 X33.1353 Y2.9924
G01 X33.4209 Y2.9208
G01 X33.6981 Y2.8217
G01 X33.9642 Y2.6958
G01 X34.2167 Y2.5444
G01 X34.4532 Y2.3691
G01 X34.6713 Y2.1713
G01 X34.8691 Y1.9532
G01 X35.0444 Y1.7167
G01 X35.1958 Y1.4642
G01 X35.3217 Y1.1981
G01 X35.4208 Y0.9209
G01 X35.4924 Y0.6353
G01 X35.5356 Y0.3441
G01 X35.5500 Y0.0500
G01 X35.5500 Y-0.9500
G00 X35.5500 Y-0.9500
G01 F60.00
G01 Z-0.8000
G01 F120.00
G01 X35.5500 Y0.0500
G01 X35.5356 Y0.3441
G01 X35.4924 Y0.6353
G01 X35.4208 Y0.9209
G01 X35.3217 Y1.1981
G01 X35.1958 Y1.4642
G01 X35.0444 Y1.7167
G01 X34.8691 Y1.9532
G01 X34.6713 Y2.1713
G01 X34.4532 Y2.3691
G01 X34.2167 Y2.5444
G01 X33.9642 Y2.6958
G01 X33.6981 Y2.8217
G01 X33.4209 Y2.9208
G01 X33.1353 Y2.9924
G01 X32.8441 Y3.0356
G01 X32.5500 Y3.0500
G01 X-0.0500 Y3.0500
G01 X-0.3441 Y3.0356
G01 X-0.6353 Y2.9924
G01 X-0.9209 Y2.9208
G01 X-1.1981 Y2.8217
G01 X-1.4642 Y2.6958
G01 X-1.7167 Y2.5444
G01 X-1.9532 Y2.3691
G01 X-2.1713 Y2.1713
G01 X-2.3691 Y1.9532
G01 X-2.5444 Y1.7167
G01 X-2.6958 Y1.4642
G01 X-2.8217 Y1.1981
G01 X-2.9208 Y0.9209
G01 X-2.9924 Y0.6353
G01 X-3.0356 Y0.3441
G01 X-3.0500 Y0.0500
G01 X-3.0500 Y-2.9500
G00 X-3.0500 Y-2.9500
G01 F60.00
G01 Z-0.9000
G01 F120.00
G01 X-3.0500 Y0.0500
G01 X-3.0356 Y0.3441
G01 X-2.9924 Y0.6353
G01 X-2.9208 Y0.9209
G01 X-2.8217 Y1.1981
G01 X-2.6958 Y1.4642
G01 X-2.5444 Y1.7167
G01 X-2.3691 Y1.9532
G01 X-2.1713 Y2.1713
G01 X-1.9532 Y2.3691
G01 X-1.7167 Y2.5444
G01 X-1.4642 Y2.6958
G01 X-1.1981 Y2.8217
G01 X-0.9209 Y2.9208
G01 X-0.6353 Y2.9924
G01 X-0.3441 Y3.0356
G01 X-0.0500 Y3.0500
G01 X32.5500 Y3.0500
G01 X32.8441 Y3.0356
G01 X33.1353 Y2.9924
G01 X33.4209 Y2.9208
G01 X33.6981 Y2.8217
G01 X33.9642 Y2.6958
G01 X34.2167 Y2.5444
G01 X34.4532 Y2.3691
G01 X34.6713 Y2.1713
G01 X34.8691 Y1.9532
G01 X35.0444 Y1.7167
G01 X35.1958 Y1.4642
G01 X35.3217 Y1.1981
G01 X35.4208 Y0.9209
G01 X35.4924 Y0.6353
G01 X35.5356 Y0.3441
G01 X35.5500 Y0.0500
G01 X35.5500 Y-0.9500
G00 X35.5500 Y-0.9500
G01 F60.00
G01 Z-1.0000
G01 F120.00
G01 X35.5500 Y0.0500
G01 X35.5356 Y0.3441
G01 X35.4924 Y0.6353
G01 X35.4208 Y0.9209
G01 X35.3217 Y1.1981
G01 X35.1958 Y1.4642
G01 X35.0444 Y1.7167
G01 X34.8691 Y1.9532
G01 X34.6713 Y2.1713
G01 X34.4532 Y2.3691
G01 X34.2167 Y2.5444
G01 X33.9642 Y2.6958
G01 X33.6981 Y2.8217
G01 X33.4209 Y2.9208
G01 X33.1353 Y2.9924
G01 X32.8441 Y3.0356
G01 X32.5500 Y3.0500
G01 X-0.0500 Y3.0500
G01 X-0.3441 Y3.0356
G01 X-0.6353 Y2.9924
G01 X-0.9209 Y2.9208
G01 X-1.1981 Y2.8217
G01 X-1.4642 Y2.6958
G01 X-1.7167 Y2.5444
G01 X-1.9532 Y2.3691
G01 X-2.1713 Y2.1713
G01 X-2.3691 Y1.9532
G01 X-2.5444 Y1.7167
G01 X-2.6958 Y1.4642
G01 X-2.8217 Y1.1981
G01 X-2.9208 Y0.9209
G01 X-2.9924 Y0.6353
G01 X-3.0356 Y0.3441
G01 X-3.0500 Y0.0500
G01 X-3.0500 Y-2.9500
G00 X-3.0500 Y-2.9500
G01 F60.00
G01 Z-1.1000
G01 F120.00
G01 X-3.0500 Y0.0500
G01 X-3.0356 Y0.3441
G01 X-2.9924 Y0.6353
G01 X-2.9208 Y0.9209
G01 X-2.8217 Y1.1981
G01 X-2.6958 Y1.4642
G01 X-2.5444 Y1.7167
G01 X-2.3691 Y1.9532
G01 X-2.1713 Y2.1713
G01 X-1.9532 Y2.3691
G01 X-1.7167 Y2.5444
G01 X-1.4642 Y2.6958
G01 X-1.1981 Y2.8217
G01 X-0.9209 Y2.9208
G01 X-0.6353 Y2.9924
G01 X-0.3441 Y3.0356
G01 X-0.0500 Y3.0500
G01 X32.5500 Y3.0500
G01 X32.8441 Y3.0356
G01 X33.1353 Y2.9924
G01 X33.4209 Y2.9208
G01 X33.6981 Y2.8217
G01 X33.9642 Y2.6958
G01 X34.2167 Y2.5444
G01 X34.4532 Y2.3691
G01 X34.6713 Y2.1713
G01 X34.8691 Y1.9532
G01 X35.0444 Y1.7167
G01 X35.1958 Y1.4642
G01 X35.3217 Y1.1981
G01 X35.4208 Y0.9209
G01 X35.4924 Y0.6353
G01 X35.5356 Y0.3441
G01 X35.5500 Y0.0500
G01 X35.5500 Y-0.9500
G00 X35.5500 Y-0.9500
G01 F60.00
G01 Z-1.2000
G01 F120.00
G01 X35.5500 Y0.0500
G01 X35.5356 Y0.3441
G01 X35.4924 Y0.6353
G01 X35.4208 Y0.9209
G01 X35.3217 Y1.1981
G01 X35.1958 Y1.4642
G01 X35.0444 Y1.7167
G01 X34.8691 Y1.9532
G01 X34.6713 Y2.1713
G01 X34.4532 Y2.3691
G01 X34.2167 Y2.5444
G01 X33.9642 Y2.6958
G01 X33.6981 Y2.8217
G01 X33.4209 Y2.9208
G01 X33.1353 Y2.9924
G01 X32.8441 Y3.0356
G01 X32.5500 Y3.0500
G01 X-0.0500 Y3.0500
G01 X-0.3441 Y3.0356
G01 X-0.6353 Y2.9924
G01 X-0.9209 Y2.9208
G01 X-1.1981 Y2.8217
G01 X-1.4642 Y2.6958
G01 X-1.7167 Y2.5444
G01 X-1.9532 Y2.3691
G01 X-2.1713 Y2.1713
G01 X-2.3691 Y1.9532
G01 X-2.5444 Y1.7167
G01 X-2.6958 Y1.4642
G01 X-2.8217 Y1.1981
G01 X-2.9208 Y0.9209
G01 X-2.9924 Y0.6353
G01 X-3.0356 Y0.3441
G01 X-3.0500 Y0.0500
G01 X-3.0500 Y-2.9500
G00 X-3.0500 Y-2.9500
G01 F60.00
G01 Z-1.3000
G01 F120.00
G01 X-3.0500 Y0.0500
G01 X-3.0356 Y0.3441
G01 X-2.9924 Y0.6353
G01 X-2.9208 Y0.9209
G01 X-2.8217 Y1.1981
G01 X-2.6958 Y1.4642
G01 X-2.5444 Y1.7167
G01 X-2.3691 Y1.9532
G01 X-2.1713 Y2.1713
G01 X-1.9532 Y2.3691
G01 X-1.7167 Y2.5444
G01 X-1.4642 Y2.6958
G01 X-1.1981 Y2.8217
G01 X-0.9209 Y2.9208
G01 X-0.6353 Y2.9924
G01 X-0.3441 Y3.0356
G01 X-0.0500 Y3.0500
G01 X32.5500 Y3.0500
G01 X32.8441 Y3.0356
G01 X33.1353 Y2.9924
G01 X33.4209 Y2.9208
G01 X33.6981 Y2.8217
G01 X33.9642 Y2.6958
G01 X34.2167 Y2.5444
G01 X34.4532 Y2.3691
G01 X34.6713 Y2.1713
G01 X34.8691 Y1.9532
G01 X35.0444 Y1.7167
G01 X35.1958 Y1.4642
G01 X35.3217 Y1.1981
G01 X35.4208 Y0.9209
G01 X35.4924 Y0.6353
G01 X35.5356 Y0.3441
G01 X35.5500 Y0.0500
G01 X35.5500 Y-0.9500
G00 X35.5500 Y-0.9500
G01 F60.00
G01 Z-1.4000
G01 F120.00
G01 X35.5500 Y0.0500
G01 X35.5356 Y0.3441
G01 X35.4924 Y0.6353
G01 X35.4208 Y0.9209
G01 X35.3217 Y1.1981
G01 X35.1958 Y1.4642
G01 X35.0444 Y1.7167
G01 X34.8691 Y1.9532
G01 X34.6713 Y2.1713
G01 X34.4532 Y2.3691
G01 X34.2167 Y2.5444
G01 X33.9642 Y2.6958
G01 X33.6981 Y2.8217
G01 X33.4209 Y2.9208
G01 X33.1353 Y2.9924
G01 X32.8441 Y3.0356
G01 X32.5500 Y3.0500
G01 X-0.0500 Y3.0500
G01 X-0.3441 Y3.0356
G01 X-0.6353 Y2.9924
G01 X-0.9209 Y2.9208
G01 X-1.1981 Y2.8217
G01 X-1.4642 Y2.6958
G01 X-1.7167 Y2.5444
G01 X-1.9532 Y2.3691
G01 X-2.1713 Y2.1713
G01 X-2.3691 Y1.9532
G01 X-2.5444 Y1.7167
G01 X-2.6958 Y1.4642
G01 X-2.8217 Y1.1981
G01 X-2.9208 Y0.9209
G01 X-2.9924 Y0.6353
G01 X-3.0356 Y0.3441
G01 X-3.0500 Y0.0500
G01 X-3.0500 Y-2.9500
G00 X-3.0500 Y-2.9500
G01 F60.00
G01 Z-1.5000
G01 F120.00
G01 X-3.0500 Y0.0500
G01 X-3.0356 Y0.3441
G01 X-2.9924 Y0.6353
G01 X-2.9208 Y0.9209
G01 X-2.8217 Y1.1981
G01 X-2.6958 Y1.4642
G01 X-2.5444 Y1.7167
G01 X-2.3691 Y1.9532
G01 X-2.1713 Y2.1713
G01 X-1.9532 Y2.3691
G01 X-1.7167 Y2.5444
G01 X-1.4642 Y2.6958
G01 X-1.1981 Y2.8217
G01 X-0.9209 Y2.9208
G01 X-0.6353 Y2.9924
G01 X-0.3441 Y3.0356
G01 X-0.0500 Y3.0500
G01 X32.5500 Y3.0500
G01 X32.8441 Y3.0356
G01 X33.1353 Y2.9924
G01 X33.4209 Y2.9208
G01 X33.6981 Y2.8217
G01 X33.9642 Y2.6958
G01 X34.2167 Y2.5444
G01 X34.4532 Y2.3691
G01 X34.6713 Y2.1713
G01 X34.8691 Y1.9532
G01 X35.0444 Y1.7167
G01 X35.1958 Y1.4642
G01 X35.3217 Y1.1981
G01 X35.4208 Y0.9209
G01 X35.4924 Y0.6353
G01 X35.5356 Y0.3441
G01 X35.5500 Y0.0500
G01 X35.5500 Y-0.9500
G00 X35.5500 Y-0.9500
G01 F60.00
G01 Z-1.6000
G01 F120.00
G01 X35.5500 Y0.0500
G01 X35.5356 Y0.3441
G01 X35.4924 Y0.6353
G01 X35.4208 Y0.9209
G01 X35.3217 Y1.1981
G01 X35.1958 Y1.4642
G01 X35.0444 Y1.7167
G01 X34.8691 Y1.9532
G01 X34.6713 Y2.1713
G01 X34.4532 Y2.3691
G01 X34.2167 Y2.5444
G01 X33.9642 Y2.6958
G01 X33.6981 Y2.8217
G01 X33.4209 Y2.9208
G01 X33.1353 Y2.9924
G01 X32.8441 Y3.0356
G01 X32.5500 Y3.0500
G01 X-0.0500 Y3.0500
G01 X-0.3441 Y3.0356
G01 X-0.6353 Y2.9924
G01 X-0.9209 Y2.9208
G01 X-1.1981 Y2.8217
G01 X-1.4642 Y2.6958
G01 X-1.7167 Y2.5444
G01 X-1.9532 Y2.3691
G01 X-2.1713 Y2.1713
G01 X-2.3691 Y1.9532
G01 X-2.5444 Y1.7167
G01 X-2.6958 Y1.4642
G01 X-2.8217 Y1.1981
G01 X-2.9208 Y0.9209
G01 X-2.9924 Y0.6353
G01 X-3.0356 Y0.3441
G01 X-3.0500 Y0.0500
G01 X-3.0500 Y-2.9500
G00 X-3.0500 Y-2.9500
G01 F60.00
G01 Z-1.7000
G01 F120.00
G01 X-3.0500 Y0.0500
G01 X-3.0356 Y0.3441
G01 X-2.9924 Y0.6353
G01 X-2.9208 Y0.9209
G01 X-2.8217 Y1.1981
G01 X-2.6958 Y1.4642
G01 X-2.5444 Y1.7167
G01 X-2.3691 Y1.9532
G01 X-2.1713 Y2.1713
G01 X-1.9532 Y2.3691
G01 X-1.7167 Y2.5444
G01 X-1.4642 Y2.6958
G01 X-1.1981 Y2.8217
G01 X-0.9209 Y2.9208
G01 X-0.6353 Y2.9924
G01 X-0.3441 Y3.0356
G01 X-0.0500 Y3.0500
G01 X32.5500 Y3.0500
G01 X32.8441 Y3.0356
G01 X33.1353 Y2.9924
G01 X33.4209 Y2.9208
G01 X33.6981 Y2.8217
G01 X33.9642 Y2.6958
G01 X34.2167 Y2.5444
G01 X34.4532 Y2.3691
G01 X34.6713 Y2.1713
G01 X34.8691 Y1.9532
G01 X35.0444 Y1.7167
G01 X35.1958 Y1.4642
G01 X35.3217 Y1.1981
G01 X35.4208 Y0.9209
G01 X35.4924 Y0.6353
G01 X35.5356 Y0.3441
G01 X35.5500 Y0.0500
G01 X35.5500 Y-0.9500
G00 X35.5500 Y-0.9500
G01 F60.00
G01 Z-1.8000
G01 F120.00
G01 X35.5500 Y0.0500
G01 X35.5356 Y0.3441
G01 X35.4924 Y0.6353
G01 X35.4208 Y0.9209
G01 X35.3217 Y1.1981
G01 X35.1958 Y1.4642
G01 X35.0444 Y1.7167
G01 X34.8691 Y1.9532
G01 X34.6713 Y2.1713
G01 X34.4532 Y2.3691
G01 X34.2167 Y2.5444
G01 X33.9642 Y2.6958
G01 X33.6981 Y2.8217
G01 X33.4209 Y2.9208
G01 X33.1353 Y2.9924
G01 X32.8441 Y3.0356
G01 X32.5500 Y3.0500
G01 X-0.0500 Y3.0500
G01 X-0.3441 Y3.0356
G01 X-0.6353 Y2.9924
G01 X-0.9209 Y2.9208
G01 X-1.1981 Y2.8217
G01 X-1.4642 Y2.6958
G01 X-1.7167 Y2.5444
G01 X-1.9532 Y2.3691
G01 X-2.1713 Y2.1713
G01 X-2.3691 Y1.9532
G01 X-2.5444 Y1.7167
G01 X-2.6958 Y1.4642
G01 X-2.8217 Y1.1981
G01 X-2.9208 Y0.9209
G01 X-2.9924 Y0.6353
G01 X-3.0356 Y0.3441
G01 X-3.0500 Y0.0500
G01 X-3.0500 Y-2.9500
G00 X-3.0500 Y-2.9500
G01 F60.00
G01 Z-1.9000
G01 F120.00
G01 X-3.0500 Y0.0500
G01 X-3.0356 Y0.3441
G01 X-2.9924 Y0.6353
G01 X-2.9208 Y0.9209
G01 X-2.8217 Y1.1981
G01 X-2.6958 Y1.4642
G01 X-2.5444 Y1.7167
G01 X-2.3691 Y1.9532
G01 X-2.1713 Y2.1713
G01 X-1.9532 Y2.3691
G01 X-1.7167 Y2.5444
G01 X-1.4642 Y2.6958
G01 X-1.1981 Y2.8217
G01 X-0.9209 Y2.9208
G01 X-0.6353 Y2.9924
G01 X-0.3441 Y3.0356
G01 X-0.0500 Y3.0500
G01 X32.5500 Y3.0500
G01 X32.8441 Y3.0356
G01 X33.1353 Y2.9924
G01 X33.4209 Y2.9208
G01 X33.6981 Y2.8217
G01 X33.9642 Y2.6958
G01 X34.2167 Y2.5444
G01 X34.4532 Y2.3691
G01 X34.6713 Y2.1713
G01 X34.8691 Y1.9532
G01 X35.0444 Y1.7167
G01 X35.1958 Y1.4642
G01 X35.3217 Y1.1981
G01 X35.4208 Y0.9209
G01 X35.4924 Y0.6353
G01 X35.5356 Y0.3441
G01 X35.5500 Y0.0500
G01 X35.5500 Y-0.9500
G00 X35.5500 Y-0.9500
G01 F60.00
G01 Z-2.0000
G01 F120.00
G01 X35.5500 Y0.0500
G01 X35.5356 Y0.3441
G01 X35.4924 Y0.6353
G01 X35.4208 Y0.9209
G01 X35.3217 Y1.1981
G01 X35.1958 Y1.4642
G01 X35.0444 Y1.7167
G01 X34.8691 Y1.9532
G01 X34.6713 Y2.1713
G01 X34.4532 Y2.3691
G01 X34.2167 Y2.5444
G01 X33.9642 Y2.6958
G01 X33.6981 Y2.8217
G01 X33.4209 Y2.9208
G01 X33.1353 Y2.9924
G01 X32.8441 Y3.0356
G01 X32.5500 Y3.0500
G01 X-0.0500 Y3.0500
G01 X-0.3441 Y3.0356
G01 X-0.6353 Y2.9924
G01 X-0.9209 Y2.9208
G01 X-1.1981 Y2.8217
G01 X-1.4642 Y2.6958
G01 X-1.7167 Y2.5444
G01 X-1.9532 Y2.3691
G01 X-2.1713 Y2.1713
G01 X-2.3691 Y1.9532
G01 X-2.5444 Y1.7167
G01 X-2.6958 Y1.4642
G01 X-2.8217 Y1.1981
G01 X-2.9208 Y0.9209
G01 X-2.9924 Y0.6353
G01 X-3.0356 Y0.3441
G01 X-3.0500 Y0.0500
G01 X-3.0500 Y-2.9500
G00 X-3.0500 Y-2.9500
G01 F60.00
G01 Z-2.1000
G01 F120.00
G01 X-3.0500 Y0.0500
G01 X-3.0356 Y0.3441
G01 X-2.9924 Y0.6353
G01 X-2.9208 Y0.9209
G01 X-2.8217 Y1.1981
G01 X-2.6958 Y1.4642
G01 X-2.5444 Y1.7167
G01 X-2.3691 Y1.9532
G01 X-2.1713 Y2.1713
G01 X-1.9532 Y2.3691
G01 X-1.7167 Y2.5444
G01 X-1.4642 Y2.6958
G01 X-1.1981 Y2.8217
G01 X-0.9209 Y2.9208
G01 X-0.6353 Y2.9924
G01 X-0.3441 Y3.0356
G01 X-0.0500 Y3.0500
G01 X32.5500 Y3.0500
G01 X32.8441 Y3.0356
G01 X33.1353 Y2.9924
G01 X33.4209 Y2.9208
G01 X33.6981 Y2.8217
G01 X33.9642 Y2.6958
G01 X34.2167 Y2.5444
G01 X34.4532 Y2.3691
G01 X34.6713 Y2.1713
G01 X34.8691 Y1.9532
G01 X35.0444 Y1.7167
G01 X35.1958 Y1.4642
G01 X35.3217 Y1.1981
G01 X35.4208 Y0.9209
G01 X35.4924 Y0.6353
G01 X35.5356 Y0.3441
G01 X35.5500 Y0.0500
G01 X35.5500 Y-0.9500
G00 X35.5500 Y-0.9500
G01 F60.00
G01 Z-2.2000
G01 F120.00
G01 X35.5500 Y0.0500
G01 X35.5356 Y0.3441
G01 X35.4924 Y0.6353
G01 X35.4208 Y0.9209
G01 X35.3217 Y1.1981
G01 X35.1958 Y1.4642
G01 X35.0444 Y1.7167
G01 X34.8691 Y1.9532
G01 X34.6713 Y2.1713
G01 X34.4532 Y2.3691
G01 X34.2167 Y2.5444
G01 X33.9642 Y2.6958
G01 X33.6981 Y2.8217
G01 X33.4209 Y2.9208
G01 X33.1353 Y2.9924
G01 X32.8441 Y3.0356
G01 X32.5500 Y3.0500
G01 X-0.0500 Y3.0500
G01 X-0.3441 Y3.0356
G01 X-0.6353 Y2.9924
G01 X-0.9209 Y2.9208
G01 X-1.1981 Y2.8217
G01 X-1.4642 Y2.6958
G01 X-1.7167 Y2.5444
G01 X-1.9532 Y2.3691
G01 X-2.1713 Y2.1713
G01 X-2.3691 Y1.9532
G01 X-2.5444 Y1.7167
G01 X-2.6958 Y1.4642
G01 X-2.8217 Y1.1981
G01 X-2.9208 Y0.9209
G01 X-2.9924 Y0.6353
G01 X-3.0356 Y0.3441
G01 X-3.0500 Y0.0500
G01 X-3.0500 Y-2.9500
G00 X-3.0500 Y-2.9500
G01 F60.00
G01 Z-2.3000
G01 F120.00
G01 X-3.0500 Y0.0500
G01 X-3.0356 Y0.3441
G01 X-2.9924 Y0.6353
G01 X-2.9208 Y0.9209
G01 X-2.8217 Y1.1981
G01 X-2.6958 Y1.4642
G01 X-2.5444 Y1.7167
G01 X-2.3691 Y1.9532
G01 X-2.1713 Y2.1713
G01 X-1.9532 Y2.3691
G01 X-1.7167 Y2.5444
G01 X-1.4642 Y2.6958
G01 X-1.1981 Y2.8217
G01 X-0.9209 Y2.9208
G01 X-0.6353 Y2.9924
G01 X-0.3441 Y3.0356
G01 X-0.0500 Y3.0500
G01 X32.5500 Y3.0500
G01 X32.8441 Y3.0356
G01 X33.1353 Y2.9924
G01 X33.4209 Y2.9208
G01 X33.6981 Y2.8217
G01 X33.9642 Y2.6958
G01 X34.2167 Y2.5444
G01 X34.4532 Y2.3691
G01 X34.6713 Y2.1713
G01 X34.8691 Y1.9532
G01 X35.0444 Y1.7167
G01 X35.1958 Y1.4642
G01 X35.3217 Y1.1981
G01 X35.4208 Y0.9209
G01 X35.4924 Y0.6353
G01 X35.5356 Y0.3441
G01 X35.5500 Y0.0500
G01 X35.5500 Y-0.9500
G00 X35.5500 Y-0.9500
G01 F60.00
G01 Z-2.4000
G01 F120.00
G01 X35.5500 Y0.0500
G01 X35.5356 Y0.3441
G01 X35.4924 Y0.6353
G01 X35.4208 Y0.9209
G01 X35.3217 Y1.1981
G01 X35.1958 Y1.4642
G01 X35.0444 Y1.7167
G01 X34.8691 Y1.9532
G01 X34.6713 Y2.1713
G01 X34.4532 Y2.3691
G01 X34.2167 Y2.5444
G01 X33.9642 Y2.6958
G01 X33.6981 Y2.8217
G01 X33.4209 Y2.9208
G01 X33.1353 Y2.9924
G01 X32.8441 Y3.0356
G01 X32.5500 Y3.0500
G01 X-0.0500 Y3.0500
G01 X-0.3441 Y3.0356
G01 X-0.6353 Y2.9924
G01 X-0.9209 Y2.9208
G01 X-1.1981 Y2.8217
G01 X-1.4642 Y2.6958
G01 X-1.7167 Y2.5444
G01 X-1.9532 Y2.3691
G01 X-2.1713 Y2.1713
G01 X-2.3691 Y1.9532
G01 X-2.5444 Y1.7167
G01 X-2.6958 Y1.4642
G01 X-2.8217 Y1.1981
G01 X-2.9208 Y0.9209
G01 X-2.9924 Y0.6353
G01 X-3.0356 Y0.3441
G01 X-3.0500 Y0.0500
G01 X-3.0500 Y-2.9500
G00 X-3.0500 Y-2.9500
G01 F60.00
G01 Z-2.5000
G01 F120.00
G01 X-3.0500 Y0.0500
G01 X-3.0356 Y0.3441
G01 X-2.9924 Y0.6353
G01 X-2.9208 Y0.9209
G01 X-2.8217 Y1.1981
G01 X-2.6958 Y1.4642
G01 X-2.5444 Y1.7167
G01 X-2.3691 Y1.9532
G01 X-2.1713 Y2.1713
G01 X-1.9532 Y2.3691
G01 X-1.7167 Y2.5444
G01 X-1.4642 Y2.6958
G01 X-1.1981 Y2.8217
G01 X-0.9209 Y2.9208
G01 X-0.6353 Y2.9924
G01 X-0.3441 Y3.0356
G01 X-0.0500 Y3.0500
G01 X32.5500 Y3.0500
G01 X32.8441 Y3.0356
G01 X33.1353 Y2.9924
G01 X33.4209 Y2.9208
G01 X33.6981 Y2.8217
G01 X33.9642 Y2.6958
G01 X34.2167 Y2.5444
G01 X34.4532 Y2.3691
G01 X34.6713 Y2.1713
G01 X34.8691 Y1.9532
G01 X35.0444 Y1.7167
G01 X35.1958 Y1.4642
G01 X35.3217 Y1.1981
G01 X35.4208 Y0.9209
G01 X35.4924 Y0.6353
G01 X35.5356 Y0.3441
G01 X35.5500 Y0.0500
G01 X35.5500 Y-0.9500
G00 X35.5500 Y-0.9500
G01 F60.00
G01 Z-2.6000
G01 F120.00
G01 X35.5500 Y0.0500
G01 X35.5356 Y0.3441
G01 X35.4924 Y0.6353
G01 X35.4208 Y0.9209
G01 X35.3217 Y1.1981
G01 X35.1958 Y1.4642
G01 X35.0444 Y1.7167
G01 X34.8691 Y1.9532
G01 X34.6713 Y2.1713
G01 X34.4532 Y2.3691
G01 X34.2167 Y2.5444
G01 X33.9642 Y2.6958
G01 X33.6981 Y2.8217
G01 X33.4209 Y2.9208
G01 X33.1353 Y2.9924
G01 X32.8441 Y3.0356
G01 X32.5500 Y3.0500
G01 X-0.0500 Y3.0500
G01 X-0.3441 Y3.0356
G01 X-0.6353 Y2.9924
G01 X-0.9209 Y2.9208
G01 X-1.1981 Y2.8217
G01 X-1.4642 Y2.6958
G01 X-1.7167 Y2.5444
G01 X-1.9532 Y2.3691
G01 X-2.1713 Y2.1713
G01 X-2.3691 Y1.9532
G01 X-2.5444 Y1.7167
G01 X-2.6958 Y1.4642
G01 X-2.8217 Y1.1981
G01 X-2.9208 Y0.9209
G01 X-2.9924 Y0.6353
G01 X-3.0356 Y0.3441
G01 X-3.0500 Y0.0500
G01 X-3.0500 Y-2.9500
G00 X-3.0500 Y-2.9500
G01 F60.00
G01 Z-2.7000
G01 F120.00
G01 X-3.0500 Y0.0500
G01 X-3.0356 Y0.3441
G01 X-2.9924 Y0.6353
G01 X-2.9208 Y0.9209
G01 X-2.8217 Y1.1981
G01 X-2.6958 Y1.4642
G01 X-2.5444 Y1.7167
G01 X-2.3691 Y1.9532
G01 X-2.1713 Y2.1713
G01 X-1.9532 Y2.3691
G01 X-1.7167 Y2.5444
G01 X-1.4642 Y2.6958
G01 X-1.1981 Y2.8217
G01 X-0.9209 Y2.9208
G01 X-0.6353 Y2.9924
G01 X-0.3441 Y3.0356
G01 X-0.0500 Y3.0500
G01 X32.5500 Y3.0500
G01 X32.8441 Y3.0356
G01 X33.1353 Y2.9924
G01 X33.4209 Y2.9208
G01 X33.6981 Y2.8217
G01 X33.9642 Y2.6958
G01 X34.2167 Y2.5444
G01 X34.4532 Y2.3691
G01 X34.6713 Y2.1713
G01 X34.8691 Y1.9532
G01 X35.0444 Y1.7167
G01 X35.1958 Y1.4642
G01 X35.3217 Y1.1981
G01 X35.4208 Y0.9209
G01 X35.4924 Y0.6353
G01 X35.5356 Y0.3441
G01 X35.5500 Y0.0500
G01 X35.5500 Y-0.9500
G00 X35.5500 Y-0.9500
G01 F60.00
G01 Z-2.8000
G01 F120.00
G01 X35.5500 Y0.0500
G01 X35.5356 Y0.3441
G01 X35.4924 Y0.6353
G01 X35.4208 Y0.9209
G01 X35.3217 Y1.1981
G01 X35.1958 Y1.4642
G01 X35.0444 Y1.7167
G01 X34.8691 Y1.9532
G01 X34.6713 Y2.1713
G01 X34.4532 Y2.3691
G01 X34.2167 Y2.5444
G01 X33.9642 Y2.6958
G01 X33.6981 Y2.8217
G01 X33.4209 Y2.9208
G01 X33.1353 Y2.9924
G01 X32.8441 Y3.0356
G01 X32.5500 Y3.0500
G01 X-0.0500 Y3.0500
G01 X-0.3441 Y3.0356
G01 X-0.6353 Y2.9924
G01 X-0.9209 Y2.9208
G01 X-1.1981 Y2.8217
G01 X-1.4642 Y2.6958
G01 X-1.7167 Y2.5444
G01 X-1.9532 Y2.3691
G01 X-2.1713 Y2.1713
G01 X-2.3691 Y1.9532
G01 X-2.5444 Y1.7167
G01 X-2.6958 Y1.4642
G01 X-2.8217 Y1.1981
G01 X-2.9208 Y0.9209
G01 X-2.9924 Y0.6353
G01 X-3.0356 Y0.3441
G01 X-3.0500 Y0.0500
G01 X-3.0500 Y-2.9500
G00 X-3.0500 Y-2.9500
G01 F60.00
G01 Z-2.9000
G01 F120.00
G01 X-3.0500 Y0.0500
G01 X-3.0356 Y0.3441
G01 X-2.9924 Y0.6353
G01 X-2.9208 Y0.9209
G01 X-2.8217 Y1.1981
G01 X-2.6958 Y1.4642
G01 X-2.5444 Y1.7167
G01 X-2.3691 Y1.9532
G01 X-2.1713 Y2.1713
G01 X-1.9532 Y2.3691
G01 X-1.7167 Y2.5444
G01 X-1.4642 Y2.6958
G01 X-1.1981 Y2.8217
G01 X-0.9209 Y2.9208
G01 X-0.6353 Y2.9924
G01 X-0.3441 Y3.0356
G01 X-0.0500 Y3.0500
G01 X32.5500 Y3.0500
G01 X32.8441 Y3.0356
G01 X33.1353 Y2.9924
G01 X33.4209 Y2.9208
G01 X33.6981 Y2.8217
G01 X33.9642 Y2.6958
G01 X34.2167 Y2.5444
G01 X34.4532 Y2.3691
G01 X34.6713 Y2.1713
G01 X34.8691 Y1.9532
G01 X35.0444 Y1.7167
G01 X35.1958 Y1.4642
G01 X35.3217 Y1.1981
G01 X35.4208 Y0.9209
G01 X35.4924 Y0.6353
G01 X35.5356 Y0.3441
G01 X35.5500 Y0.0500
G01 X35.5500 Y-0.9500
G00 X35.5500 Y-0.9500
G01 F60.00
G01 Z-3.0000
G01 F120.00
G01 X35.5500 Y0.0500
G01 X35.5356 Y0.3441
G01 X35.4924 Y0.6353
G01 X35.4208 Y0.9209
G01 X35.3217 Y1.1981
G01 X35.1958 Y1.4642
G01 X35.0444 Y1.7167
G01 X34.8691 Y1.9532
G01 X34.6713 Y2.1713
G01 X34.4532 Y2.3691
G01 X34.2167 Y2.5444
G01 X33.9642 Y2.6958
G01 X33.6981 Y2.8217
G01 X33.4209 Y2.9208
G01 X33.1353 Y2.9924
G01 X32.8441 Y3.0356
G01 X32.5500 Y3.0500
G01 X-0.0500 Y3.0500
G01 X-0.3441 Y3.0356
G01 X-0.6353 Y2.9924
G01 X-0.9209 Y2.9208
G01 X-1.1981 Y2.8217
G01 X-1.4642 Y2.6958
G01 X-1.7167 Y2.5444
G01 X-1.9532 Y2.3691
G01 X-2.1713 Y2.1713
G01 X-2.3691 Y1.9532
G01 X-2.5444 Y1.7167
G01 X-2.6958 Y1.4642
G01 X-2.8217 Y1.1981
G01 X-2.9208 Y0.9209
G01 X-2.9924 Y0.6353
G01 X-3.0356 Y0.3441
G01 X-3.0500 Y0.0500
G01 X-3.0500 Y-2.9500
G00 Z5.0000
G00 X35.5500 Y-3.0500
G01 F60.00
G01 Z-0.1000
G01 F120.00
G01 X35.5500 Y-6.5500
G01 X35.5356 Y-6.8441
G01 X35.4924 Y-7.1353
G01 X35.4208 Y-7.4209
G01 X35.3217 Y-7.6981
G01 X35.1958 Y-7.9642
G01 X35.0444 Y-8.2167
G01 X34.8691 Y-8.4532
G01 X34.6713 Y-8.6713
G01 X34.4532 Y-8.8691
G01 X34.2167 Y-9.0444
G01 X33.9642 Y-9.1958
G01 X33.6981 Y-9.3217
G01 X33.4209 Y-9.4208
G01 X33.1353 Y-9.4924
G01 X32.8441 Y-9.5356
G01 X32.5500 Y-9.5500
G01 X-0.0500 Y-9.5500
G01 X-0.3441 Y-9.5356
G01 X-0.6353 Y-9.4924
G01 X-0.9209 Y-9.4208
G01 X-1.1981 Y-9.3217
G01 X-1.4642 Y-9.1958
G01 X-1.7167 Y-9.0444
G01 X-1.9532 Y-8.8691
G01 X-2.1713 Y-8.6713
G01 X-2.3691 Y-8.4532
G01 X-2.5444 Y-8.2167
G01 X-2.6958 Y-7.9642
G01 X-2.8217 Y-7.6981
G01 X-2.9208 Y-7.4209
G01 X-2.9924 Y-7.1353
G01 X-3.0356 Y-6.8441
G01 X-3.0500 Y-6.5500
G01 X-3.0500 Y-5.0500
G00 X-3.0500 Y-5.0500
G01 F60.00
G01 Z-0.2000
G01 F120.00
G01 X-3.0500 Y-6.5500
G01 X-3.0356 Y-6.8441
G01 X-2.9924 Y-7.1353
G01 X-2.9208 Y-7.4209
G01 X-2.8217 Y-7.6981
G01 X-2.6958 Y-7.9642
G01 X-2.5444 Y-8.2167
G01 X-2.3691 Y-8.4532
G01 X-2.1713 Y-8.6713
G01 X-1.9532 Y-8.8691
G01 X-1.7167 Y-9.0444
G01 X-1.4642 Y-9.1958
G01 X-1.1981 Y-9.3217
G01 X-0.9209 Y-9.4208
G01 X-0.6353 Y-9.4924
G01 X-0.3441 Y-9.5356
G01 X-0.0500 Y-9.5500
G01 X32.5500 Y-9.5500
G01 X32.8441 Y-9.5356
G01 X33.1353 Y-9.4924
G01 X33.4209 Y-9.4208
G01 X33.6981 Y-9.3217
G01 X33.9642 Y-9.1958
G01 X34.2167 Y-9.0444
G01 X34.4532 Y-8.8691
G01 X34.6713 Y-8.6713
G01 X34.8691 Y-8.4532
G01 X35.0444 Y-8.2167
G01 X35.1958 Y-7.9642
G01 X35.3217 Y-7.6981
G01 X35.4208 Y-7.4209
G01 X35.4924 Y-7.1353
G01 X35.5356 Y-6.8441
G01 X35.5500 Y-6.5500
G01 X35.5500 Y-3.0500
G00 X35.5500 Y-3.0500
G01 F60.00
G01 Z-0.3000
G01 F120.00
G01 X35.5500 Y-6.5500
G01 X35.5356 Y-6.8441
G01 X35.4924 Y-7.1353
G01 X35.4208 Y-7.4209
G01 X35.3217 Y-7.6981
G01 X35.1958 Y-7.9642
G01 X35.0444 Y-8.2167
G01 X34.8691 Y-8.4532
G01 X34.6713 Y-8.6713
G01 X34.4532 Y-8.8691
G01 X34.2167 Y-9.0444
G01 X33.9642 Y-9.1958
G01 X33.6981 Y-9.3217
G01 X33.4209 Y-9.4208
G01 X33.1353 Y-9.4924
G01 X32.8441 Y-9.5356
G01 X32.5500 Y-9.5500
G01 X-0.0500 Y-9.5500
G01 X-0.3441 Y-9.5356
G01 X-0.6353 Y-9.4924
G01 X-0.9209 Y-9.4208
G01 X-1.1981 Y-9.3217
G01 X-1.4642 Y-9.1958
G01 X-1.7167 Y-9.0444
G01 X-1.9532 Y-8.8691
G01 X-2.1713 Y-8.6713
G01 X-2.3691 Y-8.4532
G01 X-2.5444 Y-8.2167
G01 X-2.6958 Y-7.9642
G01 X-2.8217 Y-7.6981
G01 X-2.9208 Y-7.4209
G01 X-2.9924 Y-7.1353
G01 X-3.0356 Y-6.8441
G01 X-3.0500 Y-6.5500
G01 X-3.0500 Y-5.0500
G00 X-3.0500 Y-5.0500
G01 F60.00
G01 Z-0.4000
G01 F120.00
G01 X-3.0500 Y-6.5500
G01 X-3.0356 Y-6.8441
G01 X-2.9924 Y-7.1353
G01 X-2.9208 Y-7.4209
G01 X-2.8217 Y-7.6981
G01 X-2.6958 Y-7.9642
G01 X-2.5444 Y-8.2167
G01 X-2.3691 Y-8.4532
G01 X-2.1713 Y-8.6713
G01 X-1.9532 Y-8.8691
G01 X-1.7167 Y-9.0444
G01 X-1.4642 Y-9.1958
G01 X-1.1981 Y-9.3217
G01 X-0.9209 Y-9.4208
G01 X-0.6353 Y-9.4924
G01 X-0.3441 Y-9.5356
G01 X-0.0500 Y-9.5500
G01 X32.5500 Y-9.5500
G01 X32.8441 Y-9.5356
G01 X33.1353 Y-9.4924
G01 X33.4209 Y-9.4208
G01 X33.6981 Y-9.3217
G01 X33.9642 Y-9.1958
G01 X34.2167 Y-9.0444
G01 X34.4532 Y-8.8691
G01 X34.6713 Y-8.6713
G01 X34.8691 Y-8.4532
G01 X35.0444 Y-8.2167
G01 X35.1958 Y-7.9642
G01 X35.3217 Y-7.6981
G01 X35.4208 Y-7.4209
G01 X35.4924 Y-7.1353
G01 X35.5356 Y-6.8441
G01 X35.5500 Y-6.5500
G01 X35.5500 Y-3.0500
G00 X35.5500 Y-3.0500
G01 F60.00
G01 Z-0.5000
G01 F120.00
G01 X35.5500 Y-6.5500
G01 X35.5356 Y-6.8441
G01 X35.4924 Y-7.1353
G01 X35.4208 Y-7.4209
G01 X35.3217 Y-7.6981
G01 X35.1958 Y-7.9642
G01 X35.0444 Y-8.2167
G01 X34.8691 Y-8.4532
G01 X34.6713 Y-8.6713
G01 X34.4532 Y-8.8691
G01 X34.2167 Y-9.0444
G01 X33.9642 Y-9.1958
G01 X33.6981 Y-9.3217
G01 X33.4209 Y-9.4208
G01 X33.1353 Y-9.4924
G01 X32.8441 Y-9.5356
G01 X32.5500 Y-9.5500
G01 X-0.0500 Y-9.5500
G01 X-0.3441 Y-9.5356
G01 X-0.6353 Y-9.4924
G01 X-0.9209 Y-9.4208
G01 X-1.1981 Y-9.3217
G01 X-1.4642 Y-9.1958
G01 X-1.7167 Y-9.0444
G01 X-1.9532 Y-8.8691
G01 X-2.1713 Y-8.6713
G01 X-2.3691 Y-8.4532
G01 X-2.5444 Y-8.2167
G01 X-2.6958 Y-7.9642
G01 X-2.8217 Y-7.6981
G01 X-2.9208 Y-7.4209
G01 X-2.9924 Y-7.1353
G01 X-3.0356 Y-6.8441
G01 X-3.0500 Y-6.5500
G01 X-3.0500 Y-5.0500
G00 X-3.0500 Y-5.0500
G01 F60.00
G01 Z-0.6000
G01 F120.00
G01 X-3.0500 Y-6.5500
G01 X-3.0356 Y-6.8441
G01 X-2.9924 Y-7.1353
G01 X-2.9208 Y-7.4209
G01 X-2.8217 Y-7.6981
G01 X-2.6958 Y-7.9642
G01 X-2.5444 Y-8.2167
G01 X-2.3691 Y-8.4532
G01 X-2.1713 Y-8.6713
G01 X-1.9532 Y-8.8691
G01 X-1.7167 Y-9.0444
G01 X-1.4642 Y-9.1958
G01 X-1.1981 Y-9.3217
G01 X-0.9209 Y-9.4208
G01 X-0.6353 Y-9.4924
G01 X-0.3441 Y-9.5356
G01 X-0.0500 Y-9.5500
G01 X32.5500 Y-9.5500
G01 X32.8441 Y-9.5356
G01 X33.1353 Y-9.4924
G01 X33.4209 Y-9.4208
G01 X33.6981 Y-9.3217
G01 X33.9642 Y-9.1958
G01 X34.2167 Y-9.0444
G01 X34.4532 Y-8.8691
G01 X34.6713 Y-8.6713
G01 X34.8691 Y-8.4532
G01 X35.0444 Y-8.2167
G01 X35.1958 Y-7.9642
G01 X35.3217 Y-7.6981
G01 X35.4208 Y-7.4209
G01 X35.4924 Y-7.1353
G01 X35.5356 Y-6.8441
G01 X35.5500 Y-6.5500
G01 X35.5500 Y-3.0500
G00 X35.5500 Y-3.0500
G01 F60.00
G01 Z-0.7000
G01 F120.00
G01 X35.5500 Y-6.5500
G01 X35.5356 Y-6.8441
G01 X35.4924 Y-7.1353
G01 X35.4208 Y-7.4209
G01 X35.3217 Y-7.6981
G01 X35.1958 Y-7.9642
G01 X35.0444 Y-8.2167
G01 X34.8691 Y-8.4532
G01 X34.6713 Y-8.6713
G01 X34.4532 Y-8.8691
G01 X34.2167 Y-9.0444
G01 X33.9642 Y-9.1958
G01 X33.6981 Y-9.3217
G01 X33.4209 Y-9.4208
G01 X33.1353 Y-9.4924
G01 X32.8441 Y-9.5356
G01 X32.5500 Y-9.5500
G01 X-0.0500 Y-9.5500
G01 X-0.3441 Y-9.5356
G01 X-0.6353 Y-9.4924
G01 X-0.9209 Y-9.4208
G01 X-1.1981 Y-9.3217
G01 X-1.4642 Y-9.1958
G01 X-1.7167 Y-9.0444
G01 X-1.9532 Y-8.8691
G01 X-2.1713 Y-8.6713
G01 X-2.3691 Y-8.4532
G01 X-2.5444 Y-8.2167
G01 X-2.6958 Y-7.9642
G01 X-2.8217 Y-7.6981
G01 X-2.9208 Y-7.4209
G01 X-2.9924 Y-7.1353
G01 X-3.0356 Y-6.8441
G01 X-3.0500 Y-6.5500
G01 X-3.0500 Y-5.0500
G00 X-3.0500 Y-5.0500
G01 F60.00
G01 Z-0.8000
G01 F120.00
G01 X-3.0500 Y-6.5500
G01 X-3.0356 Y-6.8441
G01 X-2.9924 Y-7.1353
G01 X-2.9208 Y-7.4209
G01 X-2.8217 Y-7.6981
G01 X-2.6958 Y-7.9642
G01 X-2.5444 Y-8.2167
G01 X-2.3691 Y-8.4532
G01 X-2.1713 Y-8.6713
G01 X-1.9532 Y-8.8691
G01 X-1.7167 Y-9.0444
G01 X-1.4642 Y-9.1958
G01 X-1.1981 Y-9.3217
G01 X-0.9209 Y-9.4208
G01 X-0.6353 Y-9.4924
G01 X-0.3441 Y-9.5356
G01 X-0.0500 Y-9.5500
G01 X32.5500 Y-9.5500
G01 X32.8441 Y-9.5356
G01 X33.1353 Y-9.4924
G01 X33.4209 Y-9.4208
G01 X33.6981 Y-9.3217
G01 X33.9642 Y-9.1958
G01 X34.2167 Y-9.0444
G01 X34.4532 Y-8.8691
G01 X34.6713 Y-8.6713
G01 X34.8691 Y-8.4532
G01 X35.0444 Y-8.2167
G01 X35.1958 Y-7.9642
G01 X35.3217 Y-7.6981
G01 X35.4208 Y-7.4209
G01 X35.4924 Y-7.1353
G01 X35.5356 Y-6.8441
G01 X35.5500 Y-6.5500
G01 X35.5500 Y-3.0500
G00 X35.5500 Y-3.0500
G01 F60.00
G01 Z-0.9000
G01 F120.00
G01 X35.5500 Y-6.5500
G01 X35.5356 Y-6.8441
G01 X35.4924 Y-7.1353
G01 X35.4208 Y-7.4209
G01 X35.3217 Y-7.6981
G01 X35.1958 Y-7.9642
G01 X35.0444 Y-8.2167
G01 X34.8691 Y-8.4532
G01 X34.6713 Y-8.6713
G01 X34.4532 Y-8.8691
G01 X34.2167 Y-9.0444
G01 X33.9642 Y-9.1958
G01 X33.6981 Y-9.3217
G01 X33.4209 Y-9.4208
G01 X33.1353 Y-9.4924
G01 X32.8441 Y-9.5356
G01 X32.5500 Y-9.5500
G01 X-0.0500 Y-9.5500
G01 X-0.3441 Y-9.5356
G01 X-0.6353 Y-9.4924
G01 X-0.9209 Y-9.4208
G01 X-1.1981 Y-9.3217
G01 X-1.4642 Y-9.1958
G01 X-1.7167 Y-9.0444
G01 X-1.9532 Y-8.8691
G01 X-2.1713 Y-8.6713
G01 X-2.3691 Y-8.4532
G01 X-2.5444 Y-8.2167
G01 X-2.6958 Y-7.9642
G01 X-2.8217 Y-7.6981
G01 X-2.9208 Y-7.4209
G01 X-2.9924 Y-7.1353
G01 X-3.0356 Y-6.8441
G01 X-3.0500 Y-6.5500
G01 X-3.0500 Y-5.0500
G00 X-3.0500 Y-5.0500
G01 F60.00
G01 Z-1.0000
G01 F120.00
G01 X-3.0500 Y-6.5500
G01 X-3.0356 Y-6.8441
G01 X-2.9924 Y-7.1353
G01 X-2.9208 Y-7.4209
G01 X-2.8217 Y-7.6981
G01 X-2.6958 Y-7.9642
G01 X-2.5444 Y-8.2167
G01 X-2.3691 Y-8.4532
G01 X-2.1713 Y-8.6713
G01 X-1.9532 Y-8.8691
G01 X-1.7167 Y-9.0444
G01 X-1.4642 Y-9.1958
G01 X-1.1981 Y-9.3217
G01 X-0.9209 Y-9.4208
G01 X-0.6353 Y-9.4924
G01 X-0.3441 Y-9.5356
G01 X-0.0500 Y-9.5500
G01 X32.5500 Y-9.5500
G01 X32.8441 Y-9.5356
G01 X33.1353 Y-9.4924
G01 X33.4209 Y-9.4208
G01 X33.6981 Y-9.3217
G01 X33.9642 Y-9.1958
G01 X34.2167 Y-9.0444
G01 X34.4532 Y-8.8691
G01 X34.6713 Y-8.6713
G01 X34.8691 Y-8.4532
G01 X35.0444 Y-8.2167
G01 X35.1958 Y-7.9642
G01 X35.3217 Y-7.6981
G01 X35.4208 Y-7.4209
G01 X35.4924 Y-7.1353
G01 X35.5356 Y-6.8441
G01 X35.5500 Y-6.5500
G01 X35.5500 Y-3.0500
G00 X35.5500 Y-3.0500
G01 F60.00
G01 Z-1.1000
G01 F120.00
G01 X35.5500 Y-6.5500
G01 X35.5356 Y-6.8441
G01 X35.4924 Y-7.1353
G01 X35.4208 Y-7.4209
G01 X35.3217 Y-7.6981
G01 X35.1958 Y-7.9642
G01 X35.0444 Y-8.2167
G01 X34.8691 Y-8.4532
G01 X34.6713 Y-8.6713
G01 X34.4532 Y-8.8691
G01 X34.2167 Y-9.0444
G01 X33.9642 Y-9.1958
G01 X33.6981 Y-9.3217
G01 X33.4209 Y-9.4208
G01 X33.1353 Y-9.4924
G01 X32.8441 Y-9.5356
G01 X32.5500 Y-9.5500
G01 X-0.0500 Y-9.5500
G01 X-0.3441 Y-9.5356
G01 X-0.6353 Y-9.4924
G01 X-0.9209 Y-9.4208
G01 X-1.1981 Y-9.3217
G01 X-1.4642 Y-9.1958
G01 X-1.7167 Y-9.0444
G01 X-1.9532 Y-8.8691
G01 X-2.1713 Y-8.6713
G01 X-2.3691 Y-8.4532
G01 X-2.5444 Y-8.2167
G01 X-2.6958 Y-7.9642
G01 X-2.8217 Y-7.6981
G01 X-2.9208 Y-7.4209
G01 X-2.9924 Y-7.1353
G01 X-3.0356 Y-6.8441
G01 X-3.0500 Y-6.5500
G01 X-3.0500 Y-5.0500
G00 X-3.0500 Y-5.0500
G01 F60.00
G01 Z-1.2000
G01 F120.00
G01 X-3.0500 Y-6.5500
G01 X-3.0356 Y-6.8441
G01 X-2.9924 Y-7.1353
G01 X-2.9208 Y-7.4209
G01 X-2.8217 Y-7.6981
G01 X-2.6958 Y-7.9642
G01 X-2.5444 Y-8.2167
G01 X-2.3691 Y-8.4532
G01 X-2.1713 Y-8.6713
G01 X-1.9532 Y-8.8691
G01 X-1.7167 Y-9.0444
G01 X-1.4642 Y-9.1958
G01 X-1.1981 Y-9.3217
G01 X-0.9209 Y-9.4208
G01 X-0.6353 Y-9.4924
G01 X-0.3441 Y-9.5356
G01 X-0.0500 Y-9.5500
G01 X32.5500 Y-9.5500
G01 X32.8441 Y-9.5356
G01 X33.1353 Y-9.4924
G01 X33.4209 Y-9.4208
G01 X33.6981 Y-9.3217
G01 X33.9642 Y-9.1958
G01 X34.2167 Y-9.0444
G01 X34.4532 Y-8.8691
G01 X34.6713 Y-8.6713
G01 X34.8691 Y-8.4532
G01 X35.0444 Y-8.2167
G01 X35.1958 Y-7.9642
G01 X35.3217 Y-7.6981
G01 X35.4208 Y-7.4209
G01 X35.4924 Y-7.1353
G01 X35.5356 Y-6.8441
G01 X35.5500 Y-6.5500
G01 X35.5500 Y-3.0500
G00 X35.5500 Y-3.0500
G01 F60.00
G01 Z-1.3000
G01 F120.00
G01 X35.5500 Y-6.5500
G01 X35.5356 Y-6.8441
G01 X35.4924 Y-7.1353
G01 X35.4208 Y-7.4209
G01 X35.3217 Y-7.6981
G01 X35.1958 Y-7.9642
G01 X35.0444 Y-8.2167
G01 X34.8691 Y-8.4532
G01 X34.6713 Y-8.6713
G01 X34.4532 Y-8.8691
G01 X34.2167 Y-9.0444
G01 X33.9642 Y-9.1958
G01 X33.6981 Y-9.3217
G01 X33.4209 Y-9.4208
G01 X33.1353 Y-9.4924
G01 X32.8441 Y-9.5356
G01 X32.5500 Y-9.5500
G01 X-0.0500 Y-9.5500
G01 X-0.3441 Y-9.5356
G01 X-0.6353 Y-9.4924
G01 X-0.9209 Y-9.4208
G01 X-1.1981 Y-9.3217
G01 X-1.4642 Y-9.1958
G01 X-1.7167 Y-9.0444
G01 X-1.9532 Y-8.8691
G01 X-2.1713 Y-8.6713
G01 X-2.3691 Y-8.4532
G01 X-2.5444 Y-8.2167
G01 X-2.6958 Y-7.9642
G01 X-2.8217 Y-7.6981
G01 X-2.9208 Y-7.4209
G01 X-2.9924 Y-7.1353
G01 X-3.0356 Y-6.8441
G01 X-3.0500 Y-6.5500
G01 X-3.0500 Y-5.0500
G00 X-3.0500 Y-5.0500
G01 F60.00
G01 Z-1.4000
G01 F120.00
G01 X-3.0500 Y-6.5500
G01 X-3.0356 Y-6.8441
G01 X-2.9924 Y-7.1353
G01 X-2.9208 Y-7.4209
G01 X-2.8217 Y-7.6981
G01 X-2.6958 Y-7.9642
G01 X-2.5444 Y-8.2167
G01 X-2.3691 Y-8.4532
G01 X-2.1713 Y-8.6713
G01 X-1.9532 Y-8.8691
G01 X-1.7167 Y-9.0444
G01 X-1.4642 Y-9.1958
G01 X-1.1981 Y-9.3217
G01 X-0.9209 Y-9.4208
G01 X-0.6353 Y-9.4924
G01 X-0.3441 Y-9.5356
G01 X-0.0500 Y-9.5500
G01 X32.5500 Y-9.5500
G01 X32.8441 Y-9.5356
G01 X33.1353 Y-9.4924
G01 X33.4209 Y-9.4208
G01 X33.6981 Y-9.3217
G01 X33.9642 Y-9.1958
G01 X34.2167 Y-9.0444
G01 X34.4532 Y-8.8691
G01 X34.6713 Y-8.6713
G01 X34.8691 Y-8.4532
G01 X35.0444 Y-8.2167
G01 X35.1958 Y-7.9642
G01 X35.3217 Y-7.6981
G01 X35.4208 Y-7.4209
G01 X35.4924 Y-7.1353
G01 X35.5356 Y-6.8441
G01 X35.5500 Y-6.5500
G01 X35.5500 Y-3.0500
G00 X35.5500 Y-3.0500
G01 F60.00
G01 Z-1.5000
G01 F120.00
G01 X35.5500 Y-6.5500
G01 X35.5356 Y-6.8441
G01 X35.4924 Y-7.1353
G01 X35.4208 Y-7.4209
G01 X35.3217 Y-7.6981
G01 X35.1958 Y-7.9642
G01 X35.0444 Y-8.2167
G01 X34.8691 Y-8.4532
G01 X34.6713 Y-8.6713
G01 X34.4532 Y-8.8691
G01 X34.2167 Y-9.0444
G01 X33.9642 Y-9.1958
G01 X33.6981 Y-9.3217
G01 X33.4209 Y-9.4208
G01 X33.1353 Y-9.4924
G01 X32.8441 Y-9.5356
G01 X32.5500 Y-9.5500
G01 X-0.0500 Y-9.5500
G01 X-0.3441 Y-9.5356
G01 X-0.6353 Y-9.4924
G01 X-0.9209 Y-9.4208
G01 X-1.1981 Y-9.3217
G01 X-1.4642 Y-9.1958
G01 X-1.7167 Y-9.0444
G01 X-1.9532 Y-8.8691
G01 X-2.1713 Y-8.6713
G01 X-2.3691 Y-8.4532
G01 X-2.5444 Y-8.2167
G01 X-2.6958 Y-7.9642
G01 X-2.8217 Y-7.6981
G01 X-2.9208 Y-7.4209
G01 X-2.9924 Y-7.1353
G01 X-3.0356 Y-6.8441
G01 X-3.0500 Y-6.5500
G01 X-3.0500 Y-5.0500
G00 X-3.0500 Y-5.0500
G01 F60.00
G01 Z-1.6000
G01 F120.00
G01 X-3.0500 Y-6.5500
G01 X-3.0356 Y-6.8441
G01 X-2.9924 Y-7.1353
G01 X-2.9208 Y-7.4209
G01 X-2.8217 Y-7.6981
G01 X-2.6958 Y-7.9642
G01 X-2.5444 Y-8.2167
G01 X-2.3691 Y-8.4532
G01 X-2.1713 Y-8.6713
G01 X-1.9532 Y-8.8691
G01 X-1.7167 Y-9.0444
G01 X-1.4642 Y-9.1958
G01 X-1.1981 Y-9.3217
G01 X-0.9209 Y-9.4208
G01 X-0.6353 Y-9.4924
G01 X-0.3441 Y-9.5356
G01 X-0.0500 Y-9.5500
G01 X32.5500 Y-9.5500
G01 X32.8441 Y-9.5356
G01 X33.1353 Y-9.4924
G01 X33.4209 Y-9.4208
G01 X33.6981 Y-9.3217
G01 X33.9642 Y-9.1958
G01 X34.2167 Y-9.0444
G01 X34.4532 Y-8.8691
G01 X34.6713 Y-8.6713
G01 X34.8691 Y-8.4532
G01 X35.0444 Y-8.2167
G01 X35.1958 Y-7.9642
G01 X35.3217 Y-7.6981
G01 X35.4208 Y-7.4209
G01 X35.4924 Y-7.1353
G01 X35.5356 Y-6.8441
G01 X35.5500 Y-6.5500
G01 X35.5500 Y-3.0500
G00 X35.5500 Y-3.0500
G01 F60.00
G01 Z-1.7000
G01 F120.00
G01 X35.5500 Y-6.5500
G01 X35.5356 Y-6.8441
G01 X35.4924 Y-7.1353
G01 X35.4208 Y-7.4209
G01 X35.3217 Y-7.6981
G01 X35.1958 Y-7.9642
G01 X35.0444 Y-8.2167
G01 X34.8691 Y-8.4532
G01 X34.6713 Y-8.6713
G01 X34.4532 Y-8.8691
G01 X34.2167 Y-9.0444
G01 X33.9642 Y-9.1958
G01 X33.6981 Y-9.3217
G01 X33.4209 Y-9.4208
G01 X33.1353 Y-9.4924
G01 X32.8441 Y-9.5356
G01 X32.5500 Y-9.5500
G01 X-0.0500 Y-9.5500
G01 X-0.3441 Y-9.5356
G01 X-0.6353 Y-9.4924
G01 X-0.9209 Y-9.4208
G01 X-1.1981 Y-9.3217
G01 X-1.4642 Y-9.1958
G01 X-1.7167 Y-9.0444
G01 X-1.9532 Y-8.8691
G01 X-2.1713 Y-8.6713
G01 X-2.3691 Y-8.4532
G01 X-2.5444 Y-8.2167
G01 X-2.6958 Y-7.9642
G01 X-2.8217 Y-7.6981
G01 X-2.9208 Y-7.4209
G01 X-2.9924 Y-7.1353
G01 X-3.0356 Y-6.8441
G01 X-3.0500 Y-6.5500
G01 X-3.0500 Y-5.0500
G00 X-3.0500 Y-5.0500
G01 F60.00
G01 Z-1.8000
G01 F120.00
G01 X-3.0500 Y-6.5500
G01 X-3.0356 Y-6.8441
G01 X-2.9924 Y-7.1353
G01 X-2.9208 Y-7.4209
G01 X-2.8217 Y-7.6981
G01 X-2.6958 Y-7.9642
G01 X-2.5444 Y-8.2167
G01 X-2.3691 Y-8.4532
G01 X-2.1713 Y-8.6713
G01 X-1.9532 Y-8.8691
G01 X-1.7167 Y-9.0444
G01 X-1.4642 Y-9.1958
G01 X-1.1981 Y-9.3217
G01 X-0.9209 Y-9.4208
G01 X-0.6353 Y-9.4924
G01 X-0.3441 Y-9.5356
G01 X-0.0500 Y-9.5500
G01 X32.5500 Y-9.5500
G01 X32.8441 Y-9.5356
G01 X33.1353 Y-9.4924
G01 X33.4209 Y-9.4208
G01 X33.6981 Y-9.3217
G01 X33.9642 Y-9.1958
G01 X34.2167 Y-9.0444
G01 X34.4532 Y-8.8691
G01 X34.6713 Y-8.6713
G01 X34.8691 Y-8.4532
G01 X35.0444 Y-8.2167
G01 X35.1958 Y-7.9642
G01 X35.3217 Y-7.6981
G01 X35.4208 Y-7.4209
G01 X35.4924 Y-7.1353
G01 X35.5356 Y-6.8441
G01 X35.5500 Y-6.5500
G01 X35.5500 Y-3.0500
G00 X35.5500 Y-3.0500
G01 F60.00
G01 Z-1.9000
G01 F120.00
G01 X35.5500 Y-6.5500
G01 X35.5356 Y-6.8441
G01 X35.4924 Y-7.1353
G01 X35.4208 Y-7.4209
G01 X35.3217 Y-7.6981
G01 X35.1958 Y-7.9642
G01 X35.0444 Y-8.2167
G01 X34.8691 Y-8.4532
G01 X34.6713 Y-8.6713
G01 X34.4532 Y-8.8691
G01 X34.2167 Y-9.0444
G01 X33.9642 Y-9.1958
G01 X33.6981 Y-9.3217
G01 X33.4209 Y-9.4208
G01 X33.1353 Y-9.4924
G01 X32.8441 Y-9.5356
G01 X32.5500 Y-9.5500
G01 X-0.0500 Y-9.5500
G01 X-0.3441 Y-9.5356
G01 X-0.6353 Y-9.4924
G01 X-0.9209 Y-9.4208
G01 X-1.1981 Y-9.3217
G01 X-1.4642 Y-9.1958
G01 X-1.7167 Y-9.0444
G01 X-1.9532 Y-8.8691
G01 X-2.1713 Y-8.6713
G01 X-2.3691 Y-8.4532
G01 X-2.5444 Y-8.2167
G01 X-2.6958 Y-7.9642
G01 X-2.8217 Y-7.6981
G01 X-2.9208 Y-7.4209
G01 X-2.9924 Y-7.1353
G01 X-3.0356 Y-6.8441
G01 X-3.0500 Y-6.5500
G01 X-3.0500 Y-5.0500
G00 X-3.0500 Y-5.0500
G01 F60.00
G01 Z-2.0000
G01 F120.00
G01 X-3.0500 Y-6.5500
G01 X-3.0356 Y-6.8441
G01 X-2.9924 Y-7.1353
G01 X-2.9208 Y-7.4209
G01 X-2.8217 Y-7.6981
G01 X-2.6958 Y-7.9642
G01 X-2.5444 Y-8.2167
G01 X-2.3691 Y-8.4532
G01 X-2.1713 Y-8.6713
G01 X-1.9532 Y-8.8691
G01 X-1.7167 Y-9.0444
G01 X-1.4642 Y-9.1958
G01 X-1.1981 Y-9.3217
G01 X-0.9209 Y-9.4208
G01 X-0.6353 Y-9.4924
G01 X-0.3441 Y-9.5356
G01 X-0.0500 Y-9.5500
G01 X32.5500 Y-9.5500
G01 X32.8441 Y-9.5356
G01 X33.1353 Y-9.4924
G01 X33.4209 Y-9.4208
G01 X33.6981 Y-9.3217
G01 X33.9642 Y-9.1958
G01 X34.2167 Y-9.0444
G01 X34.4532 Y-8.8691
G01 X34.6713 Y-8.6713
G01 X34.8691 Y-8.4532
G01 X35.0444 Y-8.2167
G01 X35.1958 Y-7.9642
G01 X35.3217 Y-7.6981
G01 X35.4208 Y-7.4209
G01 X35.4924 Y-7.1353
G01 X35.5356 Y-6.8441
G01 X35.5500 Y-6.5500
G01 X35.5500 Y-3.0500
G00 X35.5500 Y-3.0500
G01 F60.00
G01 Z-2.1000
G01 F120.00
G01 X35.5500 Y-6.5500
G01 X35.5356 Y-6.8441
G01 X35.4924 Y-7.1353
G01 X35.4208 Y-7.4209
G01 X35.3217 Y-7.6981
G01 X35.1958 Y-7.9642
G01 X35.0444 Y-8.2167
G01 X34.8691 Y-8.4532
G01 X34.6713 Y-8.6713
G01 X34.4532 Y-8.8691
G01 X34.2167 Y-9.0444
G01 X33.9642 Y-9.1958
G01 X33.6981 Y-9.3217
G01 X33.4209 Y-9.4208
G01 X33.1353 Y-9.4924
G01 X32.8441 Y-9.5356
G01 X32.5500 Y-9.5500
G01 X-0.0500 Y-9.5500
G01 X-0.3441 Y-9.5356
G01 X-0.6353 Y-9.4924
G01 X-0.9209 Y-9.4208
G01 X-1.1981 Y-9.3217
G01 X-1.4642 Y-9.1958
G01 X-1.7167 Y-9.0444
G01 X-1.9532 Y-8.8691
G01 X-2.1713 Y-8.6713
G01 X-2.3691 Y-8.4532
G01 X-2.5444 Y-8.2167
G01 X-2.6958 Y-7.9642
G01 X-2.8217 Y-7.6981
G01 X-2.9208 Y-7.4209
G01 X-2.9924 Y-7.1353
G01 X-3.0356 Y-6.8441
G01 X-3.0500 Y-6.5500
G01 X-3.0500 Y-5.0500
G00 X-3.0500 Y-5.0500
G01 F60.00
G01 Z-2.2000
G01 F120.00
G01 X-3.0500 Y-6.5500
G01 X-3.0356 Y-6.8441
G01 X-2.9924 Y-7.1353
G01 X-2.9208 Y-7.4209
G01 X-2.8217 Y-7.6981
G01 X-2.6958 Y-7.9642
G01 X-2.5444 Y-8.2167
G01 X-2.3691 Y-8.4532
G01 X-2.1713 Y-8.6713
G01 X-1.9532 Y-8.8691
G01 X-1.7167 Y-9.0444
G01 X-1.4642 Y-9.1958
G01 X-1.1981 Y-9.3217
G01 X-0.9209 Y-9.4208
G01 X-0.6353 Y-9.4924
G01 X-0.3441 Y-9.5356
G01 X-0.0500 Y-9.5500
G01 X32.5500 Y-9.5500
G01 X32.8441 Y-9.5356
G01 X33.1353 Y-9.4924
G01 X33.4209 Y-9.4208
G01 X33.6981 Y-9.3217
G01 X33.9642 Y-9.1958
G01 X34.2167 Y-9.0444
G01 X34.4532 Y-8.8691
G01 X34.6713 Y-8.6713
G01 X34.8691 Y-8.4532
G01 X35.0444 Y-8.2167
G01 X35.1958 Y-7.9642
G01 X35.3217 Y-7.6981
G01 X35.4208 Y-7.4209
G01 X35.4924 Y-7.1353
G01 X35.5356 Y-6.8441
G01 X35.5500 Y-6.5500
G01 X35.5500 Y-3.0500
G00 X35.5500 Y-3.0500
G01 F60.00
G01 Z-2.3000
G01 F120.00
G01 X35.5500 Y-6.5500
G01 X35.5356 Y-6.8441
G01 X35.4924 Y-7.1353
G01 X35.4208 Y-7.4209
G01 X35.3217 Y-7.6981
G01 X35.1958 Y-7.9642
G01 X35.0444 Y-8.2167
G01 X34.8691 Y-8.4532
G01 X34.6713 Y-8.6713
G01 X34.4532 Y-8.8691
G01 X34.2167 Y-9.0444
G01 X33.9642 Y-9.1958
G01 X33.6981 Y-9.3217
G01 X33.4209 Y-9.4208
G01 X33.1353 Y-9.4924
G01 X32.8441 Y-9.5356
G01 X32.5500 Y-9.5500
G01 X-0.0500 Y-9.5500
G01 X-0.3441 Y-9.5356
G01 X-0.6353 Y-9.4924
G01 X-0.9209 Y-9.4208
G01 X-1.1981 Y-9.3217
G01 X-1.4642 Y-9.1958
G01 X-1.7167 Y-9.0444
G01 X-1.9532 Y-8.8691
G01 X-2.1713 Y-8.6713
G01 X-2.3691 Y-8.4532
G01 X-2.5444 Y-8.2167
G01 X-2.6958 Y-7.9642
G01 X-2.8217 Y-7.6981
G01 X-2.9208 Y-7.4209
G01 X-2.9924 Y-7.1353
G01 X-3.0356 Y-6.8441
G01 X-3.0500 Y-6.5500
G01 X-3.0500 Y-5.0500
G00 X-3.0500 Y-5.0500
G01 F60.00
G01 Z-2.4000
G01 F120.00
G01 X-3.0500 Y-6.5500
G01 X-3.0356 Y-6.8441
G01 X-2.9924 Y-7.1353
G01 X-2.9208 Y-7.4209
G01 X-2.8217 Y-7.6981
G01 X-2.6958 Y-7.9642
G01 X-2.5444 Y-8.2167
G01 X-2.3691 Y-8.4532
G01 X-2.1713 Y-8.6713
G01 X-1.9532 Y-8.8691
G01 X-1.7167 Y-9.0444
G01 X-1.4642 Y-9.1958
G01 X-1.1981 Y-9.3217
G01 X-0.9209 Y-9.4208
G01 X-0.6353 Y-9.4924
G01 X-0.3441 Y-9.5356
G01 X-0.0500 Y-9.5500
G01 X32.5500 Y-9.5500
G01 X32.8441 Y-9.5356
G01 X33.1353 Y-9.4924
G01 X33.4209 Y-9.4208
G01 X33.6981 Y-9.3217
G01 X33.9642 Y-9.1958
G01 X34.2167 Y-9.0444
G01 X34.4532 Y-8.8691
G01 X34.6713 Y-8.6713
G01 X34.8691 Y-8.4532
G01 X35.0444 Y-8.2167
G01 X35.1958 Y-7.9642
G01 X35.3217 Y-7.6981
G01 X35.4208 Y-7.4209
G01 X35.4924 Y-7.1353
G01 X35.5356 Y-6.8441
G01 X35.5500 Y-6.5500
G01 X35.5500 Y-3.0500
G00 X35.5500 Y-3.0500
G01 F60.00
G01 Z-2.5000
G01 F120.00
G01 X35.5500 Y-6.5500
G01 X35.5356 Y-6.8441
G01 X35.4924 Y-7.1353
G01 X35.4208 Y-7.4209
G01 X35.3217 Y-7.6981
G01 X35.1958 Y-7.9642
G01 X35.0444 Y-8.2167
G01 X34.8691 Y-8.4532
G01 X34.6713 Y-8.6713
G01 X34.4532 Y-8.8691
G01 X34.2167 Y-9.0444
G01 X33.9642 Y-9.1958
G01 X33.6981 Y-9.3217
G01 X33.4209 Y-9.4208
G01 X33.1353 Y-9.4924
G01 X32.8441 Y-9.5356
G01 X32.5500 Y-9.5500
G01 X-0.0500 Y-9.5500
G01 X-0.3441 Y-9.5356
G01 X-0.6353 Y-9.4924
G01 X-0.9209 Y-9.4208
G01 X-1.1981 Y-9.3217
G01 X-1.4642 Y-9.1958
G01 X-1.7167 Y-9.0444
G01 X-1.9532 Y-8.8691
G01 X-2.1713 Y-8.6713
G01 X-2.3691 Y-8.4532
G01 X-2.5444 Y-8.2167
G01 X-2.6958 Y-7.9642
G01 X-2.8217 Y-7.6981
G01 X-2.9208 Y-7.4209
G01 X-2.9924 Y-7.1353
G01 X-3.0356 Y-6.8441
G01 X-3.0500 Y-6.5500
G01 X-3.0500 Y-5.0500
G00 X-3.0500 Y-5.0500
G01 F60.00
G01 Z-2.6000
G01 F120.00
G01 X-3.0500 Y-6.5500
G01 X-3.0356 Y-6.8441
G01 X-2.9924 Y-7.1353
G01 X-2.9208 Y-7.4209
G01 X-2.8217 Y-7.6981
G01 X-2.6958 Y-7.9642
G01 X-2.5444 Y-8.2167
G01 X-2.3691 Y-8.4532
G01 X-2.1713 Y-8.6713
G01 X-1.9532 Y-8.8691
G01 X-1.7167 Y-9.0444
G01 X-1.4642 Y-9.1958
G01 X-1.1981 Y-9.3217
G01 X-0.9209 Y-9.4208
G01 X-0.6353 Y-9.4924
G01 X-0.3441 Y-9.5356
G01 X-0.0500 Y-9.5500
G01 X32.5500 Y-9.5500
G01 X32.8441 Y-9.5356
G01 X33.1353 Y-9.4924
G01 X33.4209 Y-9.4208
G01 X33.6981 Y-9.3217
G01 X33.9642 Y-9.1958
G01 X34.2167 Y-9.0444
G01 X34.4532 Y-8.8691
G01 X34.6713 Y-8.6713
G01 X34.8691 Y-8.4532
G01 X35.0444 Y-8.2167
G01 X35.1958 Y-7.9642
G01 X35.3217 Y-7.6981
G01 X35.4208 Y-7.4209
G01 X35.4924 Y-7.1353
G01 X35.5356 Y-6.8441
G01 X35.5500 Y-6.5500
G01 X35.5500 Y-3.0500
G00 X35.5500 Y-3.0500
G01 F60.00
G01 Z-2.7000
G01 F120.00
G01 X35.5500 Y-6.5500
G01 X35.5356 Y-6.8441
G01 X35.4924 Y-7.1353
G01 X35.4208 Y-7.4209
G01 X35.3217 Y-7.6981
G01 X35.1958 Y-7.9642
G01 X35.0444 Y-8.2167
G01 X34.8691 Y-8.4532
G01 X34.6713 Y-8.6713
G01 X34.4532 Y-8.8691
G01 X34.2167 Y-9.0444
G01 X33.9642 Y-9.1958
G01 X33.6981 Y-9.3217
G01 X33.4209 Y-9.4208
G01 X33.1353 Y-9.4924
G01 X32.8441 Y-9.5356
G01 X32.5500 Y-9.5500
G01 X-0.0500 Y-9.5500
G01 X-0.3441 Y-9.5356
G01 X-0.6353 Y-9.4924
G01 X-0.9209 Y-9.4208
G01 X-1.1981 Y-9.3217
G01 X-1.4642 Y-9.1958
G01 X-1.7167 Y-9.0444
G01 X-1.9532 Y-8.8691
G01 X-2.1713 Y-8.6713
G01 X-2.3691 Y-8.4532
G01 X-2.5444 Y-8.2167
G01 X-2.6958 Y-7.9642
G01 X-2.8217 Y-7.6981
G01 X-2.9208 Y-7.4209
G01 X-2.9924 Y-7.1353
G01 X-3.0356 Y-6.8441
G01 X-3.0500 Y-6.5500
G01 X-3.0500 Y-5.0500
G00 X-3.0500 Y-5.0500
G01 F60.00
G01 Z-2.8000
G01 F120.00
G01 X-3.0500 Y-6.5500
G01 X-3.0356 Y-6.8441
G01 X-2.9924 Y-7.1353
G01 X-2.9208 Y-7.4209
G01 X-2.8217 Y-7.6981
G01 X-2.6958 Y-7.9642
G01 X-2.5444 Y-8.2167
G01 X-2.3691 Y-8.4532
G01 X-2.1713 Y-8.6713
G01 X-1.9532 Y-8.8691
G01 X-1.7167 Y-9.0444
G01 X-1.4642 Y-9.1958
G01 X-1.1981 Y-9.3217
G01 X-0.9209 Y-9.4208
G01 X-0.6353 Y-9.4924
G01 X-0.3441 Y-9.5356
G01 X-0.0500 Y-9.5500
G01 X32.5500 Y-9.5500
G01 X32.8441 Y-9.5356
G01 X33.1353 Y-9.4924
G01 X33.4209 Y-9.4208
G01 X33.6981 Y-9.3217
G01 X33.9642 Y-9.1958
G01 X34.2167 Y-9.0444
G01 X34.4532 Y-8.8691
G01 X34.6713 Y-8.6713
G01 X34.8691 Y-8.4532
G01 X35.0444 Y-8.2167
G01 X35.1958 Y-7.9642
G01 X35.3217 Y-7.6981
G01 X35.4208 Y-7.4209
G01 X35.4924 Y-7.1353
G01 X35.5356 Y-6.8441
G01 X35.5500 Y-6.5500
G01 X35.5500 Y-3.0500
G00 X35.5500 Y-3.0500
G01 F60.00
G01 Z-2.9000
G01 F120.00
G01 X35.5500 Y-6.5500
G01 X35.5356 Y-6.8441
G01 X35.4924 Y-7.1353
G01 X35.4208 Y-7.4209
G01 X35.3217 Y-7.6981
G01 X35.1958 Y-7.9642
G01 X35.0444 Y-8.2167
G01 X34.8691 Y-8.4532
G01 X34.6713 Y-8.6713
G01 X34.4532 Y-8.8691
G01 X34.2167 Y-9.0444
G01 X33.9642 Y-9.1958
G01 X33.6981 Y-9.3217
G01 X33.4209 Y-9.4208
G01 X33.1353 Y-9.4924
G01 X32.8441 Y-9.5356
G01 X32.5500 Y-9.5500
G01 X-0.0500 Y-9.5500
G01 X-0.3441 Y-9.5356
G01 X-0.6353 Y-9.4924
G01 X-0.9209 Y-9.4208
G01 X-1.1981 Y-9.3217
G01 X-1.4642 Y-9.1958
G01 X-1.7167 Y-9.0444
G01 X-1.9532 Y-8.8691
G01 X-2.1713 Y-8.6713
G01 X-2.3691 Y-8.4532
G01 X-2.5444 Y-8.2167
G01 X-2.6958 Y-7.9642
G01 X-2.8217 Y-7.6981
G01 X-2.9208 Y-7.4209
G01 X-2.9924 Y-7.1353
G01 X-3.0356 Y-6.8441
G01 X-3.0500 Y-6.5500
G01 X-3.0500 Y-5.0500
G00 X-3.0500 Y-5.0500
G01 F60.00
G01 Z-3.0000
G01 F120.00
G01 X-3.0500 Y-6.5500
G01 X-3.0356 Y-6.8441
G01 X-2.9924 Y-7.1353
G01 X-2.9208 Y-7.4209
G01 X-2.8217 Y-7.6981
G01 X-2.6958 Y-7.9642
G01 X-2.5444 Y-8.2167
G01 X-2.3691 Y-8.4532
G01 X-2.1713 Y-8.6713
G01 X-1.9532 Y-8.8691
G01 X-1.7167 Y-9.0444
G01 X-1.4642 Y-9.1958
G01 X-1.1981 Y-9.3217
G01 X-0.9209 Y-9.4208
G01 X-0.6353 Y-9.4924
G01 X-0.3441 Y-9.5356
G01 X-0.0500 Y-9.5500
G01 X32.5500 Y-9.5500
G01 X32.8441 Y-9.5356
G01 X33.1353 Y-9.4924
G01 X33.4209 Y-9.4208
G01 X33.6981 Y-9.3217
G01 X33.9642 Y-9.1958
G01 X34.2167 Y-9.0444
G01 X34.4532 Y-8.8691
G01 X34.6713 Y-8.6713
G01 X34.8691 Y-8.4532
G01 X35.0444 Y-8.2167
G01 X35.1958 Y-7.9642
G01 X35.3217 Y-7.6981
G01 X35.4208 Y-7.4209
G01 X35.4924 Y-7.1353
G01 X35.5356 Y-6.8441
G01 X35.5500 Y-6.5500
G01 X35.5500 Y-3.0500
G00 Z5.0000
M05
G00 Z5.0000
G00 Z30.00


