(G-CODE GENERATED BY FLATCAM v8.994 - www.flatcam.org - Version Date: 2020/11/7)

(Name: screen3_Ф2_низ.gbr_iso_combined_cnc)
(Type: G-code from Geometry)
(Units: MM)

(Created on Friday, 10 November 2023 at 13:37)

(This preprocessor is the default preprocessor used by FlatCAM.)
(It is made to work with MACH3 compatible motion controllers.)

(TOOL DIAMETER: 2.0 mm)
(Feedrate_XY: 120.0 mm/min)
(Feedrate_Z: 60.0 mm/min)
(Feedrate rapids 1500.0 mm/min)

(Z_Cut: -1.0 mm)
(DepthPerCut: 0.10000000000000014 mm <=>10 passes)
(Z_Move: 5.0 mm)
(Z Start: None mm)
(Z End: 30.0 mm)
(X,Y End: None mm)
(Steps per circle: 64)
(Preprocessor Geometry: default)

(X range:   -1.0500 ...   33.5500  mm)
(Y range:   -7.5500 ...    1.0500  mm)

(Spindle Speed: 2000.0 RPM)
G21
G90
G94

G01 F120.00

M5
G00 Z30.0000
G00 X0.0000 Y0.0000
T1
M6    
(MSG, Change to Tool Dia = 2.0000)
M0
G00 Z30.0000

M03 S2000.0
G01 F120.00
G00 X-1.0497 Y-0.7742
G01 F60.00
G01 Z-0.1000
G01 F120.00
G01 X-1.0500 Y-0.8000
G01 X-1.0500 Y-5.7000
G01 X-1.0497 Y-5.7270
G01 X-1.0488 Y-5.7515
G01 X-1.0449 Y-5.8299
G01 X-1.0434 Y-5.8544
G01 X-1.0408 Y-5.8838
G01 X-1.0381 Y-5.9082
G01 X-1.0348 Y-5.9325
G01 X-1.0233 Y-6.0101
G01 X-1.0194 Y-6.0344
G01 X-1.0149 Y-6.0585
G01 X-1.0089 Y-6.0873
G01 X-0.9841 Y-6.1874
G01 X-0.9779 Y-6.2111
G01 X-0.9710 Y-6.2347
G01 X-0.9622 Y-6.2628
G01 X-0.9542 Y-6.2860
G01 X-0.9192 Y-6.3829
G01 X-0.9101 Y-6.4057
G01 X-0.8985 Y-6.4328
G01 X-0.8547 Y-6.5261
G01 X-0.8440 Y-6.5481
G01 X-0.8327 Y-6.5699
G01 X-0.8185 Y-6.5957
G01 X-0.7658 Y-6.6843
G01 X-0.7529 Y-6.7052
G01 X-0.7396 Y-6.7257
G01 X-0.7229 Y-6.7501
G01 X-0.7086 Y-6.7700
G01 X-0.6469 Y-6.8525
G01 X-0.6316 Y-6.8717
G01 X-0.6127 Y-6.8943
G01 X-0.5437 Y-6.9708
G01 X-0.5270 Y-6.9888
G01 X-0.5099 Y-7.0064
G01 X-0.4888 Y-7.0270
G01 X-0.4127 Y-7.0964
G01 X-0.3943 Y-7.1127
G01 X-0.3755 Y-7.1285
G01 X-0.3525 Y-7.1469
G01 X-0.3330 Y-7.1618
G01 X-0.2501 Y-7.2229
G01 X-0.2298 Y-7.2368
G01 X-0.2052 Y-7.2529
G01 X-0.1169 Y-7.3062
G01 X-0.0957 Y-7.3185
G01 X-0.0742 Y-7.3304
G01 X-0.0481 Y-7.3440
G01 X0.0449 Y-7.3883
G01 X0.0672 Y-7.3985
G01 X0.0898 Y-7.4082
G01 X0.1171 Y-7.4192
G01 X0.1401 Y-7.4277
G01 X0.2372 Y-7.4622
G01 X0.2606 Y-7.4696
G01 X0.2889 Y-7.4779
G01 X0.3888 Y-7.5032
G01 X0.4127 Y-7.5089
G01 X0.4367 Y-7.5139
G01 X0.4656 Y-7.5194
G01 X0.4899 Y-7.5233
G01 X0.5675 Y-7.5348
G01 X0.5918 Y-7.5381
G01 X0.6211 Y-7.5413
G01 X0.6456 Y-7.5434
G01 X0.6701 Y-7.5449
G01 X0.7485 Y-7.5488
G01 X0.7755 Y-7.5497
G01 X0.8000 Y-7.5500
G01 X31.7000 Y-7.5500
G01 X31.7270 Y-7.5497
G01 X31.7515 Y-7.5488
G01 X31.8544 Y-7.5434
G01 X31.8789 Y-7.5413
G01 X31.9082 Y-7.5381
G01 X32.0101 Y-7.5233
G01 X32.0344 Y-7.5194
G01 X32.0633 Y-7.5139
G01 X32.0873 Y-7.5089
G01 X32.1112 Y-7.5032
G01 X32.1874 Y-7.4841
G01 X32.2111 Y-7.4779
G01 X32.2347 Y-7.4710
G01 X32.2628 Y-7.4622
G01 X32.2860 Y-7.4542
G01 X32.3829 Y-7.4192
G01 X32.4057 Y-7.4101
G01 X32.4328 Y-7.3985
G01 X32.5261 Y-7.3547
G01 X32.5481 Y-7.3440
G01 X32.5699 Y-7.3327
G01 X32.5957 Y-7.3185
G01 X32.6843 Y-7.2658
G01 X32.7052 Y-7.2529
G01 X32.7257 Y-7.2396
G01 X32.7501 Y-7.2229
G01 X32.7700 Y-7.2086
G01 X32.8525 Y-7.1469
G01 X32.8717 Y-7.1316
G01 X32.8943 Y-7.1127
G01 X32.9708 Y-7.0437
G01 X32.9888 Y-7.0270
G01 X33.0099 Y-7.0064
G01 X33.0270 Y-6.9888
G01 X33.0437 Y-6.9708
G01 X33.0964 Y-6.9127
G01 X33.1127 Y-6.8943
G01 X33.1285 Y-6.8755
G01 X33.1469 Y-6.8525
G01 X33.1618 Y-6.8330
G01 X33.2086 Y-6.7700
G01 X33.2229 Y-6.7501
G01 X33.2368 Y-6.7298
G01 X33.2529 Y-6.7052
G01 X33.2658 Y-6.6843
G01 X33.3185 Y-6.5957
G01 X33.3304 Y-6.5742
G01 X33.3440 Y-6.5481
G01 X33.3883 Y-6.4551
G01 X33.3985 Y-6.4328
G01 X33.4082 Y-6.4102
G01 X33.4192 Y-6.3829
G01 X33.4542 Y-6.2860
G01 X33.4622 Y-6.2628
G01 X33.4696 Y-6.2394
G01 X33.4779 Y-6.2111
G01 X33.5032 Y-6.1112
G01 X33.5089 Y-6.0873
G01 X33.5139 Y-6.0633
G01 X33.5194 Y-6.0344
G01 X33.5233 Y-6.0101
G01 X33.5348 Y-5.9325
G01 X33.5381 Y-5.9082
G01 X33.5413 Y-5.8789
G01 X33.5434 Y-5.8544
G01 X33.5449 Y-5.8299
G01 X33.5488 Y-5.7515
G01 X33.5497 Y-5.7245
G01 X33.5500 Y-5.7000
G01 X33.5500 Y-0.8000
G01 X33.5497 Y-0.7730
G01 X33.5488 Y-0.7485
G01 X33.5449 Y-0.6701
G01 X33.5434 Y-0.6456
G01 X33.5408 Y-0.6162
G01 X33.5381 Y-0.5918
G01 X33.5348 Y-0.5675
G01 X33.5233 Y-0.4899
G01 X33.5194 Y-0.4656
G01 X33.5149 Y-0.4415
G01 X33.5089 Y-0.4127
G01 X33.4841 Y-0.3126
G01 X33.4779 Y-0.2889
G01 X33.4710 Y-0.2653
G01 X33.4622 Y-0.2372
G01 X33.4542 Y-0.2140
G01 X33.4192 Y-0.1171
G01 X33.4101 Y-0.0943
G01 X33.3985 Y-0.0672
G01 X33.3547 Y0.0261
G01 X33.3440 Y0.0481
G01 X33.3327 Y0.0699
G01 X33.3185 Y0.0957
G01 X33.2658 Y0.1843
G01 X33.2529 Y0.2052
G01 X33.2396 Y0.2257
G01 X33.2229 Y0.2501
G01 X33.2086 Y0.2700
G01 X33.1469 Y0.3525
G01 X33.1316 Y0.3717
G01 X33.1127 Y0.3943
G01 X33.0437 Y0.4708
G01 X33.0270 Y0.4888
G01 X33.0099 Y0.5064
G01 X32.9888 Y0.5270
G01 X32.9127 Y0.5964
G01 X32.8943 Y0.6127
G01 X32.8755 Y0.6285
G01 X32.8525 Y0.6469
G01 X32.8330 Y0.6618
G01 X32.7501 Y0.7229
G01 X32.7298 Y0.7368
G01 X32.7052 Y0.7529
G01 X32.6169 Y0.8062
G01 X32.5957 Y0.8185
G01 X32.5742 Y0.8304
G01 X32.5481 Y0.8440
G01 X32.4551 Y0.8883
G01 X32.4328 Y0.8985
G01 X32.4102 Y0.9082
G01 X32.3829 Y0.9192
G01 X32.3599 Y0.9277
G01 X32.2628 Y0.9622
G01 X32.2394 Y0.9696
G01 X32.2111 Y0.9779
G01 X32.1112 Y1.0032
G01 X32.0873 Y1.0089
G01 X32.0633 Y1.0139
G01 X32.0344 Y1.0194
G01 X32.0101 Y1.0233
G01 X31.9325 Y1.0348
G01 X31.9082 Y1.0381
G01 X31.8789 Y1.0413
G01 X31.8544 Y1.0434
G01 X31.8299 Y1.0449
G01 X31.7515 Y1.0488
G01 X31.7245 Y1.0497
G01 X31.7000 Y1.0500
G01 X0.8000 Y1.0500
G01 X0.7730 Y1.0497
G01 X0.7485 Y1.0488
G01 X0.6701 Y1.0449
G01 X0.6456 Y1.0434
G01 X0.6211 Y1.0413
G01 X0.5918 Y1.0381
G01 X0.4899 Y1.0233
G01 X0.4656 Y1.0194
G01 X0.4415 Y1.0149
G01 X0.4127 Y1.0089
G01 X0.3126 Y0.9841
G01 X0.2889 Y0.9779
G01 X0.2653 Y0.9710
G01 X0.2372 Y0.9622
G01 X0.1401 Y0.9277
G01 X0.1171 Y0.9192
G01 X0.0943 Y0.9101
G01 X0.0672 Y0.8985
G01 X0.0449 Y0.8883
G01 X-0.0481 Y0.8440
G01 X-0.0699 Y0.8327
G01 X-0.0957 Y0.8185
G01 X-0.1843 Y0.7658
G01 X-0.2052 Y0.7529
G01 X-0.2257 Y0.7396
G01 X-0.2501 Y0.7229
G01 X-0.3330 Y0.6618
G01 X-0.3525 Y0.6469
G01 X-0.3717 Y0.6316
G01 X-0.3943 Y0.6127
G01 X-0.4708 Y0.5437
G01 X-0.4888 Y0.5270
G01 X-0.5064 Y0.5099
G01 X-0.5270 Y0.4888
G01 X-0.5964 Y0.4127
G01 X-0.6127 Y0.3943
G01 X-0.6316 Y0.3717
G01 X-0.6469 Y0.3525
G01 X-0.6618 Y0.3330
G01 X-0.7086 Y0.2700
G01 X-0.7229 Y0.2501
G01 X-0.7396 Y0.2257
G01 X-0.7529 Y0.2052
G01 X-0.7658 Y0.1843
G01 X-0.8062 Y0.1169
G01 X-0.8185 Y0.0957
G01 X-0.8327 Y0.0699
G01 X-0.8440 Y0.0481
G01 X-0.8547 Y0.0261
G01 X-0.8883 Y-0.0449
G01 X-0.8985 Y-0.0672
G01 X-0.9101 Y-0.0943
G01 X-0.9192 Y-0.1171
G01 X-0.9277 Y-0.1401
G01 X-0.9542 Y-0.2140
G01 X-0.9622 Y-0.2372
G01 X-0.9696 Y-0.2606
G01 X-0.9779 Y-0.2889
G01 X-0.9841 Y-0.3126
G01 X-1.0032 Y-0.3888
G01 X-1.0089 Y-0.4127
G01 X-1.0139 Y-0.4367
G01 X-1.0194 Y-0.4656
G01 X-1.0233 Y-0.4899
G01 X-1.0348 Y-0.5675
G01 X-1.0381 Y-0.5918
G01 X-1.0408 Y-0.6162
G01 X-1.0434 Y-0.6456
G01 X-1.0449 Y-0.6701
G01 X-1.0488 Y-0.7485
G01 X-1.0497 Y-0.7742
G00 X-1.0497 Y-0.7742
G01 F60.00
G01 Z-0.2000
G01 F120.00
G01 X-1.0500 Y-0.8000
G01 X-1.0500 Y-5.7000
G01 X-1.0497 Y-5.7270
G01 X-1.0488 Y-5.7515
G01 X-1.0449 Y-5.8299
G01 X-1.0434 Y-5.8544
G01 X-1.0408 Y-5.8838
G01 X-1.0381 Y-5.9082
G01 X-1.0348 Y-5.9325
G01 X-1.0233 Y-6.0101
G01 X-1.0194 Y-6.0344
G01 X-1.0149 Y-6.0585
G01 X-1.0089 Y-6.0873
G01 X-0.9841 Y-6.1874
G01 X-0.9779 Y-6.2111
G01 X-0.9710 Y-6.2347
G01 X-0.9622 Y-6.2628
G01 X-0.9542 Y-6.2860
G01 X-0.9192 Y-6.3829
G01 X-0.9101 Y-6.4057
G01 X-0.8985 Y-6.4328
G01 X-0.8547 Y-6.5261
G01 X-0.8440 Y-6.5481
G01 X-0.8327 Y-6.5699
G01 X-0.8185 Y-6.5957
G01 X-0.7658 Y-6.6843
G01 X-0.7529 Y-6.7052
G01 X-0.7396 Y-6.7257
G01 X-0.7229 Y-6.7501
G01 X-0.7086 Y-6.7700
G01 X-0.6469 Y-6.8525
G01 X-0.6316 Y-6.8717
G01 X-0.6127 Y-6.8943
G01 X-0.5437 Y-6.9708
G01 X-0.5270 Y-6.9888
G01 X-0.5099 Y-7.0064
G01 X-0.4888 Y-7.0270
G01 X-0.4127 Y-7.0964
G01 X-0.3943 Y-7.1127
G01 X-0.3755 Y-7.1285
G01 X-0.3525 Y-7.1469
G01 X-0.3330 Y-7.1618
G01 X-0.2501 Y-7.2229
G01 X-0.2298 Y-7.2368
G01 X-0.2052 Y-7.2529
G01 X-0.1169 Y-7.3062
G01 X-0.0957 Y-7.3185
G01 X-0.0742 Y-7.3304
G01 X-0.0481 Y-7.3440
G01 X0.0449 Y-7.3883
G01 X0.0672 Y-7.3985
G01 X0.0898 Y-7.4082
G01 X0.1171 Y-7.4192
G01 X0.1401 Y-7.4277
G01 X0.2372 Y-7.4622
G01 X0.2606 Y-7.4696
G01 X0.2889 Y-7.4779
G01 X0.3888 Y-7.5032
G01 X0.4127 Y-7.5089
G01 X0.4367 Y-7.5139
G01 X0.4656 Y-7.5194
G01 X0.4899 Y-7.5233
G01 X0.5675 Y-7.5348
G01 X0.5918 Y-7.5381
G01 X0.6211 Y-7.5413
G01 X0.6456 Y-7.5434
G01 X0.6701 Y-7.5449
G01 X0.7485 Y-7.5488
G01 X0.7755 Y-7.5497
G01 X0.8000 Y-7.5500
G01 X31.7000 Y-7.5500
G01 X31.7270 Y-7.5497
G01 X31.7515 Y-7.5488
G01 X31.8544 Y-7.5434
G01 X31.8789 Y-7.5413
G01 X31.9082 Y-7.5381
G01 X32.0101 Y-7.5233
G01 X32.0344 Y-7.5194
G01 X32.0633 Y-7.5139
G01 X32.0873 Y-7.5089
G01 X32.1112 Y-7.5032
G01 X32.1874 Y-7.4841
G01 X32.2111 Y-7.4779
G01 X32.2347 Y-7.4710
G01 X32.2628 Y-7.4622
G01 X32.2860 Y-7.4542
G01 X32.3829 Y-7.4192
G01 X32.4057 Y-7.4101
G01 X32.4328 Y-7.3985
G01 X32.5261 Y-7.3547
G01 X32.5481 Y-7.3440
G01 X32.5699 Y-7.3327
G01 X32.5957 Y-7.3185
G01 X32.6843 Y-7.2658
G01 X32.7052 Y-7.2529
G01 X32.7257 Y-7.2396
G01 X32.7501 Y-7.2229
G01 X32.7700 Y-7.2086
G01 X32.8525 Y-7.1469
G01 X32.8717 Y-7.1316
G01 X32.8943 Y-7.1127
G01 X32.9708 Y-7.0437
G01 X32.9888 Y-7.0270
G01 X33.0099 Y-7.0064
G01 X33.0270 Y-6.9888
G01 X33.0437 Y-6.9708
G01 X33.0964 Y-6.9127
G01 X33.1127 Y-6.8943
G01 X33.1285 Y-6.8755
G01 X33.1469 Y-6.8525
G01 X33.1618 Y-6.8330
G01 X33.2086 Y-6.7700
G01 X33.2229 Y-6.7501
G01 X33.2368 Y-6.7298
G01 X33.2529 Y-6.7052
G01 X33.2658 Y-6.6843
G01 X33.3185 Y-6.5957
G01 X33.3304 Y-6.5742
G01 X33.3440 Y-6.5481
G01 X33.3883 Y-6.4551
G01 X33.3985 Y-6.4328
G01 X33.4082 Y-6.4102
G01 X33.4192 Y-6.3829
G01 X33.4542 Y-6.2860
G01 X33.4622 Y-6.2628
G01 X33.4696 Y-6.2394
G01 X33.4779 Y-6.2111
G01 X33.5032 Y-6.1112
G01 X33.5089 Y-6.0873
G01 X33.5139 Y-6.0633
G01 X33.5194 Y-6.0344
G01 X33.5233 Y-6.0101
G01 X33.5348 Y-5.9325
G01 X33.5381 Y-5.9082
G01 X33.5413 Y-5.8789
G01 X33.5434 Y-5.8544
G01 X33.5449 Y-5.8299
G01 X33.5488 Y-5.7515
G01 X33.5497 Y-5.7245
G01 X33.5500 Y-5.7000
G01 X33.5500 Y-0.8000
G01 X33.5497 Y-0.7730
G01 X33.5488 Y-0.7485
G01 X33.5449 Y-0.6701
G01 X33.5434 Y-0.6456
G01 X33.5408 Y-0.6162
G01 X33.5381 Y-0.5918
G01 X33.5348 Y-0.5675
G01 X33.5233 Y-0.4899
G01 X33.5194 Y-0.4656
G01 X33.5149 Y-0.4415
G01 X33.5089 Y-0.4127
G01 X33.4841 Y-0.3126
G01 X33.4779 Y-0.2889
G01 X33.4710 Y-0.2653
G01 X33.4622 Y-0.2372
G01 X33.4542 Y-0.2140
G01 X33.4192 Y-0.1171
G01 X33.4101 Y-0.0943
G01 X33.3985 Y-0.0672
G01 X33.3547 Y0.0261
G01 X33.3440 Y0.0481
G01 X33.3327 Y0.0699
G01 X33.3185 Y0.0957
G01 X33.2658 Y0.1843
G01 X33.2529 Y0.2052
G01 X33.2396 Y0.2257
G01 X33.2229 Y0.2501
G01 X33.2086 Y0.2700
G01 X33.1469 Y0.3525
G01 X33.1316 Y0.3717
G01 X33.1127 Y0.3943
G01 X33.0437 Y0.4708
G01 X33.0270 Y0.4888
G01 X33.0099 Y0.5064
G01 X32.9888 Y0.5270
G01 X32.9127 Y0.5964
G01 X32.8943 Y0.6127
G01 X32.8755 Y0.6285
G01 X32.8525 Y0.6469
G01 X32.8330 Y0.6618
G01 X32.7501 Y0.7229
G01 X32.7298 Y0.7368
G01 X32.7052 Y0.7529
G01 X32.6169 Y0.8062
G01 X32.5957 Y0.8185
G01 X32.5742 Y0.8304
G01 X32.5481 Y0.8440
G01 X32.4551 Y0.8883
G01 X32.4328 Y0.8985
G01 X32.4102 Y0.9082
G01 X32.3829 Y0.9192
G01 X32.3599 Y0.9277
G01 X32.2628 Y0.9622
G01 X32.2394 Y0.9696
G01 X32.2111 Y0.9779
G01 X32.1112 Y1.0032
G01 X32.0873 Y1.0089
G01 X32.0633 Y1.0139
G01 X32.0344 Y1.0194
G01 X32.0101 Y1.0233
G01 X31.9325 Y1.0348
G01 X31.9082 Y1.0381
G01 X31.8789 Y1.0413
G01 X31.8544 Y1.0434
G01 X31.8299 Y1.0449
G01 X31.7515 Y1.0488
G01 X31.7245 Y1.0497
G01 X31.7000 Y1.0500
G01 X0.8000 Y1.0500
G01 X0.7730 Y1.0497
G01 X0.7485 Y1.0488
G01 X0.6701 Y1.0449
G01 X0.6456 Y1.0434
G01 X0.6211 Y1.0413
G01 X0.5918 Y1.0381
G01 X0.4899 Y1.0233
G01 X0.4656 Y1.0194
G01 X0.4415 Y1.0149
G01 X0.4127 Y1.0089
G01 X0.3126 Y0.9841
G01 X0.2889 Y0.9779
G01 X0.2653 Y0.9710
G01 X0.2372 Y0.9622
G01 X0.1401 Y0.9277
G01 X0.1171 Y0.9192
G01 X0.0943 Y0.9101
G01 X0.0672 Y0.8985
G01 X0.0449 Y0.8883
G01 X-0.0481 Y0.8440
G01 X-0.0699 Y0.8327
G01 X-0.0957 Y0.8185
G01 X-0.1843 Y0.7658
G01 X-0.2052 Y0.7529
G01 X-0.2257 Y0.7396
G01 X-0.2501 Y0.7229
G01 X-0.3330 Y0.6618
G01 X-0.3525 Y0.6469
G01 X-0.3717 Y0.6316
G01 X-0.3943 Y0.6127
G01 X-0.4708 Y0.5437
G01 X-0.4888 Y0.5270
G01 X-0.5064 Y0.5099
G01 X-0.5270 Y0.4888
G01 X-0.5964 Y0.4127
G01 X-0.6127 Y0.3943
G01 X-0.6316 Y0.3717
G01 X-0.6469 Y0.3525
G01 X-0.6618 Y0.3330
G01 X-0.7086 Y0.2700
G01 X-0.7229 Y0.2501
G01 X-0.7396 Y0.2257
G01 X-0.7529 Y0.2052
G01 X-0.7658 Y0.1843
G01 X-0.8062 Y0.1169
G01 X-0.8185 Y0.0957
G01 X-0.8327 Y0.0699
G01 X-0.8440 Y0.0481
G01 X-0.8547 Y0.0261
G01 X-0.8883 Y-0.0449
G01 X-0.8985 Y-0.0672
G01 X-0.9101 Y-0.0943
G01 X-0.9192 Y-0.1171
G01 X-0.9277 Y-0.1401
G01 X-0.9542 Y-0.2140
G01 X-0.9622 Y-0.2372
G01 X-0.9696 Y-0.2606
G01 X-0.9779 Y-0.2889
G01 X-0.9841 Y-0.3126
G01 X-1.0032 Y-0.3888
G01 X-1.0089 Y-0.4127
G01 X-1.0139 Y-0.4367
G01 X-1.0194 Y-0.4656
G01 X-1.0233 Y-0.4899
G01 X-1.0348 Y-0.5675
G01 X-1.0381 Y-0.5918
G01 X-1.0408 Y-0.6162
G01 X-1.0434 Y-0.6456
G01 X-1.0449 Y-0.6701
G01 X-1.0488 Y-0.7485
G01 X-1.0497 Y-0.7742
G00 X-1.0497 Y-0.7742
G01 F60.00
G01 Z-0.3000
G01 F120.00
G01 X-1.0500 Y-0.8000
G01 X-1.0500 Y-5.7000
G01 X-1.0497 Y-5.7270
G01 X-1.0488 Y-5.7515
G01 X-1.0449 Y-5.8299
G01 X-1.0434 Y-5.8544
G01 X-1.0408 Y-5.8838
G01 X-1.0381 Y-5.9082
G01 X-1.0348 Y-5.9325
G01 X-1.0233 Y-6.0101
G01 X-1.0194 Y-6.0344
G01 X-1.0149 Y-6.0585
G01 X-1.0089 Y-6.0873
G01 X-0.9841 Y-6.1874
G01 X-0.9779 Y-6.2111
G01 X-0.9710 Y-6.2347
G01 X-0.9622 Y-6.2628
G01 X-0.9542 Y-6.2860
G01 X-0.9192 Y-6.3829
G01 X-0.9101 Y-6.4057
G01 X-0.8985 Y-6.4328
G01 X-0.8547 Y-6.5261
G01 X-0.8440 Y-6.5481
G01 X-0.8327 Y-6.5699
G01 X-0.8185 Y-6.5957
G01 X-0.7658 Y-6.6843
G01 X-0.7529 Y-6.7052
G01 X-0.7396 Y-6.7257
G01 X-0.7229 Y-6.7501
G01 X-0.7086 Y-6.7700
G01 X-0.6469 Y-6.8525
G01 X-0.6316 Y-6.8717
G01 X-0.6127 Y-6.8943
G01 X-0.5437 Y-6.9708
G01 X-0.5270 Y-6.9888
G01 X-0.5099 Y-7.0064
G01 X-0.4888 Y-7.0270
G01 X-0.4127 Y-7.0964
G01 X-0.3943 Y-7.1127
G01 X-0.3755 Y-7.1285
G01 X-0.3525 Y-7.1469
G01 X-0.3330 Y-7.1618
G01 X-0.2501 Y-7.2229
G01 X-0.2298 Y-7.2368
G01 X-0.2052 Y-7.2529
G01 X-0.1169 Y-7.3062
G01 X-0.0957 Y-7.3185
G01 X-0.0742 Y-7.3304
G01 X-0.0481 Y-7.3440
G01 X0.0449 Y-7.3883
G01 X0.0672 Y-7.3985
G01 X0.0898 Y-7.4082
G01 X0.1171 Y-7.4192
G01 X0.1401 Y-7.4277
G01 X0.2372 Y-7.4622
G01 X0.2606 Y-7.4696
G01 X0.2889 Y-7.4779
G01 X0.3888 Y-7.5032
G01 X0.4127 Y-7.5089
G01 X0.4367 Y-7.5139
G01 X0.4656 Y-7.5194
G01 X0.4899 Y-7.5233
G01 X0.5675 Y-7.5348
G01 X0.5918 Y-7.5381
G01 X0.6211 Y-7.5413
G01 X0.6456 Y-7.5434
G01 X0.6701 Y-7.5449
G01 X0.7485 Y-7.5488
G01 X0.7755 Y-7.5497
G01 X0.8000 Y-7.5500
G01 X31.7000 Y-7.5500
G01 X31.7270 Y-7.5497
G01 X31.7515 Y-7.5488
G01 X31.8544 Y-7.5434
G01 X31.8789 Y-7.5413
G01 X31.9082 Y-7.5381
G01 X32.0101 Y-7.5233
G01 X32.0344 Y-7.5194
G01 X32.0633 Y-7.5139
G01 X32.0873 Y-7.5089
G01 X32.1112 Y-7.5032
G01 X32.1874 Y-7.4841
G01 X32.2111 Y-7.4779
G01 X32.2347 Y-7.4710
G01 X32.2628 Y-7.4622
G01 X32.2860 Y-7.4542
G01 X32.3829 Y-7.4192
G01 X32.4057 Y-7.4101
G01 X32.4328 Y-7.3985
G01 X32.5261 Y-7.3547
G01 X32.5481 Y-7.3440
G01 X32.5699 Y-7.3327
G01 X32.5957 Y-7.3185
G01 X32.6843 Y-7.2658
G01 X32.7052 Y-7.2529
G01 X32.7257 Y-7.2396
G01 X32.7501 Y-7.2229
G01 X32.7700 Y-7.2086
G01 X32.8525 Y-7.1469
G01 X32.8717 Y-7.1316
G01 X32.8943 Y-7.1127
G01 X32.9708 Y-7.0437
G01 X32.9888 Y-7.0270
G01 X33.0099 Y-7.0064
G01 X33.0270 Y-6.9888
G01 X33.0437 Y-6.9708
G01 X33.0964 Y-6.9127
G01 X33.1127 Y-6.8943
G01 X33.1285 Y-6.8755
G01 X33.1469 Y-6.8525
G01 X33.1618 Y-6.8330
G01 X33.2086 Y-6.7700
G01 X33.2229 Y-6.7501
G01 X33.2368 Y-6.7298
G01 X33.2529 Y-6.7052
G01 X33.2658 Y-6.6843
G01 X33.3185 Y-6.5957
G01 X33.3304 Y-6.5742
G01 X33.3440 Y-6.5481
G01 X33.3883 Y-6.4551
G01 X33.3985 Y-6.4328
G01 X33.4082 Y-6.4102
G01 X33.4192 Y-6.3829
G01 X33.4542 Y-6.2860
G01 X33.4622 Y-6.2628
G01 X33.4696 Y-6.2394
G01 X33.4779 Y-6.2111
G01 X33.5032 Y-6.1112
G01 X33.5089 Y-6.0873
G01 X33.5139 Y-6.0633
G01 X33.5194 Y-6.0344
G01 X33.5233 Y-6.0101
G01 X33.5348 Y-5.9325
G01 X33.5381 Y-5.9082
G01 X33.5413 Y-5.8789
G01 X33.5434 Y-5.8544
G01 X33.5449 Y-5.8299
G01 X33.5488 Y-5.7515
G01 X33.5497 Y-5.7245
G01 X33.5500 Y-5.7000
G01 X33.5500 Y-0.8000
G01 X33.5497 Y-0.7730
G01 X33.5488 Y-0.7485
G01 X33.5449 Y-0.6701
G01 X33.5434 Y-0.6456
G01 X33.5408 Y-0.6162
G01 X33.5381 Y-0.5918
G01 X33.5348 Y-0.5675
G01 X33.5233 Y-0.4899
G01 X33.5194 Y-0.4656
G01 X33.5149 Y-0.4415
G01 X33.5089 Y-0.4127
G01 X33.4841 Y-0.3126
G01 X33.4779 Y-0.2889
G01 X33.4710 Y-0.2653
G01 X33.4622 Y-0.2372
G01 X33.4542 Y-0.2140
G01 X33.4192 Y-0.1171
G01 X33.4101 Y-0.0943
G01 X33.3985 Y-0.0672
G01 X33.3547 Y0.0261
G01 X33.3440 Y0.0481
G01 X33.3327 Y0.0699
G01 X33.3185 Y0.0957
G01 X33.2658 Y0.1843
G01 X33.2529 Y0.2052
G01 X33.2396 Y0.2257
G01 X33.2229 Y0.2501
G01 X33.2086 Y0.2700
G01 X33.1469 Y0.3525
G01 X33.1316 Y0.3717
G01 X33.1127 Y0.3943
G01 X33.0437 Y0.4708
G01 X33.0270 Y0.4888
G01 X33.0099 Y0.5064
G01 X32.9888 Y0.5270
G01 X32.9127 Y0.5964
G01 X32.8943 Y0.6127
G01 X32.8755 Y0.6285
G01 X32.8525 Y0.6469
G01 X32.8330 Y0.6618
G01 X32.7501 Y0.7229
G01 X32.7298 Y0.7368
G01 X32.7052 Y0.7529
G01 X32.6169 Y0.8062
G01 X32.5957 Y0.8185
G01 X32.5742 Y0.8304
G01 X32.5481 Y0.8440
G01 X32.4551 Y0.8883
G01 X32.4328 Y0.8985
G01 X32.4102 Y0.9082
G01 X32.3829 Y0.9192
G01 X32.3599 Y0.9277
G01 X32.2628 Y0.9622
G01 X32.2394 Y0.9696
G01 X32.2111 Y0.9779
G01 X32.1112 Y1.0032
G01 X32.0873 Y1.0089
G01 X32.0633 Y1.0139
G01 X32.0344 Y1.0194
G01 X32.0101 Y1.0233
G01 X31.9325 Y1.0348
G01 X31.9082 Y1.0381
G01 X31.8789 Y1.0413
G01 X31.8544 Y1.0434
G01 X31.8299 Y1.0449
G01 X31.7515 Y1.0488
G01 X31.7245 Y1.0497
G01 X31.7000 Y1.0500
G01 X0.8000 Y1.0500
G01 X0.7730 Y1.0497
G01 X0.7485 Y1.0488
G01 X0.6701 Y1.0449
G01 X0.6456 Y1.0434
G01 X0.6211 Y1.0413
G01 X0.5918 Y1.0381
G01 X0.4899 Y1.0233
G01 X0.4656 Y1.0194
G01 X0.4415 Y1.0149
G01 X0.4127 Y1.0089
G01 X0.3126 Y0.9841
G01 X0.2889 Y0.9779
G01 X0.2653 Y0.9710
G01 X0.2372 Y0.9622
G01 X0.1401 Y0.9277
G01 X0.1171 Y0.9192
G01 X0.0943 Y0.9101
G01 X0.0672 Y0.8985
G01 X0.0449 Y0.8883
G01 X-0.0481 Y0.8440
G01 X-0.0699 Y0.8327
G01 X-0.0957 Y0.8185
G01 X-0.1843 Y0.7658
G01 X-0.2052 Y0.7529
G01 X-0.2257 Y0.7396
G01 X-0.2501 Y0.7229
G01 X-0.3330 Y0.6618
G01 X-0.3525 Y0.6469
G01 X-0.3717 Y0.6316
G01 X-0.3943 Y0.6127
G01 X-0.4708 Y0.5437
G01 X-0.4888 Y0.5270
G01 X-0.5064 Y0.5099
G01 X-0.5270 Y0.4888
G01 X-0.5964 Y0.4127
G01 X-0.6127 Y0.3943
G01 X-0.6316 Y0.3717
G01 X-0.6469 Y0.3525
G01 X-0.6618 Y0.3330
G01 X-0.7086 Y0.2700
G01 X-0.7229 Y0.2501
G01 X-0.7396 Y0.2257
G01 X-0.7529 Y0.2052
G01 X-0.7658 Y0.1843
G01 X-0.8062 Y0.1169
G01 X-0.8185 Y0.0957
G01 X-0.8327 Y0.0699
G01 X-0.8440 Y0.0481
G01 X-0.8547 Y0.0261
G01 X-0.8883 Y-0.0449
G01 X-0.8985 Y-0.0672
G01 X-0.9101 Y-0.0943
G01 X-0.9192 Y-0.1171
G01 X-0.9277 Y-0.1401
G01 X-0.9542 Y-0.2140
G01 X-0.9622 Y-0.2372
G01 X-0.9696 Y-0.2606
G01 X-0.9779 Y-0.2889
G01 X-0.9841 Y-0.3126
G01 X-1.0032 Y-0.3888
G01 X-1.0089 Y-0.4127
G01 X-1.0139 Y-0.4367
G01 X-1.0194 Y-0.4656
G01 X-1.0233 Y-0.4899
G01 X-1.0348 Y-0.5675
G01 X-1.0381 Y-0.5918
G01 X-1.0408 Y-0.6162
G01 X-1.0434 Y-0.6456
G01 X-1.0449 Y-0.6701
G01 X-1.0488 Y-0.7485
G01 X-1.0497 Y-0.7742
G00 X-1.0497 Y-0.7742
G01 F60.00
G01 Z-0.4000
G01 F120.00
G01 X-1.0500 Y-0.8000
G01 X-1.0500 Y-5.7000
G01 X-1.0497 Y-5.7270
G01 X-1.0488 Y-5.7515
G01 X-1.0449 Y-5.8299
G01 X-1.0434 Y-5.8544
G01 X-1.0408 Y-5.8838
G01 X-1.0381 Y-5.9082
G01 X-1.0348 Y-5.9325
G01 X-1.0233 Y-6.0101
G01 X-1.0194 Y-6.0344
G01 X-1.0149 Y-6.0585
G01 X-1.0089 Y-6.0873
G01 X-0.9841 Y-6.1874
G01 X-0.9779 Y-6.2111
G01 X-0.9710 Y-6.2347
G01 X-0.9622 Y-6.2628
G01 X-0.9542 Y-6.2860
G01 X-0.9192 Y-6.3829
G01 X-0.9101 Y-6.4057
G01 X-0.8985 Y-6.4328
G01 X-0.8547 Y-6.5261
G01 X-0.8440 Y-6.5481
G01 X-0.8327 Y-6.5699
G01 X-0.8185 Y-6.5957
G01 X-0.7658 Y-6.6843
G01 X-0.7529 Y-6.7052
G01 X-0.7396 Y-6.7257
G01 X-0.7229 Y-6.7501
G01 X-0.7086 Y-6.7700
G01 X-0.6469 Y-6.8525
G01 X-0.6316 Y-6.8717
G01 X-0.6127 Y-6.8943
G01 X-0.5437 Y-6.9708
G01 X-0.5270 Y-6.9888
G01 X-0.5099 Y-7.0064
G01 X-0.4888 Y-7.0270
G01 X-0.4127 Y-7.0964
G01 X-0.3943 Y-7.1127
G01 X-0.3755 Y-7.1285
G01 X-0.3525 Y-7.1469
G01 X-0.3330 Y-7.1618
G01 X-0.2501 Y-7.2229
G01 X-0.2298 Y-7.2368
G01 X-0.2052 Y-7.2529
G01 X-0.1169 Y-7.3062
G01 X-0.0957 Y-7.3185
G01 X-0.0742 Y-7.3304
G01 X-0.0481 Y-7.3440
G01 X0.0449 Y-7.3883
G01 X0.0672 Y-7.3985
G01 X0.0898 Y-7.4082
G01 X0.1171 Y-7.4192
G01 X0.1401 Y-7.4277
G01 X0.2372 Y-7.4622
G01 X0.2606 Y-7.4696
G01 X0.2889 Y-7.4779
G01 X0.3888 Y-7.5032
G01 X0.4127 Y-7.5089
G01 X0.4367 Y-7.5139
G01 X0.4656 Y-7.5194
G01 X0.4899 Y-7.5233
G01 X0.5675 Y-7.5348
G01 X0.5918 Y-7.5381
G01 X0.6211 Y-7.5413
G01 X0.6456 Y-7.5434
G01 X0.6701 Y-7.5449
G01 X0.7485 Y-7.5488
G01 X0.7755 Y-7.5497
G01 X0.8000 Y-7.5500
G01 X31.7000 Y-7.5500
G01 X31.7270 Y-7.5497
G01 X31.7515 Y-7.5488
G01 X31.8544 Y-7.5434
G01 X31.8789 Y-7.5413
G01 X31.9082 Y-7.5381
G01 X32.0101 Y-7.5233
G01 X32.0344 Y-7.5194
G01 X32.0633 Y-7.5139
G01 X32.0873 Y-7.5089
G01 X32.1112 Y-7.5032
G01 X32.1874 Y-7.4841
G01 X32.2111 Y-7.4779
G01 X32.2347 Y-7.4710
G01 X32.2628 Y-7.4622
G01 X32.2860 Y-7.4542
G01 X32.3829 Y-7.4192
G01 X32.4057 Y-7.4101
G01 X32.4328 Y-7.3985
G01 X32.5261 Y-7.3547
G01 X32.5481 Y-7.3440
G01 X32.5699 Y-7.3327
G01 X32.5957 Y-7.3185
G01 X32.6843 Y-7.2658
G01 X32.7052 Y-7.2529
G01 X32.7257 Y-7.2396
G01 X32.7501 Y-7.2229
G01 X32.7700 Y-7.2086
G01 X32.8525 Y-7.1469
G01 X32.8717 Y-7.1316
G01 X32.8943 Y-7.1127
G01 X32.9708 Y-7.0437
G01 X32.9888 Y-7.0270
G01 X33.0099 Y-7.0064
G01 X33.0270 Y-6.9888
G01 X33.0437 Y-6.9708
G01 X33.0964 Y-6.9127
G01 X33.1127 Y-6.8943
G01 X33.1285 Y-6.8755
G01 X33.1469 Y-6.8525
G01 X33.1618 Y-6.8330
G01 X33.2086 Y-6.7700
G01 X33.2229 Y-6.7501
G01 X33.2368 Y-6.7298
G01 X33.2529 Y-6.7052
G01 X33.2658 Y-6.6843
G01 X33.3185 Y-6.5957
G01 X33.3304 Y-6.5742
G01 X33.3440 Y-6.5481
G01 X33.3883 Y-6.4551
G01 X33.3985 Y-6.4328
G01 X33.4082 Y-6.4102
G01 X33.4192 Y-6.3829
G01 X33.4542 Y-6.2860
G01 X33.4622 Y-6.2628
G01 X33.4696 Y-6.2394
G01 X33.4779 Y-6.2111
G01 X33.5032 Y-6.1112
G01 X33.5089 Y-6.0873
G01 X33.5139 Y-6.0633
G01 X33.5194 Y-6.0344
G01 X33.5233 Y-6.0101
G01 X33.5348 Y-5.9325
G01 X33.5381 Y-5.9082
G01 X33.5413 Y-5.8789
G01 X33.5434 Y-5.8544
G01 X33.5449 Y-5.8299
G01 X33.5488 Y-5.7515
G01 X33.5497 Y-5.7245
G01 X33.5500 Y-5.7000
G01 X33.5500 Y-0.8000
G01 X33.5497 Y-0.7730
G01 X33.5488 Y-0.7485
G01 X33.5449 Y-0.6701
G01 X33.5434 Y-0.6456
G01 X33.5408 Y-0.6162
G01 X33.5381 Y-0.5918
G01 X33.5348 Y-0.5675
G01 X33.5233 Y-0.4899
G01 X33.5194 Y-0.4656
G01 X33.5149 Y-0.4415
G01 X33.5089 Y-0.4127
G01 X33.4841 Y-0.3126
G01 X33.4779 Y-0.2889
G01 X33.4710 Y-0.2653
G01 X33.4622 Y-0.2372
G01 X33.4542 Y-0.2140
G01 X33.4192 Y-0.1171
G01 X33.4101 Y-0.0943
G01 X33.3985 Y-0.0672
G01 X33.3547 Y0.0261
G01 X33.3440 Y0.0481
G01 X33.3327 Y0.0699
G01 X33.3185 Y0.0957
G01 X33.2658 Y0.1843
G01 X33.2529 Y0.2052
G01 X33.2396 Y0.2257
G01 X33.2229 Y0.2501
G01 X33.2086 Y0.2700
G01 X33.1469 Y0.3525
G01 X33.1316 Y0.3717
G01 X33.1127 Y0.3943
G01 X33.0437 Y0.4708
G01 X33.0270 Y0.4888
G01 X33.0099 Y0.5064
G01 X32.9888 Y0.5270
G01 X32.9127 Y0.5964
G01 X32.8943 Y0.6127
G01 X32.8755 Y0.6285
G01 X32.8525 Y0.6469
G01 X32.8330 Y0.6618
G01 X32.7501 Y0.7229
G01 X32.7298 Y0.7368
G01 X32.7052 Y0.7529
G01 X32.6169 Y0.8062
G01 X32.5957 Y0.8185
G01 X32.5742 Y0.8304
G01 X32.5481 Y0.8440
G01 X32.4551 Y0.8883
G01 X32.4328 Y0.8985
G01 X32.4102 Y0.9082
G01 X32.3829 Y0.9192
G01 X32.3599 Y0.9277
G01 X32.2628 Y0.9622
G01 X32.2394 Y0.9696
G01 X32.2111 Y0.9779
G01 X32.1112 Y1.0032
G01 X32.0873 Y1.0089
G01 X32.0633 Y1.0139
G01 X32.0344 Y1.0194
G01 X32.0101 Y1.0233
G01 X31.9325 Y1.0348
G01 X31.9082 Y1.0381
G01 X31.8789 Y1.0413
G01 X31.8544 Y1.0434
G01 X31.8299 Y1.0449
G01 X31.7515 Y1.0488
G01 X31.7245 Y1.0497
G01 X31.7000 Y1.0500
G01 X0.8000 Y1.0500
G01 X0.7730 Y1.0497
G01 X0.7485 Y1.0488
G01 X0.6701 Y1.0449
G01 X0.6456 Y1.0434
G01 X0.6211 Y1.0413
G01 X0.5918 Y1.0381
G01 X0.4899 Y1.0233
G01 X0.4656 Y1.0194
G01 X0.4415 Y1.0149
G01 X0.4127 Y1.0089
G01 X0.3126 Y0.9841
G01 X0.2889 Y0.9779
G01 X0.2653 Y0.9710
G01 X0.2372 Y0.9622
G01 X0.1401 Y0.9277
G01 X0.1171 Y0.9192
G01 X0.0943 Y0.9101
G01 X0.0672 Y0.8985
G01 X0.0449 Y0.8883
G01 X-0.0481 Y0.8440
G01 X-0.0699 Y0.8327
G01 X-0.0957 Y0.8185
G01 X-0.1843 Y0.7658
G01 X-0.2052 Y0.7529
G01 X-0.2257 Y0.7396
G01 X-0.2501 Y0.7229
G01 X-0.3330 Y0.6618
G01 X-0.3525 Y0.6469
G01 X-0.3717 Y0.6316
G01 X-0.3943 Y0.6127
G01 X-0.4708 Y0.5437
G01 X-0.4888 Y0.5270
G01 X-0.5064 Y0.5099
G01 X-0.5270 Y0.4888
G01 X-0.5964 Y0.4127
G01 X-0.6127 Y0.3943
G01 X-0.6316 Y0.3717
G01 X-0.6469 Y0.3525
G01 X-0.6618 Y0.3330
G01 X-0.7086 Y0.2700
G01 X-0.7229 Y0.2501
G01 X-0.7396 Y0.2257
G01 X-0.7529 Y0.2052
G01 X-0.7658 Y0.1843
G01 X-0.8062 Y0.1169
G01 X-0.8185 Y0.0957
G01 X-0.8327 Y0.0699
G01 X-0.8440 Y0.0481
G01 X-0.8547 Y0.0261
G01 X-0.8883 Y-0.0449
G01 X-0.8985 Y-0.0672
G01 X-0.9101 Y-0.0943
G01 X-0.9192 Y-0.1171
G01 X-0.9277 Y-0.1401
G01 X-0.9542 Y-0.2140
G01 X-0.9622 Y-0.2372
G01 X-0.9696 Y-0.2606
G01 X-0.9779 Y-0.2889
G01 X-0.9841 Y-0.3126
G01 X-1.0032 Y-0.3888
G01 X-1.0089 Y-0.4127
G01 X-1.0139 Y-0.4367
G01 X-1.0194 Y-0.4656
G01 X-1.0233 Y-0.4899
G01 X-1.0348 Y-0.5675
G01 X-1.0381 Y-0.5918
G01 X-1.0408 Y-0.6162
G01 X-1.0434 Y-0.6456
G01 X-1.0449 Y-0.6701
G01 X-1.0488 Y-0.7485
G01 X-1.0497 Y-0.7742
G00 X-1.0497 Y-0.7742
G01 F60.00
G01 Z-0.5000
G01 F120.00
G01 X-1.0500 Y-0.8000
G01 X-1.0500 Y-5.7000
G01 X-1.0497 Y-5.7270
G01 X-1.0488 Y-5.7515
G01 X-1.0449 Y-5.8299
G01 X-1.0434 Y-5.8544
G01 X-1.0408 Y-5.8838
G01 X-1.0381 Y-5.9082
G01 X-1.0348 Y-5.9325
G01 X-1.0233 Y-6.0101
G01 X-1.0194 Y-6.0344
G01 X-1.0149 Y-6.0585
G01 X-1.0089 Y-6.0873
G01 X-0.9841 Y-6.1874
G01 X-0.9779 Y-6.2111
G01 X-0.9710 Y-6.2347
G01 X-0.9622 Y-6.2628
G01 X-0.9542 Y-6.2860
G01 X-0.9192 Y-6.3829
G01 X-0.9101 Y-6.4057
G01 X-0.8985 Y-6.4328
G01 X-0.8547 Y-6.5261
G01 X-0.8440 Y-6.5481
G01 X-0.8327 Y-6.5699
G01 X-0.8185 Y-6.5957
G01 X-0.7658 Y-6.6843
G01 X-0.7529 Y-6.7052
G01 X-0.7396 Y-6.7257
G01 X-0.7229 Y-6.7501
G01 X-0.7086 Y-6.7700
G01 X-0.6469 Y-6.8525
G01 X-0.6316 Y-6.8717
G01 X-0.6127 Y-6.8943
G01 X-0.5437 Y-6.9708
G01 X-0.5270 Y-6.9888
G01 X-0.5099 Y-7.0064
G01 X-0.4888 Y-7.0270
G01 X-0.4127 Y-7.0964
G01 X-0.3943 Y-7.1127
G01 X-0.3755 Y-7.1285
G01 X-0.3525 Y-7.1469
G01 X-0.3330 Y-7.1618
G01 X-0.2501 Y-7.2229
G01 X-0.2298 Y-7.2368
G01 X-0.2052 Y-7.2529
G01 X-0.1169 Y-7.3062
G01 X-0.0957 Y-7.3185
G01 X-0.0742 Y-7.3304
G01 X-0.0481 Y-7.3440
G01 X0.0449 Y-7.3883
G01 X0.0672 Y-7.3985
G01 X0.0898 Y-7.4082
G01 X0.1171 Y-7.4192
G01 X0.1401 Y-7.4277
G01 X0.2372 Y-7.4622
G01 X0.2606 Y-7.4696
G01 X0.2889 Y-7.4779
G01 X0.3888 Y-7.5032
G01 X0.4127 Y-7.5089
G01 X0.4367 Y-7.5139
G01 X0.4656 Y-7.5194
G01 X0.4899 Y-7.5233
G01 X0.5675 Y-7.5348
G01 X0.5918 Y-7.5381
G01 X0.6211 Y-7.5413
G01 X0.6456 Y-7.5434
G01 X0.6701 Y-7.5449
G01 X0.7485 Y-7.5488
G01 X0.7755 Y-7.5497
G01 X0.8000 Y-7.5500
G01 X31.7000 Y-7.5500
G01 X31.7270 Y-7.5497
G01 X31.7515 Y-7.5488
G01 X31.8544 Y-7.5434
G01 X31.8789 Y-7.5413
G01 X31.9082 Y-7.5381
G01 X32.0101 Y-7.5233
G01 X32.0344 Y-7.5194
G01 X32.0633 Y-7.5139
G01 X32.0873 Y-7.5089
G01 X32.1112 Y-7.5032
G01 X32.1874 Y-7.4841
G01 X32.2111 Y-7.4779
G01 X32.2347 Y-7.4710
G01 X32.2628 Y-7.4622
G01 X32.2860 Y-7.4542
G01 X32.3829 Y-7.4192
G01 X32.4057 Y-7.4101
G01 X32.4328 Y-7.3985
G01 X32.5261 Y-7.3547
G01 X32.5481 Y-7.3440
G01 X32.5699 Y-7.3327
G01 X32.5957 Y-7.3185
G01 X32.6843 Y-7.2658
G01 X32.7052 Y-7.2529
G01 X32.7257 Y-7.2396
G01 X32.7501 Y-7.2229
G01 X32.7700 Y-7.2086
G01 X32.8525 Y-7.1469
G01 X32.8717 Y-7.1316
G01 X32.8943 Y-7.1127
G01 X32.9708 Y-7.0437
G01 X32.9888 Y-7.0270
G01 X33.0099 Y-7.0064
G01 X33.0270 Y-6.9888
G01 X33.0437 Y-6.9708
G01 X33.0964 Y-6.9127
G01 X33.1127 Y-6.8943
G01 X33.1285 Y-6.8755
G01 X33.1469 Y-6.8525
G01 X33.1618 Y-6.8330
G01 X33.2086 Y-6.7700
G01 X33.2229 Y-6.7501
G01 X33.2368 Y-6.7298
G01 X33.2529 Y-6.7052
G01 X33.2658 Y-6.6843
G01 X33.3185 Y-6.5957
G01 X33.3304 Y-6.5742
G01 X33.3440 Y-6.5481
G01 X33.3883 Y-6.4551
G01 X33.3985 Y-6.4328
G01 X33.4082 Y-6.4102
G01 X33.4192 Y-6.3829
G01 X33.4542 Y-6.2860
G01 X33.4622 Y-6.2628
G01 X33.4696 Y-6.2394
G01 X33.4779 Y-6.2111
G01 X33.5032 Y-6.1112
G01 X33.5089 Y-6.0873
G01 X33.5139 Y-6.0633
G01 X33.5194 Y-6.0344
G01 X33.5233 Y-6.0101
G01 X33.5348 Y-5.9325
G01 X33.5381 Y-5.9082
G01 X33.5413 Y-5.8789
G01 X33.5434 Y-5.8544
G01 X33.5449 Y-5.8299
G01 X33.5488 Y-5.7515
G01 X33.5497 Y-5.7245
G01 X33.5500 Y-5.7000
G01 X33.5500 Y-0.8000
G01 X33.5497 Y-0.7730
G01 X33.5488 Y-0.7485
G01 X33.5449 Y-0.6701
G01 X33.5434 Y-0.6456
G01 X33.5408 Y-0.6162
G01 X33.5381 Y-0.5918
G01 X33.5348 Y-0.5675
G01 X33.5233 Y-0.4899
G01 X33.5194 Y-0.4656
G01 X33.5149 Y-0.4415
G01 X33.5089 Y-0.4127
G01 X33.4841 Y-0.3126
G01 X33.4779 Y-0.2889
G01 X33.4710 Y-0.2653
G01 X33.4622 Y-0.2372
G01 X33.4542 Y-0.2140
G01 X33.4192 Y-0.1171
G01 X33.4101 Y-0.0943
G01 X33.3985 Y-0.0672
G01 X33.3547 Y0.0261
G01 X33.3440 Y0.0481
G01 X33.3327 Y0.0699
G01 X33.3185 Y0.0957
G01 X33.2658 Y0.1843
G01 X33.2529 Y0.2052
G01 X33.2396 Y0.2257
G01 X33.2229 Y0.2501
G01 X33.2086 Y0.2700
G01 X33.1469 Y0.3525
G01 X33.1316 Y0.3717
G01 X33.1127 Y0.3943
G01 X33.0437 Y0.4708
G01 X33.0270 Y0.4888
G01 X33.0099 Y0.5064
G01 X32.9888 Y0.5270
G01 X32.9127 Y0.5964
G01 X32.8943 Y0.6127
G01 X32.8755 Y0.6285
G01 X32.8525 Y0.6469
G01 X32.8330 Y0.6618
G01 X32.7501 Y0.7229
G01 X32.7298 Y0.7368
G01 X32.7052 Y0.7529
G01 X32.6169 Y0.8062
G01 X32.5957 Y0.8185
G01 X32.5742 Y0.8304
G01 X32.5481 Y0.8440
G01 X32.4551 Y0.8883
G01 X32.4328 Y0.8985
G01 X32.4102 Y0.9082
G01 X32.3829 Y0.9192
G01 X32.3599 Y0.9277
G01 X32.2628 Y0.9622
G01 X32.2394 Y0.9696
G01 X32.2111 Y0.9779
G01 X32.1112 Y1.0032
G01 X32.0873 Y1.0089
G01 X32.0633 Y1.0139
G01 X32.0344 Y1.0194
G01 X32.0101 Y1.0233
G01 X31.9325 Y1.0348
G01 X31.9082 Y1.0381
G01 X31.8789 Y1.0413
G01 X31.8544 Y1.0434
G01 X31.8299 Y1.0449
G01 X31.7515 Y1.0488
G01 X31.7245 Y1.0497
G01 X31.7000 Y1.0500
G01 X0.8000 Y1.0500
G01 X0.7730 Y1.0497
G01 X0.7485 Y1.0488
G01 X0.6701 Y1.0449
G01 X0.6456 Y1.0434
G01 X0.6211 Y1.0413
G01 X0.5918 Y1.0381
G01 X0.4899 Y1.0233
G01 X0.4656 Y1.0194
G01 X0.4415 Y1.0149
G01 X0.4127 Y1.0089
G01 X0.3126 Y0.9841
G01 X0.2889 Y0.9779
G01 X0.2653 Y0.9710
G01 X0.2372 Y0.9622
G01 X0.1401 Y0.9277
G01 X0.1171 Y0.9192
G01 X0.0943 Y0.9101
G01 X0.0672 Y0.8985
G01 X0.0449 Y0.8883
G01 X-0.0481 Y0.8440
G01 X-0.0699 Y0.8327
G01 X-0.0957 Y0.8185
G01 X-0.1843 Y0.7658
G01 X-0.2052 Y0.7529
G01 X-0.2257 Y0.7396
G01 X-0.2501 Y0.7229
G01 X-0.3330 Y0.6618
G01 X-0.3525 Y0.6469
G01 X-0.3717 Y0.6316
G01 X-0.3943 Y0.6127
G01 X-0.4708 Y0.5437
G01 X-0.4888 Y0.5270
G01 X-0.5064 Y0.5099
G01 X-0.5270 Y0.4888
G01 X-0.5964 Y0.4127
G01 X-0.6127 Y0.3943
G01 X-0.6316 Y0.3717
G01 X-0.6469 Y0.3525
G01 X-0.6618 Y0.3330
G01 X-0.7086 Y0.2700
G01 X-0.7229 Y0.2501
G01 X-0.7396 Y0.2257
G01 X-0.7529 Y0.2052
G01 X-0.7658 Y0.1843
G01 X-0.8062 Y0.1169
G01 X-0.8185 Y0.0957
G01 X-0.8327 Y0.0699
G01 X-0.8440 Y0.0481
G01 X-0.8547 Y0.0261
G01 X-0.8883 Y-0.0449
G01 X-0.8985 Y-0.0672
G01 X-0.9101 Y-0.0943
G01 X-0.9192 Y-0.1171
G01 X-0.9277 Y-0.1401
G01 X-0.9542 Y-0.2140
G01 X-0.9622 Y-0.2372
G01 X-0.9696 Y-0.2606
G01 X-0.9779 Y-0.2889
G01 X-0.9841 Y-0.3126
G01 X-1.0032 Y-0.3888
G01 X-1.0089 Y-0.4127
G01 X-1.0139 Y-0.4367
G01 X-1.0194 Y-0.4656
G01 X-1.0233 Y-0.4899
G01 X-1.0348 Y-0.5675
G01 X-1.0381 Y-0.5918
G01 X-1.0408 Y-0.6162
G01 X-1.0434 Y-0.6456
G01 X-1.0449 Y-0.6701
G01 X-1.0488 Y-0.7485
G01 X-1.0497 Y-0.7742
G00 X-1.0497 Y-0.7742
G01 F60.00
G01 Z-0.6000
G01 F120.00
G01 X-1.0500 Y-0.8000
G01 X-1.0500 Y-5.7000
G01 X-1.0497 Y-5.7270
G01 X-1.0488 Y-5.7515
G01 X-1.0449 Y-5.8299
G01 X-1.0434 Y-5.8544
G01 X-1.0408 Y-5.8838
G01 X-1.0381 Y-5.9082
G01 X-1.0348 Y-5.9325
G01 X-1.0233 Y-6.0101
G01 X-1.0194 Y-6.0344
G01 X-1.0149 Y-6.0585
G01 X-1.0089 Y-6.0873
G01 X-0.9841 Y-6.1874
G01 X-0.9779 Y-6.2111
G01 X-0.9710 Y-6.2347
G01 X-0.9622 Y-6.2628
G01 X-0.9542 Y-6.2860
G01 X-0.9192 Y-6.3829
G01 X-0.9101 Y-6.4057
G01 X-0.8985 Y-6.4328
G01 X-0.8547 Y-6.5261
G01 X-0.8440 Y-6.5481
G01 X-0.8327 Y-6.5699
G01 X-0.8185 Y-6.5957
G01 X-0.7658 Y-6.6843
G01 X-0.7529 Y-6.7052
G01 X-0.7396 Y-6.7257
G01 X-0.7229 Y-6.7501
G01 X-0.7086 Y-6.7700
G01 X-0.6469 Y-6.8525
G01 X-0.6316 Y-6.8717
G01 X-0.6127 Y-6.8943
G01 X-0.5437 Y-6.9708
G01 X-0.5270 Y-6.9888
G01 X-0.5099 Y-7.0064
G01 X-0.4888 Y-7.0270
G01 X-0.4127 Y-7.0964
G01 X-0.3943 Y-7.1127
G01 X-0.3755 Y-7.1285
G01 X-0.3525 Y-7.1469
G01 X-0.3330 Y-7.1618
G01 X-0.2501 Y-7.2229
G01 X-0.2298 Y-7.2368
G01 X-0.2052 Y-7.2529
G01 X-0.1169 Y-7.3062
G01 X-0.0957 Y-7.3185
G01 X-0.0742 Y-7.3304
G01 X-0.0481 Y-7.3440
G01 X0.0449 Y-7.3883
G01 X0.0672 Y-7.3985
G01 X0.0898 Y-7.4082
G01 X0.1171 Y-7.4192
G01 X0.1401 Y-7.4277
G01 X0.2372 Y-7.4622
G01 X0.2606 Y-7.4696
G01 X0.2889 Y-7.4779
G01 X0.3888 Y-7.5032
G01 X0.4127 Y-7.5089
G01 X0.4367 Y-7.5139
G01 X0.4656 Y-7.5194
G01 X0.4899 Y-7.5233
G01 X0.5675 Y-7.5348
G01 X0.5918 Y-7.5381
G01 X0.6211 Y-7.5413
G01 X0.6456 Y-7.5434
G01 X0.6701 Y-7.5449
G01 X0.7485 Y-7.5488
G01 X0.7755 Y-7.5497
G01 X0.8000 Y-7.5500
G01 X31.7000 Y-7.5500
G01 X31.7270 Y-7.5497
G01 X31.7515 Y-7.5488
G01 X31.8544 Y-7.5434
G01 X31.8789 Y-7.5413
G01 X31.9082 Y-7.5381
G01 X32.0101 Y-7.5233
G01 X32.0344 Y-7.5194
G01 X32.0633 Y-7.5139
G01 X32.0873 Y-7.5089
G01 X32.1112 Y-7.5032
G01 X32.1874 Y-7.4841
G01 X32.2111 Y-7.4779
G01 X32.2347 Y-7.4710
G01 X32.2628 Y-7.4622
G01 X32.2860 Y-7.4542
G01 X32.3829 Y-7.4192
G01 X32.4057 Y-7.4101
G01 X32.4328 Y-7.3985
G01 X32.5261 Y-7.3547
G01 X32.5481 Y-7.3440
G01 X32.5699 Y-7.3327
G01 X32.5957 Y-7.3185
G01 X32.6843 Y-7.2658
G01 X32.7052 Y-7.2529
G01 X32.7257 Y-7.2396
G01 X32.7501 Y-7.2229
G01 X32.7700 Y-7.2086
G01 X32.8525 Y-7.1469
G01 X32.8717 Y-7.1316
G01 X32.8943 Y-7.1127
G01 X32.9708 Y-7.0437
G01 X32.9888 Y-7.0270
G01 X33.0099 Y-7.0064
G01 X33.0270 Y-6.9888
G01 X33.0437 Y-6.9708
G01 X33.0964 Y-6.9127
G01 X33.1127 Y-6.8943
G01 X33.1285 Y-6.8755
G01 X33.1469 Y-6.8525
G01 X33.1618 Y-6.8330
G01 X33.2086 Y-6.7700
G01 X33.2229 Y-6.7501
G01 X33.2368 Y-6.7298
G01 X33.2529 Y-6.7052
G01 X33.2658 Y-6.6843
G01 X33.3185 Y-6.5957
G01 X33.3304 Y-6.5742
G01 X33.3440 Y-6.5481
G01 X33.3883 Y-6.4551
G01 X33.3985 Y-6.4328
G01 X33.4082 Y-6.4102
G01 X33.4192 Y-6.3829
G01 X33.4542 Y-6.2860
G01 X33.4622 Y-6.2628
G01 X33.4696 Y-6.2394
G01 X33.4779 Y-6.2111
G01 X33.5032 Y-6.1112
G01 X33.5089 Y-6.0873
G01 X33.5139 Y-6.0633
G01 X33.5194 Y-6.0344
G01 X33.5233 Y-6.0101
G01 X33.5348 Y-5.9325
G01 X33.5381 Y-5.9082
G01 X33.5413 Y-5.8789
G01 X33.5434 Y-5.8544
G01 X33.5449 Y-5.8299
G01 X33.5488 Y-5.7515
G01 X33.5497 Y-5.7245
G01 X33.5500 Y-5.7000
G01 X33.5500 Y-0.8000
G01 X33.5497 Y-0.7730
G01 X33.5488 Y-0.7485
G01 X33.5449 Y-0.6701
G01 X33.5434 Y-0.6456
G01 X33.5408 Y-0.6162
G01 X33.5381 Y-0.5918
G01 X33.5348 Y-0.5675
G01 X33.5233 Y-0.4899
G01 X33.5194 Y-0.4656
G01 X33.5149 Y-0.4415
G01 X33.5089 Y-0.4127
G01 X33.4841 Y-0.3126
G01 X33.4779 Y-0.2889
G01 X33.4710 Y-0.2653
G01 X33.4622 Y-0.2372
G01 X33.4542 Y-0.2140
G01 X33.4192 Y-0.1171
G01 X33.4101 Y-0.0943
G01 X33.3985 Y-0.0672
G01 X33.3547 Y0.0261
G01 X33.3440 Y0.0481
G01 X33.3327 Y0.0699
G01 X33.3185 Y0.0957
G01 X33.2658 Y0.1843
G01 X33.2529 Y0.2052
G01 X33.2396 Y0.2257
G01 X33.2229 Y0.2501
G01 X33.2086 Y0.2700
G01 X33.1469 Y0.3525
G01 X33.1316 Y0.3717
G01 X33.1127 Y0.3943
G01 X33.0437 Y0.4708
G01 X33.0270 Y0.4888
G01 X33.0099 Y0.5064
G01 X32.9888 Y0.5270
G01 X32.9127 Y0.5964
G01 X32.8943 Y0.6127
G01 X32.8755 Y0.6285
G01 X32.8525 Y0.6469
G01 X32.8330 Y0.6618
G01 X32.7501 Y0.7229
G01 X32.7298 Y0.7368
G01 X32.7052 Y0.7529
G01 X32.6169 Y0.8062
G01 X32.5957 Y0.8185
G01 X32.5742 Y0.8304
G01 X32.5481 Y0.8440
G01 X32.4551 Y0.8883
G01 X32.4328 Y0.8985
G01 X32.4102 Y0.9082
G01 X32.3829 Y0.9192
G01 X32.3599 Y0.9277
G01 X32.2628 Y0.9622
G01 X32.2394 Y0.9696
G01 X32.2111 Y0.9779
G01 X32.1112 Y1.0032
G01 X32.0873 Y1.0089
G01 X32.0633 Y1.0139
G01 X32.0344 Y1.0194
G01 X32.0101 Y1.0233
G01 X31.9325 Y1.0348
G01 X31.9082 Y1.0381
G01 X31.8789 Y1.0413
G01 X31.8544 Y1.0434
G01 X31.8299 Y1.0449
G01 X31.7515 Y1.0488
G01 X31.7245 Y1.0497
G01 X31.7000 Y1.0500
G01 X0.8000 Y1.0500
G01 X0.7730 Y1.0497
G01 X0.7485 Y1.0488
G01 X0.6701 Y1.0449
G01 X0.6456 Y1.0434
G01 X0.6211 Y1.0413
G01 X0.5918 Y1.0381
G01 X0.4899 Y1.0233
G01 X0.4656 Y1.0194
G01 X0.4415 Y1.0149
G01 X0.4127 Y1.0089
G01 X0.3126 Y0.9841
G01 X0.2889 Y0.9779
G01 X0.2653 Y0.9710
G01 X0.2372 Y0.9622
G01 X0.1401 Y0.9277
G01 X0.1171 Y0.9192
G01 X0.0943 Y0.9101
G01 X0.0672 Y0.8985
G01 X0.0449 Y0.8883
G01 X-0.0481 Y0.8440
G01 X-0.0699 Y0.8327
G01 X-0.0957 Y0.8185
G01 X-0.1843 Y0.7658
G01 X-0.2052 Y0.7529
G01 X-0.2257 Y0.7396
G01 X-0.2501 Y0.7229
G01 X-0.3330 Y0.6618
G01 X-0.3525 Y0.6469
G01 X-0.3717 Y0.6316
G01 X-0.3943 Y0.6127
G01 X-0.4708 Y0.5437
G01 X-0.4888 Y0.5270
G01 X-0.5064 Y0.5099
G01 X-0.5270 Y0.4888
G01 X-0.5964 Y0.4127
G01 X-0.6127 Y0.3943
G01 X-0.6316 Y0.3717
G01 X-0.6469 Y0.3525
G01 X-0.6618 Y0.3330
G01 X-0.7086 Y0.2700
G01 X-0.7229 Y0.2501
G01 X-0.7396 Y0.2257
G01 X-0.7529 Y0.2052
G01 X-0.7658 Y0.1843
G01 X-0.8062 Y0.1169
G01 X-0.8185 Y0.0957
G01 X-0.8327 Y0.0699
G01 X-0.8440 Y0.0481
G01 X-0.8547 Y0.0261
G01 X-0.8883 Y-0.0449
G01 X-0.8985 Y-0.0672
G01 X-0.9101 Y-0.0943
G01 X-0.9192 Y-0.1171
G01 X-0.9277 Y-0.1401
G01 X-0.9542 Y-0.2140
G01 X-0.9622 Y-0.2372
G01 X-0.9696 Y-0.2606
G01 X-0.9779 Y-0.2889
G01 X-0.9841 Y-0.3126
G01 X-1.0032 Y-0.3888
G01 X-1.0089 Y-0.4127
G01 X-1.0139 Y-0.4367
G01 X-1.0194 Y-0.4656
G01 X-1.0233 Y-0.4899
G01 X-1.0348 Y-0.5675
G01 X-1.0381 Y-0.5918
G01 X-1.0408 Y-0.6162
G01 X-1.0434 Y-0.6456
G01 X-1.0449 Y-0.6701
G01 X-1.0488 Y-0.7485
G01 X-1.0497 Y-0.7742
G00 X-1.0497 Y-0.7742
G01 F60.00
G01 Z-0.7000
G01 F120.00
G01 X-1.0500 Y-0.8000
G01 X-1.0500 Y-5.7000
G01 X-1.0497 Y-5.7270
G01 X-1.0488 Y-5.7515
G01 X-1.0449 Y-5.8299
G01 X-1.0434 Y-5.8544
G01 X-1.0408 Y-5.8838
G01 X-1.0381 Y-5.9082
G01 X-1.0348 Y-5.9325
G01 X-1.0233 Y-6.0101
G01 X-1.0194 Y-6.0344
G01 X-1.0149 Y-6.0585
G01 X-1.0089 Y-6.0873
G01 X-0.9841 Y-6.1874
G01 X-0.9779 Y-6.2111
G01 X-0.9710 Y-6.2347
G01 X-0.9622 Y-6.2628
G01 X-0.9542 Y-6.2860
G01 X-0.9192 Y-6.3829
G01 X-0.9101 Y-6.4057
G01 X-0.8985 Y-6.4328
G01 X-0.8547 Y-6.5261
G01 X-0.8440 Y-6.5481
G01 X-0.8327 Y-6.5699
G01 X-0.8185 Y-6.5957
G01 X-0.7658 Y-6.6843
G01 X-0.7529 Y-6.7052
G01 X-0.7396 Y-6.7257
G01 X-0.7229 Y-6.7501
G01 X-0.7086 Y-6.7700
G01 X-0.6469 Y-6.8525
G01 X-0.6316 Y-6.8717
G01 X-0.6127 Y-6.8943
G01 X-0.5437 Y-6.9708
G01 X-0.5270 Y-6.9888
G01 X-0.5099 Y-7.0064
G01 X-0.4888 Y-7.0270
G01 X-0.4127 Y-7.0964
G01 X-0.3943 Y-7.1127
G01 X-0.3755 Y-7.1285
G01 X-0.3525 Y-7.1469
G01 X-0.3330 Y-7.1618
G01 X-0.2501 Y-7.2229
G01 X-0.2298 Y-7.2368
G01 X-0.2052 Y-7.2529
G01 X-0.1169 Y-7.3062
G01 X-0.0957 Y-7.3185
G01 X-0.0742 Y-7.3304
G01 X-0.0481 Y-7.3440
G01 X0.0449 Y-7.3883
G01 X0.0672 Y-7.3985
G01 X0.0898 Y-7.4082
G01 X0.1171 Y-7.4192
G01 X0.1401 Y-7.4277
G01 X0.2372 Y-7.4622
G01 X0.2606 Y-7.4696
G01 X0.2889 Y-7.4779
G01 X0.3888 Y-7.5032
G01 X0.4127 Y-7.5089
G01 X0.4367 Y-7.5139
G01 X0.4656 Y-7.5194
G01 X0.4899 Y-7.5233
G01 X0.5675 Y-7.5348
G01 X0.5918 Y-7.5381
G01 X0.6211 Y-7.5413
G01 X0.6456 Y-7.5434
G01 X0.6701 Y-7.5449
G01 X0.7485 Y-7.5488
G01 X0.7755 Y-7.5497
G01 X0.8000 Y-7.5500
G01 X31.7000 Y-7.5500
G01 X31.7270 Y-7.5497
G01 X31.7515 Y-7.5488
G01 X31.8544 Y-7.5434
G01 X31.8789 Y-7.5413
G01 X31.9082 Y-7.5381
G01 X32.0101 Y-7.5233
G01 X32.0344 Y-7.5194
G01 X32.0633 Y-7.5139
G01 X32.0873 Y-7.5089
G01 X32.1112 Y-7.5032
G01 X32.1874 Y-7.4841
G01 X32.2111 Y-7.4779
G01 X32.2347 Y-7.4710
G01 X32.2628 Y-7.4622
G01 X32.2860 Y-7.4542
G01 X32.3829 Y-7.4192
G01 X32.4057 Y-7.4101
G01 X32.4328 Y-7.3985
G01 X32.5261 Y-7.3547
G01 X32.5481 Y-7.3440
G01 X32.5699 Y-7.3327
G01 X32.5957 Y-7.3185
G01 X32.6843 Y-7.2658
G01 X32.7052 Y-7.2529
G01 X32.7257 Y-7.2396
G01 X32.7501 Y-7.2229
G01 X32.7700 Y-7.2086
G01 X32.8525 Y-7.1469
G01 X32.8717 Y-7.1316
G01 X32.8943 Y-7.1127
G01 X32.9708 Y-7.0437
G01 X32.9888 Y-7.0270
G01 X33.0099 Y-7.0064
G01 X33.0270 Y-6.9888
G01 X33.0437 Y-6.9708
G01 X33.0964 Y-6.9127
G01 X33.1127 Y-6.8943
G01 X33.1285 Y-6.8755
G01 X33.1469 Y-6.8525
G01 X33.1618 Y-6.8330
G01 X33.2086 Y-6.7700
G01 X33.2229 Y-6.7501
G01 X33.2368 Y-6.7298
G01 X33.2529 Y-6.7052
G01 X33.2658 Y-6.6843
G01 X33.3185 Y-6.5957
G01 X33.3304 Y-6.5742
G01 X33.3440 Y-6.5481
G01 X33.3883 Y-6.4551
G01 X33.3985 Y-6.4328
G01 X33.4082 Y-6.4102
G01 X33.4192 Y-6.3829
G01 X33.4542 Y-6.2860
G01 X33.4622 Y-6.2628
G01 X33.4696 Y-6.2394
G01 X33.4779 Y-6.2111
G01 X33.5032 Y-6.1112
G01 X33.5089 Y-6.0873
G01 X33.5139 Y-6.0633
G01 X33.5194 Y-6.0344
G01 X33.5233 Y-6.0101
G01 X33.5348 Y-5.9325
G01 X33.5381 Y-5.9082
G01 X33.5413 Y-5.8789
G01 X33.5434 Y-5.8544
G01 X33.5449 Y-5.8299
G01 X33.5488 Y-5.7515
G01 X33.5497 Y-5.7245
G01 X33.5500 Y-5.7000
G01 X33.5500 Y-0.8000
G01 X33.5497 Y-0.7730
G01 X33.5488 Y-0.7485
G01 X33.5449 Y-0.6701
G01 X33.5434 Y-0.6456
G01 X33.5408 Y-0.6162
G01 X33.5381 Y-0.5918
G01 X33.5348 Y-0.5675
G01 X33.5233 Y-0.4899
G01 X33.5194 Y-0.4656
G01 X33.5149 Y-0.4415
G01 X33.5089 Y-0.4127
G01 X33.4841 Y-0.3126
G01 X33.4779 Y-0.2889
G01 X33.4710 Y-0.2653
G01 X33.4622 Y-0.2372
G01 X33.4542 Y-0.2140
G01 X33.4192 Y-0.1171
G01 X33.4101 Y-0.0943
G01 X33.3985 Y-0.0672
G01 X33.3547 Y0.0261
G01 X33.3440 Y0.0481
G01 X33.3327 Y0.0699
G01 X33.3185 Y0.0957
G01 X33.2658 Y0.1843
G01 X33.2529 Y0.2052
G01 X33.2396 Y0.2257
G01 X33.2229 Y0.2501
G01 X33.2086 Y0.2700
G01 X33.1469 Y0.3525
G01 X33.1316 Y0.3717
G01 X33.1127 Y0.3943
G01 X33.0437 Y0.4708
G01 X33.0270 Y0.4888
G01 X33.0099 Y0.5064
G01 X32.9888 Y0.5270
G01 X32.9127 Y0.5964
G01 X32.8943 Y0.6127
G01 X32.8755 Y0.6285
G01 X32.8525 Y0.6469
G01 X32.8330 Y0.6618
G01 X32.7501 Y0.7229
G01 X32.7298 Y0.7368
G01 X32.7052 Y0.7529
G01 X32.6169 Y0.8062
G01 X32.5957 Y0.8185
G01 X32.5742 Y0.8304
G01 X32.5481 Y0.8440
G01 X32.4551 Y0.8883
G01 X32.4328 Y0.8985
G01 X32.4102 Y0.9082
G01 X32.3829 Y0.9192
G01 X32.3599 Y0.9277
G01 X32.2628 Y0.9622
G01 X32.2394 Y0.9696
G01 X32.2111 Y0.9779
G01 X32.1112 Y1.0032
G01 X32.0873 Y1.0089
G01 X32.0633 Y1.0139
G01 X32.0344 Y1.0194
G01 X32.0101 Y1.0233
G01 X31.9325 Y1.0348
G01 X31.9082 Y1.0381
G01 X31.8789 Y1.0413
G01 X31.8544 Y1.0434
G01 X31.8299 Y1.0449
G01 X31.7515 Y1.0488
G01 X31.7245 Y1.0497
G01 X31.7000 Y1.0500
G01 X0.8000 Y1.0500
G01 X0.7730 Y1.0497
G01 X0.7485 Y1.0488
G01 X0.6701 Y1.0449
G01 X0.6456 Y1.0434
G01 X0.6211 Y1.0413
G01 X0.5918 Y1.0381
G01 X0.4899 Y1.0233
G01 X0.4656 Y1.0194
G01 X0.4415 Y1.0149
G01 X0.4127 Y1.0089
G01 X0.3126 Y0.9841
G01 X0.2889 Y0.9779
G01 X0.2653 Y0.9710
G01 X0.2372 Y0.9622
G01 X0.1401 Y0.9277
G01 X0.1171 Y0.9192
G01 X0.0943 Y0.9101
G01 X0.0672 Y0.8985
G01 X0.0449 Y0.8883
G01 X-0.0481 Y0.8440
G01 X-0.0699 Y0.8327
G01 X-0.0957 Y0.8185
G01 X-0.1843 Y0.7658
G01 X-0.2052 Y0.7529
G01 X-0.2257 Y0.7396
G01 X-0.2501 Y0.7229
G01 X-0.3330 Y0.6618
G01 X-0.3525 Y0.6469
G01 X-0.3717 Y0.6316
G01 X-0.3943 Y0.6127
G01 X-0.4708 Y0.5437
G01 X-0.4888 Y0.5270
G01 X-0.5064 Y0.5099
G01 X-0.5270 Y0.4888
G01 X-0.5964 Y0.4127
G01 X-0.6127 Y0.3943
G01 X-0.6316 Y0.3717
G01 X-0.6469 Y0.3525
G01 X-0.6618 Y0.3330
G01 X-0.7086 Y0.2700
G01 X-0.7229 Y0.2501
G01 X-0.7396 Y0.2257
G01 X-0.7529 Y0.2052
G01 X-0.7658 Y0.1843
G01 X-0.8062 Y0.1169
G01 X-0.8185 Y0.0957
G01 X-0.8327 Y0.0699
G01 X-0.8440 Y0.0481
G01 X-0.8547 Y0.0261
G01 X-0.8883 Y-0.0449
G01 X-0.8985 Y-0.0672
G01 X-0.9101 Y-0.0943
G01 X-0.9192 Y-0.1171
G01 X-0.9277 Y-0.1401
G01 X-0.9542 Y-0.2140
G01 X-0.9622 Y-0.2372
G01 X-0.9696 Y-0.2606
G01 X-0.9779 Y-0.2889
G01 X-0.9841 Y-0.3126
G01 X-1.0032 Y-0.3888
G01 X-1.0089 Y-0.4127
G01 X-1.0139 Y-0.4367
G01 X-1.0194 Y-0.4656
G01 X-1.0233 Y-0.4899
G01 X-1.0348 Y-0.5675
G01 X-1.0381 Y-0.5918
G01 X-1.0408 Y-0.6162
G01 X-1.0434 Y-0.6456
G01 X-1.0449 Y-0.6701
G01 X-1.0488 Y-0.7485
G01 X-1.0497 Y-0.7742
G00 X-1.0497 Y-0.7742
G01 F60.00
G01 Z-0.8000
G01 F120.00
G01 X-1.0500 Y-0.8000
G01 X-1.0500 Y-5.7000
G01 X-1.0497 Y-5.7270
G01 X-1.0488 Y-5.7515
G01 X-1.0449 Y-5.8299
G01 X-1.0434 Y-5.8544
G01 X-1.0408 Y-5.8838
G01 X-1.0381 Y-5.9082
G01 X-1.0348 Y-5.9325
G01 X-1.0233 Y-6.0101
G01 X-1.0194 Y-6.0344
G01 X-1.0149 Y-6.0585
G01 X-1.0089 Y-6.0873
G01 X-0.9841 Y-6.1874
G01 X-0.9779 Y-6.2111
G01 X-0.9710 Y-6.2347
G01 X-0.9622 Y-6.2628
G01 X-0.9542 Y-6.2860
G01 X-0.9192 Y-6.3829
G01 X-0.9101 Y-6.4057
G01 X-0.8985 Y-6.4328
G01 X-0.8547 Y-6.5261
G01 X-0.8440 Y-6.5481
G01 X-0.8327 Y-6.5699
G01 X-0.8185 Y-6.5957
G01 X-0.7658 Y-6.6843
G01 X-0.7529 Y-6.7052
G01 X-0.7396 Y-6.7257
G01 X-0.7229 Y-6.7501
G01 X-0.7086 Y-6.7700
G01 X-0.6469 Y-6.8525
G01 X-0.6316 Y-6.8717
G01 X-0.6127 Y-6.8943
G01 X-0.5437 Y-6.9708
G01 X-0.5270 Y-6.9888
G01 X-0.5099 Y-7.0064
G01 X-0.4888 Y-7.0270
G01 X-0.4127 Y-7.0964
G01 X-0.3943 Y-7.1127
G01 X-0.3755 Y-7.1285
G01 X-0.3525 Y-7.1469
G01 X-0.3330 Y-7.1618
G01 X-0.2501 Y-7.2229
G01 X-0.2298 Y-7.2368
G01 X-0.2052 Y-7.2529
G01 X-0.1169 Y-7.3062
G01 X-0.0957 Y-7.3185
G01 X-0.0742 Y-7.3304
G01 X-0.0481 Y-7.3440
G01 X0.0449 Y-7.3883
G01 X0.0672 Y-7.3985
G01 X0.0898 Y-7.4082
G01 X0.1171 Y-7.4192
G01 X0.1401 Y-7.4277
G01 X0.2372 Y-7.4622
G01 X0.2606 Y-7.4696
G01 X0.2889 Y-7.4779
G01 X0.3888 Y-7.5032
G01 X0.4127 Y-7.5089
G01 X0.4367 Y-7.5139
G01 X0.4656 Y-7.5194
G01 X0.4899 Y-7.5233
G01 X0.5675 Y-7.5348
G01 X0.5918 Y-7.5381
G01 X0.6211 Y-7.5413
G01 X0.6456 Y-7.5434
G01 X0.6701 Y-7.5449
G01 X0.7485 Y-7.5488
G01 X0.7755 Y-7.5497
G01 X0.8000 Y-7.5500
G01 X31.7000 Y-7.5500
G01 X31.7270 Y-7.5497
G01 X31.7515 Y-7.5488
G01 X31.8544 Y-7.5434
G01 X31.8789 Y-7.5413
G01 X31.9082 Y-7.5381
G01 X32.0101 Y-7.5233
G01 X32.0344 Y-7.5194
G01 X32.0633 Y-7.5139
G01 X32.0873 Y-7.5089
G01 X32.1112 Y-7.5032
G01 X32.1874 Y-7.4841
G01 X32.2111 Y-7.4779
G01 X32.2347 Y-7.4710
G01 X32.2628 Y-7.4622
G01 X32.2860 Y-7.4542
G01 X32.3829 Y-7.4192
G01 X32.4057 Y-7.4101
G01 X32.4328 Y-7.3985
G01 X32.5261 Y-7.3547
G01 X32.5481 Y-7.3440
G01 X32.5699 Y-7.3327
G01 X32.5957 Y-7.3185
G01 X32.6843 Y-7.2658
G01 X32.7052 Y-7.2529
G01 X32.7257 Y-7.2396
G01 X32.7501 Y-7.2229
G01 X32.7700 Y-7.2086
G01 X32.8525 Y-7.1469
G01 X32.8717 Y-7.1316
G01 X32.8943 Y-7.1127
G01 X32.9708 Y-7.0437
G01 X32.9888 Y-7.0270
G01 X33.0099 Y-7.0064
G01 X33.0270 Y-6.9888
G01 X33.0437 Y-6.9708
G01 X33.0964 Y-6.9127
G01 X33.1127 Y-6.8943
G01 X33.1285 Y-6.8755
G01 X33.1469 Y-6.8525
G01 X33.1618 Y-6.8330
G01 X33.2086 Y-6.7700
G01 X33.2229 Y-6.7501
G01 X33.2368 Y-6.7298
G01 X33.2529 Y-6.7052
G01 X33.2658 Y-6.6843
G01 X33.3185 Y-6.5957
G01 X33.3304 Y-6.5742
G01 X33.3440 Y-6.5481
G01 X33.3883 Y-6.4551
G01 X33.3985 Y-6.4328
G01 X33.4082 Y-6.4102
G01 X33.4192 Y-6.3829
G01 X33.4542 Y-6.2860
G01 X33.4622 Y-6.2628
G01 X33.4696 Y-6.2394
G01 X33.4779 Y-6.2111
G01 X33.5032 Y-6.1112
G01 X33.5089 Y-6.0873
G01 X33.5139 Y-6.0633
G01 X33.5194 Y-6.0344
G01 X33.5233 Y-6.0101
G01 X33.5348 Y-5.9325
G01 X33.5381 Y-5.9082
G01 X33.5413 Y-5.8789
G01 X33.5434 Y-5.8544
G01 X33.5449 Y-5.8299
G01 X33.5488 Y-5.7515
G01 X33.5497 Y-5.7245
G01 X33.5500 Y-5.7000
G01 X33.5500 Y-0.8000
G01 X33.5497 Y-0.7730
G01 X33.5488 Y-0.7485
G01 X33.5449 Y-0.6701
G01 X33.5434 Y-0.6456
G01 X33.5408 Y-0.6162
G01 X33.5381 Y-0.5918
G01 X33.5348 Y-0.5675
G01 X33.5233 Y-0.4899
G01 X33.5194 Y-0.4656
G01 X33.5149 Y-0.4415
G01 X33.5089 Y-0.4127
G01 X33.4841 Y-0.3126
G01 X33.4779 Y-0.2889
G01 X33.4710 Y-0.2653
G01 X33.4622 Y-0.2372
G01 X33.4542 Y-0.2140
G01 X33.4192 Y-0.1171
G01 X33.4101 Y-0.0943
G01 X33.3985 Y-0.0672
G01 X33.3547 Y0.0261
G01 X33.3440 Y0.0481
G01 X33.3327 Y0.0699
G01 X33.3185 Y0.0957
G01 X33.2658 Y0.1843
G01 X33.2529 Y0.2052
G01 X33.2396 Y0.2257
G01 X33.2229 Y0.2501
G01 X33.2086 Y0.2700
G01 X33.1469 Y0.3525
G01 X33.1316 Y0.3717
G01 X33.1127 Y0.3943
G01 X33.0437 Y0.4708
G01 X33.0270 Y0.4888
G01 X33.0099 Y0.5064
G01 X32.9888 Y0.5270
G01 X32.9127 Y0.5964
G01 X32.8943 Y0.6127
G01 X32.8755 Y0.6285
G01 X32.8525 Y0.6469
G01 X32.8330 Y0.6618
G01 X32.7501 Y0.7229
G01 X32.7298 Y0.7368
G01 X32.7052 Y0.7529
G01 X32.6169 Y0.8062
G01 X32.5957 Y0.8185
G01 X32.5742 Y0.8304
G01 X32.5481 Y0.8440
G01 X32.4551 Y0.8883
G01 X32.4328 Y0.8985
G01 X32.4102 Y0.9082
G01 X32.3829 Y0.9192
G01 X32.3599 Y0.9277
G01 X32.2628 Y0.9622
G01 X32.2394 Y0.9696
G01 X32.2111 Y0.9779
G01 X32.1112 Y1.0032
G01 X32.0873 Y1.0089
G01 X32.0633 Y1.0139
G01 X32.0344 Y1.0194
G01 X32.0101 Y1.0233
G01 X31.9325 Y1.0348
G01 X31.9082 Y1.0381
G01 X31.8789 Y1.0413
G01 X31.8544 Y1.0434
G01 X31.8299 Y1.0449
G01 X31.7515 Y1.0488
G01 X31.7245 Y1.0497
G01 X31.7000 Y1.0500
G01 X0.8000 Y1.0500
G01 X0.7730 Y1.0497
G01 X0.7485 Y1.0488
G01 X0.6701 Y1.0449
G01 X0.6456 Y1.0434
G01 X0.6211 Y1.0413
G01 X0.5918 Y1.0381
G01 X0.4899 Y1.0233
G01 X0.4656 Y1.0194
G01 X0.4415 Y1.0149
G01 X0.4127 Y1.0089
G01 X0.3126 Y0.9841
G01 X0.2889 Y0.9779
G01 X0.2653 Y0.9710
G01 X0.2372 Y0.9622
G01 X0.1401 Y0.9277
G01 X0.1171 Y0.9192
G01 X0.0943 Y0.9101
G01 X0.0672 Y0.8985
G01 X0.0449 Y0.8883
G01 X-0.0481 Y0.8440
G01 X-0.0699 Y0.8327
G01 X-0.0957 Y0.8185
G01 X-0.1843 Y0.7658
G01 X-0.2052 Y0.7529
G01 X-0.2257 Y0.7396
G01 X-0.2501 Y0.7229
G01 X-0.3330 Y0.6618
G01 X-0.3525 Y0.6469
G01 X-0.3717 Y0.6316
G01 X-0.3943 Y0.6127
G01 X-0.4708 Y0.5437
G01 X-0.4888 Y0.5270
G01 X-0.5064 Y0.5099
G01 X-0.5270 Y0.4888
G01 X-0.5964 Y0.4127
G01 X-0.6127 Y0.3943
G01 X-0.6316 Y0.3717
G01 X-0.6469 Y0.3525
G01 X-0.6618 Y0.3330
G01 X-0.7086 Y0.2700
G01 X-0.7229 Y0.2501
G01 X-0.7396 Y0.2257
G01 X-0.7529 Y0.2052
G01 X-0.7658 Y0.1843
G01 X-0.8062 Y0.1169
G01 X-0.8185 Y0.0957
G01 X-0.8327 Y0.0699
G01 X-0.8440 Y0.0481
G01 X-0.8547 Y0.0261
G01 X-0.8883 Y-0.0449
G01 X-0.8985 Y-0.0672
G01 X-0.9101 Y-0.0943
G01 X-0.9192 Y-0.1171
G01 X-0.9277 Y-0.1401
G01 X-0.9542 Y-0.2140
G01 X-0.9622 Y-0.2372
G01 X-0.9696 Y-0.2606
G01 X-0.9779 Y-0.2889
G01 X-0.9841 Y-0.3126
G01 X-1.0032 Y-0.3888
G01 X-1.0089 Y-0.4127
G01 X-1.0139 Y-0.4367
G01 X-1.0194 Y-0.4656
G01 X-1.0233 Y-0.4899
G01 X-1.0348 Y-0.5675
G01 X-1.0381 Y-0.5918
G01 X-1.0408 Y-0.6162
G01 X-1.0434 Y-0.6456
G01 X-1.0449 Y-0.6701
G01 X-1.0488 Y-0.7485
G01 X-1.0497 Y-0.7742
G00 X-1.0497 Y-0.7742
G01 F60.00
G01 Z-0.9000
G01 F120.00
G01 X-1.0500 Y-0.8000
G01 X-1.0500 Y-5.7000
G01 X-1.0497 Y-5.7270
G01 X-1.0488 Y-5.7515
G01 X-1.0449 Y-5.8299
G01 X-1.0434 Y-5.8544
G01 X-1.0408 Y-5.8838
G01 X-1.0381 Y-5.9082
G01 X-1.0348 Y-5.9325
G01 X-1.0233 Y-6.0101
G01 X-1.0194 Y-6.0344
G01 X-1.0149 Y-6.0585
G01 X-1.0089 Y-6.0873
G01 X-0.9841 Y-6.1874
G01 X-0.9779 Y-6.2111
G01 X-0.9710 Y-6.2347
G01 X-0.9622 Y-6.2628
G01 X-0.9542 Y-6.2860
G01 X-0.9192 Y-6.3829
G01 X-0.9101 Y-6.4057
G01 X-0.8985 Y-6.4328
G01 X-0.8547 Y-6.5261
G01 X-0.8440 Y-6.5481
G01 X-0.8327 Y-6.5699
G01 X-0.8185 Y-6.5957
G01 X-0.7658 Y-6.6843
G01 X-0.7529 Y-6.7052
G01 X-0.7396 Y-6.7257
G01 X-0.7229 Y-6.7501
G01 X-0.7086 Y-6.7700
G01 X-0.6469 Y-6.8525
G01 X-0.6316 Y-6.8717
G01 X-0.6127 Y-6.8943
G01 X-0.5437 Y-6.9708
G01 X-0.5270 Y-6.9888
G01 X-0.5099 Y-7.0064
G01 X-0.4888 Y-7.0270
G01 X-0.4127 Y-7.0964
G01 X-0.3943 Y-7.1127
G01 X-0.3755 Y-7.1285
G01 X-0.3525 Y-7.1469
G01 X-0.3330 Y-7.1618
G01 X-0.2501 Y-7.2229
G01 X-0.2298 Y-7.2368
G01 X-0.2052 Y-7.2529
G01 X-0.1169 Y-7.3062
G01 X-0.0957 Y-7.3185
G01 X-0.0742 Y-7.3304
G01 X-0.0481 Y-7.3440
G01 X0.0449 Y-7.3883
G01 X0.0672 Y-7.3985
G01 X0.0898 Y-7.4082
G01 X0.1171 Y-7.4192
G01 X0.1401 Y-7.4277
G01 X0.2372 Y-7.4622
G01 X0.2606 Y-7.4696
G01 X0.2889 Y-7.4779
G01 X0.3888 Y-7.5032
G01 X0.4127 Y-7.5089
G01 X0.4367 Y-7.5139
G01 X0.4656 Y-7.5194
G01 X0.4899 Y-7.5233
G01 X0.5675 Y-7.5348
G01 X0.5918 Y-7.5381
G01 X0.6211 Y-7.5413
G01 X0.6456 Y-7.5434
G01 X0.6701 Y-7.5449
G01 X0.7485 Y-7.5488
G01 X0.7755 Y-7.5497
G01 X0.8000 Y-7.5500
G01 X31.7000 Y-7.5500
G01 X31.7270 Y-7.5497
G01 X31.7515 Y-7.5488
G01 X31.8544 Y-7.5434
G01 X31.8789 Y-7.5413
G01 X31.9082 Y-7.5381
G01 X32.0101 Y-7.5233
G01 X32.0344 Y-7.5194
G01 X32.0633 Y-7.5139
G01 X32.0873 Y-7.5089
G01 X32.1112 Y-7.5032
G01 X32.1874 Y-7.4841
G01 X32.2111 Y-7.4779
G01 X32.2347 Y-7.4710
G01 X32.2628 Y-7.4622
G01 X32.2860 Y-7.4542
G01 X32.3829 Y-7.4192
G01 X32.4057 Y-7.4101
G01 X32.4328 Y-7.3985
G01 X32.5261 Y-7.3547
G01 X32.5481 Y-7.3440
G01 X32.5699 Y-7.3327
G01 X32.5957 Y-7.3185
G01 X32.6843 Y-7.2658
G01 X32.7052 Y-7.2529
G01 X32.7257 Y-7.2396
G01 X32.7501 Y-7.2229
G01 X32.7700 Y-7.2086
G01 X32.8525 Y-7.1469
G01 X32.8717 Y-7.1316
G01 X32.8943 Y-7.1127
G01 X32.9708 Y-7.0437
G01 X32.9888 Y-7.0270
G01 X33.0099 Y-7.0064
G01 X33.0270 Y-6.9888
G01 X33.0437 Y-6.9708
G01 X33.0964 Y-6.9127
G01 X33.1127 Y-6.8943
G01 X33.1285 Y-6.8755
G01 X33.1469 Y-6.8525
G01 X33.1618 Y-6.8330
G01 X33.2086 Y-6.7700
G01 X33.2229 Y-6.7501
G01 X33.2368 Y-6.7298
G01 X33.2529 Y-6.7052
G01 X33.2658 Y-6.6843
G01 X33.3185 Y-6.5957
G01 X33.3304 Y-6.5742
G01 X33.3440 Y-6.5481
G01 X33.3883 Y-6.4551
G01 X33.3985 Y-6.4328
G01 X33.4082 Y-6.4102
G01 X33.4192 Y-6.3829
G01 X33.4542 Y-6.2860
G01 X33.4622 Y-6.2628
G01 X33.4696 Y-6.2394
G01 X33.4779 Y-6.2111
G01 X33.5032 Y-6.1112
G01 X33.5089 Y-6.0873
G01 X33.5139 Y-6.0633
G01 X33.5194 Y-6.0344
G01 X33.5233 Y-6.0101
G01 X33.5348 Y-5.9325
G01 X33.5381 Y-5.9082
G01 X33.5413 Y-5.8789
G01 X33.5434 Y-5.8544
G01 X33.5449 Y-5.8299
G01 X33.5488 Y-5.7515
G01 X33.5497 Y-5.7245
G01 X33.5500 Y-5.7000
G01 X33.5500 Y-0.8000
G01 X33.5497 Y-0.7730
G01 X33.5488 Y-0.7485
G01 X33.5449 Y-0.6701
G01 X33.5434 Y-0.6456
G01 X33.5408 Y-0.6162
G01 X33.5381 Y-0.5918
G01 X33.5348 Y-0.5675
G01 X33.5233 Y-0.4899
G01 X33.5194 Y-0.4656
G01 X33.5149 Y-0.4415
G01 X33.5089 Y-0.4127
G01 X33.4841 Y-0.3126
G01 X33.4779 Y-0.2889
G01 X33.4710 Y-0.2653
G01 X33.4622 Y-0.2372
G01 X33.4542 Y-0.2140
G01 X33.4192 Y-0.1171
G01 X33.4101 Y-0.0943
G01 X33.3985 Y-0.0672
G01 X33.3547 Y0.0261
G01 X33.3440 Y0.0481
G01 X33.3327 Y0.0699
G01 X33.3185 Y0.0957
G01 X33.2658 Y0.1843
G01 X33.2529 Y0.2052
G01 X33.2396 Y0.2257
G01 X33.2229 Y0.2501
G01 X33.2086 Y0.2700
G01 X33.1469 Y0.3525
G01 X33.1316 Y0.3717
G01 X33.1127 Y0.3943
G01 X33.0437 Y0.4708
G01 X33.0270 Y0.4888
G01 X33.0099 Y0.5064
G01 X32.9888 Y0.5270
G01 X32.9127 Y0.5964
G01 X32.8943 Y0.6127
G01 X32.8755 Y0.6285
G01 X32.8525 Y0.6469
G01 X32.8330 Y0.6618
G01 X32.7501 Y0.7229
G01 X32.7298 Y0.7368
G01 X32.7052 Y0.7529
G01 X32.6169 Y0.8062
G01 X32.5957 Y0.8185
G01 X32.5742 Y0.8304
G01 X32.5481 Y0.8440
G01 X32.4551 Y0.8883
G01 X32.4328 Y0.8985
G01 X32.4102 Y0.9082
G01 X32.3829 Y0.9192
G01 X32.3599 Y0.9277
G01 X32.2628 Y0.9622
G01 X32.2394 Y0.9696
G01 X32.2111 Y0.9779
G01 X32.1112 Y1.0032
G01 X32.0873 Y1.0089
G01 X32.0633 Y1.0139
G01 X32.0344 Y1.0194
G01 X32.0101 Y1.0233
G01 X31.9325 Y1.0348
G01 X31.9082 Y1.0381
G01 X31.8789 Y1.0413
G01 X31.8544 Y1.0434
G01 X31.8299 Y1.0449
G01 X31.7515 Y1.0488
G01 X31.7245 Y1.0497
G01 X31.7000 Y1.0500
G01 X0.8000 Y1.0500
G01 X0.7730 Y1.0497
G01 X0.7485 Y1.0488
G01 X0.6701 Y1.0449
G01 X0.6456 Y1.0434
G01 X0.6211 Y1.0413
G01 X0.5918 Y1.0381
G01 X0.4899 Y1.0233
G01 X0.4656 Y1.0194
G01 X0.4415 Y1.0149
G01 X0.4127 Y1.0089
G01 X0.3126 Y0.9841
G01 X0.2889 Y0.9779
G01 X0.2653 Y0.9710
G01 X0.2372 Y0.9622
G01 X0.1401 Y0.9277
G01 X0.1171 Y0.9192
G01 X0.0943 Y0.9101
G01 X0.0672 Y0.8985
G01 X0.0449 Y0.8883
G01 X-0.0481 Y0.8440
G01 X-0.0699 Y0.8327
G01 X-0.0957 Y0.8185
G01 X-0.1843 Y0.7658
G01 X-0.2052 Y0.7529
G01 X-0.2257 Y0.7396
G01 X-0.2501 Y0.7229
G01 X-0.3330 Y0.6618
G01 X-0.3525 Y0.6469
G01 X-0.3717 Y0.6316
G01 X-0.3943 Y0.6127
G01 X-0.4708 Y0.5437
G01 X-0.4888 Y0.5270
G01 X-0.5064 Y0.5099
G01 X-0.5270 Y0.4888
G01 X-0.5964 Y0.4127
G01 X-0.6127 Y0.3943
G01 X-0.6316 Y0.3717
G01 X-0.6469 Y0.3525
G01 X-0.6618 Y0.3330
G01 X-0.7086 Y0.2700
G01 X-0.7229 Y0.2501
G01 X-0.7396 Y0.2257
G01 X-0.7529 Y0.2052
G01 X-0.7658 Y0.1843
G01 X-0.8062 Y0.1169
G01 X-0.8185 Y0.0957
G01 X-0.8327 Y0.0699
G01 X-0.8440 Y0.0481
G01 X-0.8547 Y0.0261
G01 X-0.8883 Y-0.0449
G01 X-0.8985 Y-0.0672
G01 X-0.9101 Y-0.0943
G01 X-0.9192 Y-0.1171
G01 X-0.9277 Y-0.1401
G01 X-0.9542 Y-0.2140
G01 X-0.9622 Y-0.2372
G01 X-0.9696 Y-0.2606
G01 X-0.9779 Y-0.2889
G01 X-0.9841 Y-0.3126
G01 X-1.0032 Y-0.3888
G01 X-1.0089 Y-0.4127
G01 X-1.0139 Y-0.4367
G01 X-1.0194 Y-0.4656
G01 X-1.0233 Y-0.4899
G01 X-1.0348 Y-0.5675
G01 X-1.0381 Y-0.5918
G01 X-1.0408 Y-0.6162
G01 X-1.0434 Y-0.6456
G01 X-1.0449 Y-0.6701
G01 X-1.0488 Y-0.7485
G01 X-1.0497 Y-0.7742
G00 X-1.0497 Y-0.7742
G01 F60.00
G01 Z-1.0000
G01 F120.00
G01 X-1.0500 Y-0.8000
G01 X-1.0500 Y-5.7000
G01 X-1.0497 Y-5.7270
G01 X-1.0488 Y-5.7515
G01 X-1.0449 Y-5.8299
G01 X-1.0434 Y-5.8544
G01 X-1.0408 Y-5.8838
G01 X-1.0381 Y-5.9082
G01 X-1.0348 Y-5.9325
G01 X-1.0233 Y-6.0101
G01 X-1.0194 Y-6.0344
G01 X-1.0149 Y-6.0585
G01 X-1.0089 Y-6.0873
G01 X-0.9841 Y-6.1874
G01 X-0.9779 Y-6.2111
G01 X-0.9710 Y-6.2347
G01 X-0.9622 Y-6.2628
G01 X-0.9542 Y-6.2860
G01 X-0.9192 Y-6.3829
G01 X-0.9101 Y-6.4057
G01 X-0.8985 Y-6.4328
G01 X-0.8547 Y-6.5261
G01 X-0.8440 Y-6.5481
G01 X-0.8327 Y-6.5699
G01 X-0.8185 Y-6.5957
G01 X-0.7658 Y-6.6843
G01 X-0.7529 Y-6.7052
G01 X-0.7396 Y-6.7257
G01 X-0.7229 Y-6.7501
G01 X-0.7086 Y-6.7700
G01 X-0.6469 Y-6.8525
G01 X-0.6316 Y-6.8717
G01 X-0.6127 Y-6.8943
G01 X-0.5437 Y-6.9708
G01 X-0.5270 Y-6.9888
G01 X-0.5099 Y-7.0064
G01 X-0.4888 Y-7.0270
G01 X-0.4127 Y-7.0964
G01 X-0.3943 Y-7.1127
G01 X-0.3755 Y-7.1285
G01 X-0.3525 Y-7.1469
G01 X-0.3330 Y-7.1618
G01 X-0.2501 Y-7.2229
G01 X-0.2298 Y-7.2368
G01 X-0.2052 Y-7.2529
G01 X-0.1169 Y-7.3062
G01 X-0.0957 Y-7.3185
G01 X-0.0742 Y-7.3304
G01 X-0.0481 Y-7.3440
G01 X0.0449 Y-7.3883
G01 X0.0672 Y-7.3985
G01 X0.0898 Y-7.4082
G01 X0.1171 Y-7.4192
G01 X0.1401 Y-7.4277
G01 X0.2372 Y-7.4622
G01 X0.2606 Y-7.4696
G01 X0.2889 Y-7.4779
G01 X0.3888 Y-7.5032
G01 X0.4127 Y-7.5089
G01 X0.4367 Y-7.5139
G01 X0.4656 Y-7.5194
G01 X0.4899 Y-7.5233
G01 X0.5675 Y-7.5348
G01 X0.5918 Y-7.5381
G01 X0.6211 Y-7.5413
G01 X0.6456 Y-7.5434
G01 X0.6701 Y-7.5449
G01 X0.7485 Y-7.5488
G01 X0.7755 Y-7.5497
G01 X0.8000 Y-7.5500
G01 X31.7000 Y-7.5500
G01 X31.7270 Y-7.5497
G01 X31.7515 Y-7.5488
G01 X31.8544 Y-7.5434
G01 X31.8789 Y-7.5413
G01 X31.9082 Y-7.5381
G01 X32.0101 Y-7.5233
G01 X32.0344 Y-7.5194
G01 X32.0633 Y-7.5139
G01 X32.0873 Y-7.5089
G01 X32.1112 Y-7.5032
G01 X32.1874 Y-7.4841
G01 X32.2111 Y-7.4779
G01 X32.2347 Y-7.4710
G01 X32.2628 Y-7.4622
G01 X32.2860 Y-7.4542
G01 X32.3829 Y-7.4192
G01 X32.4057 Y-7.4101
G01 X32.4328 Y-7.3985
G01 X32.5261 Y-7.3547
G01 X32.5481 Y-7.3440
G01 X32.5699 Y-7.3327
G01 X32.5957 Y-7.3185
G01 X32.6843 Y-7.2658
G01 X32.7052 Y-7.2529
G01 X32.7257 Y-7.2396
G01 X32.7501 Y-7.2229
G01 X32.7700 Y-7.2086
G01 X32.8525 Y-7.1469
G01 X32.8717 Y-7.1316
G01 X32.8943 Y-7.1127
G01 X32.9708 Y-7.0437
G01 X32.9888 Y-7.0270
G01 X33.0099 Y-7.0064
G01 X33.0270 Y-6.9888
G01 X33.0437 Y-6.9708
G01 X33.0964 Y-6.9127
G01 X33.1127 Y-6.8943
G01 X33.1285 Y-6.8755
G01 X33.1469 Y-6.8525
G01 X33.1618 Y-6.8330
G01 X33.2086 Y-6.7700
G01 X33.2229 Y-6.7501
G01 X33.2368 Y-6.7298
G01 X33.2529 Y-6.7052
G01 X33.2658 Y-6.6843
G01 X33.3185 Y-6.5957
G01 X33.3304 Y-6.5742
G01 X33.3440 Y-6.5481
G01 X33.3883 Y-6.4551
G01 X33.3985 Y-6.4328
G01 X33.4082 Y-6.4102
G01 X33.4192 Y-6.3829
G01 X33.4542 Y-6.2860
G01 X33.4622 Y-6.2628
G01 X33.4696 Y-6.2394
G01 X33.4779 Y-6.2111
G01 X33.5032 Y-6.1112
G01 X33.5089 Y-6.0873
G01 X33.5139 Y-6.0633
G01 X33.5194 Y-6.0344
G01 X33.5233 Y-6.0101
G01 X33.5348 Y-5.9325
G01 X33.5381 Y-5.9082
G01 X33.5413 Y-5.8789
G01 X33.5434 Y-5.8544
G01 X33.5449 Y-5.8299
G01 X33.5488 Y-5.7515
G01 X33.5497 Y-5.7245
G01 X33.5500 Y-5.7000
G01 X33.5500 Y-0.8000
G01 X33.5497 Y-0.7730
G01 X33.5488 Y-0.7485
G01 X33.5449 Y-0.6701
G01 X33.5434 Y-0.6456
G01 X33.5408 Y-0.6162
G01 X33.5381 Y-0.5918
G01 X33.5348 Y-0.5675
G01 X33.5233 Y-0.4899
G01 X33.5194 Y-0.4656
G01 X33.5149 Y-0.4415
G01 X33.5089 Y-0.4127
G01 X33.4841 Y-0.3126
G01 X33.4779 Y-0.2889
G01 X33.4710 Y-0.2653
G01 X33.4622 Y-0.2372
G01 X33.4542 Y-0.2140
G01 X33.4192 Y-0.1171
G01 X33.4101 Y-0.0943
G01 X33.3985 Y-0.0672
G01 X33.3547 Y0.0261
G01 X33.3440 Y0.0481
G01 X33.3327 Y0.0699
G01 X33.3185 Y0.0957
G01 X33.2658 Y0.1843
G01 X33.2529 Y0.2052
G01 X33.2396 Y0.2257
G01 X33.2229 Y0.2501
G01 X33.2086 Y0.2700
G01 X33.1469 Y0.3525
G01 X33.1316 Y0.3717
G01 X33.1127 Y0.3943
G01 X33.0437 Y0.4708
G01 X33.0270 Y0.4888
G01 X33.0099 Y0.5064
G01 X32.9888 Y0.5270
G01 X32.9127 Y0.5964
G01 X32.8943 Y0.6127
G01 X32.8755 Y0.6285
G01 X32.8525 Y0.6469
G01 X32.8330 Y0.6618
G01 X32.7501 Y0.7229
G01 X32.7298 Y0.7368
G01 X32.7052 Y0.7529
G01 X32.6169 Y0.8062
G01 X32.5957 Y0.8185
G01 X32.5742 Y0.8304
G01 X32.5481 Y0.8440
G01 X32.4551 Y0.8883
G01 X32.4328 Y0.8985
G01 X32.4102 Y0.9082
G01 X32.3829 Y0.9192
G01 X32.3599 Y0.9277
G01 X32.2628 Y0.9622
G01 X32.2394 Y0.9696
G01 X32.2111 Y0.9779
G01 X32.1112 Y1.0032
G01 X32.0873 Y1.0089
G01 X32.0633 Y1.0139
G01 X32.0344 Y1.0194
G01 X32.0101 Y1.0233
G01 X31.9325 Y1.0348
G01 X31.9082 Y1.0381
G01 X31.8789 Y1.0413
G01 X31.8544 Y1.0434
G01 X31.8299 Y1.0449
G01 X31.7515 Y1.0488
G01 X31.7245 Y1.0497
G01 X31.7000 Y1.0500
G01 X0.8000 Y1.0500
G01 X0.7730 Y1.0497
G01 X0.7485 Y1.0488
G01 X0.6701 Y1.0449
G01 X0.6456 Y1.0434
G01 X0.6211 Y1.0413
G01 X0.5918 Y1.0381
G01 X0.4899 Y1.0233
G01 X0.4656 Y1.0194
G01 X0.4415 Y1.0149
G01 X0.4127 Y1.0089
G01 X0.3126 Y0.9841
G01 X0.2889 Y0.9779
G01 X0.2653 Y0.9710
G01 X0.2372 Y0.9622
G01 X0.1401 Y0.9277
G01 X0.1171 Y0.9192
G01 X0.0943 Y0.9101
G01 X0.0672 Y0.8985
G01 X0.0449 Y0.8883
G01 X-0.0481 Y0.8440
G01 X-0.0699 Y0.8327
G01 X-0.0957 Y0.8185
G01 X-0.1843 Y0.7658
G01 X-0.2052 Y0.7529
G01 X-0.2257 Y0.7396
G01 X-0.2501 Y0.7229
G01 X-0.3330 Y0.6618
G01 X-0.3525 Y0.6469
G01 X-0.3717 Y0.6316
G01 X-0.3943 Y0.6127
G01 X-0.4708 Y0.5437
G01 X-0.4888 Y0.5270
G01 X-0.5064 Y0.5099
G01 X-0.5270 Y0.4888
G01 X-0.5964 Y0.4127
G01 X-0.6127 Y0.3943
G01 X-0.6316 Y0.3717
G01 X-0.6469 Y0.3525
G01 X-0.6618 Y0.3330
G01 X-0.7086 Y0.2700
G01 X-0.7229 Y0.2501
G01 X-0.7396 Y0.2257
G01 X-0.7529 Y0.2052
G01 X-0.7658 Y0.1843
G01 X-0.8062 Y0.1169
G01 X-0.8185 Y0.0957
G01 X-0.8327 Y0.0699
G01 X-0.8440 Y0.0481
G01 X-0.8547 Y0.0261
G01 X-0.8883 Y-0.0449
G01 X-0.8985 Y-0.0672
G01 X-0.9101 Y-0.0943
G01 X-0.9192 Y-0.1171
G01 X-0.9277 Y-0.1401
G01 X-0.9542 Y-0.2140
G01 X-0.9622 Y-0.2372
G01 X-0.9696 Y-0.2606
G01 X-0.9779 Y-0.2889
G01 X-0.9841 Y-0.3126
G01 X-1.0032 Y-0.3888
G01 X-1.0089 Y-0.4127
G01 X-1.0139 Y-0.4367
G01 X-1.0194 Y-0.4656
G01 X-1.0233 Y-0.4899
G01 X-1.0348 Y-0.5675
G01 X-1.0381 Y-0.5918
G01 X-1.0408 Y-0.6162
G01 X-1.0434 Y-0.6456
G01 X-1.0449 Y-0.6701
G01 X-1.0488 Y-0.7485
G01 X-1.0497 Y-0.7742
G00 Z5.0000
M05
G00 Z5.0000
G00 Z30.00


