(G-CODE GENERATED BY FLATCAM v8.994 - www.flatcam.org - Version Date: 2020/11/7)

(Name: screen3_Ф2_низ.gbr_cutout_cnc)
(Type: G-code from Geometry)
(Units: MM)

(Created on Friday, 10 November 2023 at 14:53)

(This preprocessor is the default preprocessor used by FlatCAM.)
(It is made to work with MACH3 compatible motion controllers.)

(TOOL DIAMETER: 2.0 mm)
(Feedrate_XY: 300.0 mm/min)
(Feedrate_Z: 100.0 mm/min)
(Feedrate rapids 1500.0 mm/min)

(Z_Cut: -3.2 mm)
(DepthPerCut: 0.1 mm <=>32 passes)
(Z_Move: 2.0 mm)
(Z Start: None mm)
(Z End: 30.0 mm)
(X,Y End: 0.0000, 0.0000 mm)
(Steps per circle: 64)
(Preprocessor Geometry: default)

(X range:   -2.8500 ...   35.3500  mm)
(Y range:   -9.3500 ...    2.8500  mm)

(Spindle Speed: 2000.0 RPM)
G21
G90
G94

G01 F300.00

M5
G00 Z30.0000
G00 X0.0000 Y0.0000
T1
M6    
(MSG, Change to Tool Dia = 2.0000)
M0
G00 Z30.0000

M03 S2000.0
G01 F300.00
G00 X-2.8272 Y-0.4000
G01 F100.00
G01 Z-0.1000
G01 F300.00
G01 X-2.8153 Y-0.3034
G01 X-2.8038 Y-0.2257
G01 X-2.7794 Y-0.0855
G01 X-2.7492 Y0.0486
G01 X-2.7302 Y0.1247
G01 X-2.6935 Y0.2572
G01 X-2.6490 Y0.3924
G01 X-2.6225 Y0.4663
G01 X-2.5731 Y0.5945
G01 X-2.5155 Y0.7247
G01 X-2.4819 Y0.7957
G01 X-2.4178 Y0.9227
G01 X-2.3501 Y1.0423
G01 X-2.3097 Y1.1097
G01 X-2.2362 Y1.2258
G01 X-2.1543 Y1.3422
G01 X-2.1076 Y1.4053
G01 X-2.0199 Y1.5174
G01 X-1.9301 Y1.6215
G01 X-1.8774 Y1.6796
G01 X-1.7792 Y1.7827
G01 X-1.6796 Y1.8774
G01 X-1.6215 Y1.9301
G01 X-1.5136 Y2.0230
G01 X-1.4053 Y2.1076
G01 X-1.3422 Y2.1543
G01 X-1.2299 Y2.2335
G01 X-1.1097 Y2.3097
G01 X-1.0423 Y2.3501
G01 X-0.9227 Y2.4178
G01 X-0.7957 Y2.4819
G01 X-0.7247 Y2.5155
G01 X-0.5945 Y2.5731
G01 X-0.4663 Y2.6225
G01 X-0.3924 Y2.6490
G01 X-0.2619 Y2.6921
G01 X-0.1247 Y2.7302
G01 X-0.0486 Y2.7492
G01 X0.0903 Y2.7803
G01 X0.2257 Y2.8038
G01 X0.3034 Y2.8153
G01 X0.4447 Y2.8326
G01 X0.5817 Y2.8427
G01 X0.6602 Y2.8466
G01 X0.7288 Y2.8491
G01 X0.8000 Y2.8500
G01 X31.7000 Y2.8500
G01 X31.7687 Y2.8492
G01 X31.8398 Y2.8466
G01 X31.9183 Y2.8427
G01 X32.0553 Y2.8326
G01 X32.1966 Y2.8153
G01 X32.2743 Y2.8038
G01 X32.4097 Y2.7803
G01 X32.5486 Y2.7492
G01 X32.6247 Y2.7302
G01 X32.7572 Y2.6935
G01 X32.8924 Y2.6490
G01 X32.9663 Y2.6225
G01 X33.0990 Y2.5712
G01 X33.2247 Y2.5155
G01 X33.2957 Y2.4819
G01 X33.4184 Y2.4201
G01 X33.5423 Y2.3501
G01 X33.6097 Y2.3097
G01 X33.7258 Y2.2362
G01 X33.8422 Y2.1543
G01 X33.9053 Y2.1076
G01 X34.0136 Y2.0230
G01 X34.1215 Y1.9301
G01 X34.1796 Y1.8774
G01 X34.2827 Y1.7792
G01 X34.3774 Y1.6796
G01 X34.4301 Y1.6215
G01 X34.5230 Y1.5136
G01 X34.6076 Y1.4053
G01 X34.6543 Y1.3422
G01 X34.7362 Y1.2258
G01 X34.8097 Y1.1097
G01 X34.8501 Y1.0423
G01 X34.9201 Y0.9184
G01 X34.9819 Y0.7957
G01 X35.0155 Y0.7247
G01 X35.0731 Y0.5945
G01 X35.1225 Y0.4663
G01 X35.1490 Y0.3924
G01 X35.1921 Y0.2619
G01 X35.2302 Y0.1247
G01 X35.2492 Y0.0486
G01 X35.2794 Y-0.0855
G01 X35.3038 Y-0.2257
G01 X35.3153 Y-0.3034
G01 X35.3272 Y-0.4000
G00 X35.3272 Y-0.4000
G01 F100.00
G01 Z-0.2000
G01 F300.00
G01 X35.3153 Y-0.3034
G01 X35.3038 Y-0.2257
G01 X35.2794 Y-0.0855
G01 X35.2492 Y0.0486
G01 X35.2302 Y0.1247
G01 X35.1921 Y0.2619
G01 X35.1490 Y0.3924
G01 X35.1225 Y0.4663
G01 X35.0731 Y0.5945
G01 X35.0155 Y0.7247
G01 X34.9819 Y0.7957
G01 X34.9201 Y0.9184
G01 X34.8501 Y1.0423
G01 X34.8097 Y1.1097
G01 X34.7362 Y1.2258
G01 X34.6543 Y1.3422
G01 X34.6076 Y1.4053
G01 X34.5230 Y1.5136
G01 X34.4301 Y1.6215
G01 X34.3774 Y1.6796
G01 X34.2827 Y1.7792
G01 X34.1796 Y1.8774
G01 X34.1215 Y1.9301
G01 X34.0136 Y2.0230
G01 X33.9053 Y2.1076
G01 X33.8422 Y2.1543
G01 X33.7258 Y2.2362
G01 X33.6097 Y2.3097
G01 X33.5423 Y2.3501
G01 X33.4184 Y2.4201
G01 X33.2957 Y2.4819
G01 X33.2247 Y2.5155
G01 X33.0990 Y2.5712
G01 X32.9663 Y2.6225
G01 X32.8924 Y2.6490
G01 X32.7572 Y2.6935
G01 X32.6247 Y2.7302
G01 X32.5486 Y2.7492
G01 X32.4097 Y2.7803
G01 X32.2743 Y2.8038
G01 X32.1966 Y2.8153
G01 X32.0553 Y2.8326
G01 X31.9183 Y2.8427
G01 X31.8398 Y2.8466
G01 X31.7687 Y2.8492
G01 X31.7000 Y2.8500
G01 X0.8000 Y2.8500
G01 X0.7288 Y2.8491
G01 X0.6602 Y2.8466
G01 X0.5817 Y2.8427
G01 X0.4447 Y2.8326
G01 X0.3034 Y2.8153
G01 X0.2257 Y2.8038
G01 X0.0903 Y2.7803
G01 X-0.0486 Y2.7492
G01 X-0.1247 Y2.7302
G01 X-0.2619 Y2.6921
G01 X-0.3924 Y2.6490
G01 X-0.4663 Y2.6225
G01 X-0.5945 Y2.5731
G01 X-0.7247 Y2.5155
G01 X-0.7957 Y2.4819
G01 X-0.9227 Y2.4178
G01 X-1.0423 Y2.3501
G01 X-1.1097 Y2.3097
G01 X-1.2299 Y2.2335
G01 X-1.3422 Y2.1543
G01 X-1.4053 Y2.1076
G01 X-1.5136 Y2.0230
G01 X-1.6215 Y1.9301
G01 X-1.6796 Y1.8774
G01 X-1.7792 Y1.7827
G01 X-1.8774 Y1.6796
G01 X-1.9301 Y1.6215
G01 X-2.0199 Y1.5174
G01 X-2.1076 Y1.4053
G01 X-2.1543 Y1.3422
G01 X-2.2362 Y1.2258
G01 X-2.3097 Y1.1097
G01 X-2.3501 Y1.0423
G01 X-2.4178 Y0.9227
G01 X-2.4819 Y0.7957
G01 X-2.5155 Y0.7247
G01 X-2.5731 Y0.5945
G01 X-2.6225 Y0.4663
G01 X-2.6490 Y0.3924
G01 X-2.6935 Y0.2572
G01 X-2.7302 Y0.1247
G01 X-2.7492 Y0.0486
G01 X-2.7794 Y-0.0855
G01 X-2.8038 Y-0.2257
G01 X-2.8153 Y-0.3034
G01 X-2.8272 Y-0.4000
G00 X-2.8272 Y-0.4000
G01 F100.00
G01 Z-0.3000
G01 F300.00
G01 X-2.8153 Y-0.3034
G01 X-2.8038 Y-0.2257
G01 X-2.7794 Y-0.0855
G01 X-2.7492 Y0.0486
G01 X-2.7302 Y0.1247
G01 X-2.6935 Y0.2572
G01 X-2.6490 Y0.3924
G01 X-2.6225 Y0.4663
G01 X-2.5731 Y0.5945
G01 X-2.5155 Y0.7247
G01 X-2.4819 Y0.7957
G01 X-2.4178 Y0.9227
G01 X-2.3501 Y1.0423
G01 X-2.3097 Y1.1097
G01 X-2.2362 Y1.2258
G01 X-2.1543 Y1.3422
G01 X-2.1076 Y1.4053
G01 X-2.0199 Y1.5174
G01 X-1.9301 Y1.6215
G01 X-1.8774 Y1.6796
G01 X-1.7792 Y1.7827
G01 X-1.6796 Y1.8774
G01 X-1.6215 Y1.9301
G01 X-1.5136 Y2.0230
G01 X-1.4053 Y2.1076
G01 X-1.3422 Y2.1543
G01 X-1.2299 Y2.2335
G01 X-1.1097 Y2.3097
G01 X-1.0423 Y2.3501
G01 X-0.9227 Y2.4178
G01 X-0.7957 Y2.4819
G01 X-0.7247 Y2.5155
G01 X-0.5945 Y2.5731
G01 X-0.4663 Y2.6225
G01 X-0.3924 Y2.6490
G01 X-0.2619 Y2.6921
G01 X-0.1247 Y2.7302
G01 X-0.0486 Y2.7492
G01 X0.0903 Y2.7803
G01 X0.2257 Y2.8038
G01 X0.3034 Y2.8153
G01 X0.4447 Y2.8326
G01 X0.5817 Y2.8427
G01 X0.6602 Y2.8466
G01 X0.7288 Y2.8491
G01 X0.8000 Y2.8500
G01 X31.7000 Y2.8500
G01 X31.7687 Y2.8492
G01 X31.8398 Y2.8466
G01 X31.9183 Y2.8427
G01 X32.0553 Y2.8326
G01 X32.1966 Y2.8153
G01 X32.2743 Y2.8038
G01 X32.4097 Y2.7803
G01 X32.5486 Y2.7492
G01 X32.6247 Y2.7302
G01 X32.7572 Y2.6935
G01 X32.8924 Y2.6490
G01 X32.9663 Y2.6225
G01 X33.0990 Y2.5712
G01 X33.2247 Y2.5155
G01 X33.2957 Y2.4819
G01 X33.4184 Y2.4201
G01 X33.5423 Y2.3501
G01 X33.6097 Y2.3097
G01 X33.7258 Y2.2362
G01 X33.8422 Y2.1543
G01 X33.9053 Y2.1076
G01 X34.0136 Y2.0230
G01 X34.1215 Y1.9301
G01 X34.1796 Y1.8774
G01 X34.2827 Y1.7792
G01 X34.3774 Y1.6796
G01 X34.4301 Y1.6215
G01 X34.5230 Y1.5136
G01 X34.6076 Y1.4053
G01 X34.6543 Y1.3422
G01 X34.7362 Y1.2258
G01 X34.8097 Y1.1097
G01 X34.8501 Y1.0423
G01 X34.9201 Y0.9184
G01 X34.9819 Y0.7957
G01 X35.0155 Y0.7247
G01 X35.0731 Y0.5945
G01 X35.1225 Y0.4663
G01 X35.1490 Y0.3924
G01 X35.1921 Y0.2619
G01 X35.2302 Y0.1247
G01 X35.2492 Y0.0486
G01 X35.2794 Y-0.0855
G01 X35.3038 Y-0.2257
G01 X35.3153 Y-0.3034
G01 X35.3272 Y-0.4000
G00 X35.3272 Y-0.4000
G01 F100.00
G01 Z-0.4000
G01 F300.00
G01 X35.3153 Y-0.3034
G01 X35.3038 Y-0.2257
G01 X35.2794 Y-0.0855
G01 X35.2492 Y0.0486
G01 X35.2302 Y0.1247
G01 X35.1921 Y0.2619
G01 X35.1490 Y0.3924
G01 X35.1225 Y0.4663
G01 X35.0731 Y0.5945
G01 X35.0155 Y0.7247
G01 X34.9819 Y0.7957
G01 X34.9201 Y0.9184
G01 X34.8501 Y1.0423
G01 X34.8097 Y1.1097
G01 X34.7362 Y1.2258
G01 X34.6543 Y1.3422
G01 X34.6076 Y1.4053
G01 X34.5230 Y1.5136
G01 X34.4301 Y1.6215
G01 X34.3774 Y1.6796
G01 X34.2827 Y1.7792
G01 X34.1796 Y1.8774
G01 X34.1215 Y1.9301
G01 X34.0136 Y2.0230
G01 X33.9053 Y2.1076
G01 X33.8422 Y2.1543
G01 X33.7258 Y2.2362
G01 X33.6097 Y2.3097
G01 X33.5423 Y2.3501
G01 X33.4184 Y2.4201
G01 X33.2957 Y2.4819
G01 X33.2247 Y2.5155
G01 X33.0990 Y2.5712
G01 X32.9663 Y2.6225
G01 X32.8924 Y2.6490
G01 X32.7572 Y2.6935
G01 X32.6247 Y2.7302
G01 X32.5486 Y2.7492
G01 X32.4097 Y2.7803
G01 X32.2743 Y2.8038
G01 X32.1966 Y2.8153
G01 X32.0553 Y2.8326
G01 X31.9183 Y2.8427
G01 X31.8398 Y2.8466
G01 X31.7687 Y2.8492
G01 X31.7000 Y2.8500
G01 X0.8000 Y2.8500
G01 X0.7288 Y2.8491
G01 X0.6602 Y2.8466
G01 X0.5817 Y2.8427
G01 X0.4447 Y2.8326
G01 X0.3034 Y2.8153
G01 X0.2257 Y2.8038
G01 X0.0903 Y2.7803
G01 X-0.0486 Y2.7492
G01 X-0.1247 Y2.7302
G01 X-0.2619 Y2.6921
G01 X-0.3924 Y2.6490
G01 X-0.4663 Y2.6225
G01 X-0.5945 Y2.5731
G01 X-0.7247 Y2.5155
G01 X-0.7957 Y2.4819
G01 X-0.9227 Y2.4178
G01 X-1.0423 Y2.3501
G01 X-1.1097 Y2.3097
G01 X-1.2299 Y2.2335
G01 X-1.3422 Y2.1543
G01 X-1.4053 Y2.1076
G01 X-1.5136 Y2.0230
G01 X-1.6215 Y1.9301
G01 X-1.6796 Y1.8774
G01 X-1.7792 Y1.7827
G01 X-1.8774 Y1.6796
G01 X-1.9301 Y1.6215
G01 X-2.0199 Y1.5174
G01 X-2.1076 Y1.4053
G01 X-2.1543 Y1.3422
G01 X-2.2362 Y1.2258
G01 X-2.3097 Y1.1097
G01 X-2.3501 Y1.0423
G01 X-2.4178 Y0.9227
G01 X-2.4819 Y0.7957
G01 X-2.5155 Y0.7247
G01 X-2.5731 Y0.5945
G01 X-2.6225 Y0.4663
G01 X-2.6490 Y0.3924
G01 X-2.6935 Y0.2572
G01 X-2.7302 Y0.1247
G01 X-2.7492 Y0.0486
G01 X-2.7794 Y-0.0855
G01 X-2.8038 Y-0.2257
G01 X-2.8153 Y-0.3034
G01 X-2.8272 Y-0.4000
G00 X-2.8272 Y-0.4000
G01 F100.00
G01 Z-0.5000
G01 F300.00
G01 X-2.8153 Y-0.3034
G01 X-2.8038 Y-0.2257
G01 X-2.7794 Y-0.0855
G01 X-2.7492 Y0.0486
G01 X-2.7302 Y0.1247
G01 X-2.6935 Y0.2572
G01 X-2.6490 Y0.3924
G01 X-2.6225 Y0.4663
G01 X-2.5731 Y0.5945
G01 X-2.5155 Y0.7247
G01 X-2.4819 Y0.7957
G01 X-2.4178 Y0.9227
G01 X-2.3501 Y1.0423
G01 X-2.3097 Y1.1097
G01 X-2.2362 Y1.2258
G01 X-2.1543 Y1.3422
G01 X-2.1076 Y1.4053
G01 X-2.0199 Y1.5174
G01 X-1.9301 Y1.6215
G01 X-1.8774 Y1.6796
G01 X-1.7792 Y1.7827
G01 X-1.6796 Y1.8774
G01 X-1.6215 Y1.9301
G01 X-1.5136 Y2.0230
G01 X-1.4053 Y2.1076
G01 X-1.3422 Y2.1543
G01 X-1.2299 Y2.2335
G01 X-1.1097 Y2.3097
G01 X-1.0423 Y2.3501
G01 X-0.9227 Y2.4178
G01 X-0.7957 Y2.4819
G01 X-0.7247 Y2.5155
G01 X-0.5945 Y2.5731
G01 X-0.4663 Y2.6225
G01 X-0.3924 Y2.6490
G01 X-0.2619 Y2.6921
G01 X-0.1247 Y2.7302
G01 X-0.0486 Y2.7492
G01 X0.0903 Y2.7803
G01 X0.2257 Y2.8038
G01 X0.3034 Y2.8153
G01 X0.4447 Y2.8326
G01 X0.5817 Y2.8427
G01 X0.6602 Y2.8466
G01 X0.7288 Y2.8491
G01 X0.8000 Y2.8500
G01 X31.7000 Y2.8500
G01 X31.7687 Y2.8492
G01 X31.8398 Y2.8466
G01 X31.9183 Y2.8427
G01 X32.0553 Y2.8326
G01 X32.1966 Y2.8153
G01 X32.2743 Y2.8038
G01 X32.4097 Y2.7803
G01 X32.5486 Y2.7492
G01 X32.6247 Y2.7302
G01 X32.7572 Y2.6935
G01 X32.8924 Y2.6490
G01 X32.9663 Y2.6225
G01 X33.0990 Y2.5712
G01 X33.2247 Y2.5155
G01 X33.2957 Y2.4819
G01 X33.4184 Y2.4201
G01 X33.5423 Y2.3501
G01 X33.6097 Y2.3097
G01 X33.7258 Y2.2362
G01 X33.8422 Y2.1543
G01 X33.9053 Y2.1076
G01 X34.0136 Y2.0230
G01 X34.1215 Y1.9301
G01 X34.1796 Y1.8774
G01 X34.2827 Y1.7792
G01 X34.3774 Y1.6796
G01 X34.4301 Y1.6215
G01 X34.5230 Y1.5136
G01 X34.6076 Y1.4053
G01 X34.6543 Y1.3422
G01 X34.7362 Y1.2258
G01 X34.8097 Y1.1097
G01 X34.8501 Y1.0423
G01 X34.9201 Y0.9184
G01 X34.9819 Y0.7957
G01 X35.0155 Y0.7247
G01 X35.0731 Y0.5945
G01 X35.1225 Y0.4663
G01 X35.1490 Y0.3924
G01 X35.1921 Y0.2619
G01 X35.2302 Y0.1247
G01 X35.2492 Y0.0486
G01 X35.2794 Y-0.0855
G01 X35.3038 Y-0.2257
G01 X35.3153 Y-0.3034
G01 X35.3272 Y-0.4000
G00 X35.3272 Y-0.4000
G01 F100.00
G01 Z-0.6000
G01 F300.00
G01 X35.3153 Y-0.3034
G01 X35.3038 Y-0.2257
G01 X35.2794 Y-0.0855
G01 X35.2492 Y0.0486
G01 X35.2302 Y0.1247
G01 X35.1921 Y0.2619
G01 X35.1490 Y0.3924
G01 X35.1225 Y0.4663
G01 X35.0731 Y0.5945
G01 X35.0155 Y0.7247
G01 X34.9819 Y0.7957
G01 X34.9201 Y0.9184
G01 X34.8501 Y1.0423
G01 X34.8097 Y1.1097
G01 X34.7362 Y1.2258
G01 X34.6543 Y1.3422
G01 X34.6076 Y1.4053
G01 X34.5230 Y1.5136
G01 X34.4301 Y1.6215
G01 X34.3774 Y1.6796
G01 X34.2827 Y1.7792
G01 X34.1796 Y1.8774
G01 X34.1215 Y1.9301
G01 X34.0136 Y2.0230
G01 X33.9053 Y2.1076
G01 X33.8422 Y2.1543
G01 X33.7258 Y2.2362
G01 X33.6097 Y2.3097
G01 X33.5423 Y2.3501
G01 X33.4184 Y2.4201
G01 X33.2957 Y2.4819
G01 X33.2247 Y2.5155
G01 X33.0990 Y2.5712
G01 X32.9663 Y2.6225
G01 X32.8924 Y2.6490
G01 X32.7572 Y2.6935
G01 X32.6247 Y2.7302
G01 X32.5486 Y2.7492
G01 X32.4097 Y2.7803
G01 X32.2743 Y2.8038
G01 X32.1966 Y2.8153
G01 X32.0553 Y2.8326
G01 X31.9183 Y2.8427
G01 X31.8398 Y2.8466
G01 X31.7687 Y2.8492
G01 X31.7000 Y2.8500
G01 X0.8000 Y2.8500
G01 X0.7288 Y2.8491
G01 X0.6602 Y2.8466
G01 X0.5817 Y2.8427
G01 X0.4447 Y2.8326
G01 X0.3034 Y2.8153
G01 X0.2257 Y2.8038
G01 X0.0903 Y2.7803
G01 X-0.0486 Y2.7492
G01 X-0.1247 Y2.7302
G01 X-0.2619 Y2.6921
G01 X-0.3924 Y2.6490
G01 X-0.4663 Y2.6225
G01 X-0.5945 Y2.5731
G01 X-0.7247 Y2.5155
G01 X-0.7957 Y2.4819
G01 X-0.9227 Y2.4178
G01 X-1.0423 Y2.3501
G01 X-1.1097 Y2.3097
G01 X-1.2299 Y2.2335
G01 X-1.3422 Y2.1543
G01 X-1.4053 Y2.1076
G01 X-1.5136 Y2.0230
G01 X-1.6215 Y1.9301
G01 X-1.6796 Y1.8774
G01 X-1.7792 Y1.7827
G01 X-1.8774 Y1.6796
G01 X-1.9301 Y1.6215
G01 X-2.0199 Y1.5174
G01 X-2.1076 Y1.4053
G01 X-2.1543 Y1.3422
G01 X-2.2362 Y1.2258
G01 X-2.3097 Y1.1097
G01 X-2.3501 Y1.0423
G01 X-2.4178 Y0.9227
G01 X-2.4819 Y0.7957
G01 X-2.5155 Y0.7247
G01 X-2.5731 Y0.5945
G01 X-2.6225 Y0.4663
G01 X-2.6490 Y0.3924
G01 X-2.6935 Y0.2572
G01 X-2.7302 Y0.1247
G01 X-2.7492 Y0.0486
G01 X-2.7794 Y-0.0855
G01 X-2.8038 Y-0.2257
G01 X-2.8153 Y-0.3034
G01 X-2.8272 Y-0.4000
G00 X-2.8272 Y-0.4000
G01 F100.00
G01 Z-0.7000
G01 F300.00
G01 X-2.8153 Y-0.3034
G01 X-2.8038 Y-0.2257
G01 X-2.7794 Y-0.0855
G01 X-2.7492 Y0.0486
G01 X-2.7302 Y0.1247
G01 X-2.6935 Y0.2572
G01 X-2.6490 Y0.3924
G01 X-2.6225 Y0.4663
G01 X-2.5731 Y0.5945
G01 X-2.5155 Y0.7247
G01 X-2.4819 Y0.7957
G01 X-2.4178 Y0.9227
G01 X-2.3501 Y1.0423
G01 X-2.3097 Y1.1097
G01 X-2.2362 Y1.2258
G01 X-2.1543 Y1.3422
G01 X-2.1076 Y1.4053
G01 X-2.0199 Y1.5174
G01 X-1.9301 Y1.6215
G01 X-1.8774 Y1.6796
G01 X-1.7792 Y1.7827
G01 X-1.6796 Y1.8774
G01 X-1.6215 Y1.9301
G01 X-1.5136 Y2.0230
G01 X-1.4053 Y2.1076
G01 X-1.3422 Y2.1543
G01 X-1.2299 Y2.2335
G01 X-1.1097 Y2.3097
G01 X-1.0423 Y2.3501
G01 X-0.9227 Y2.4178
G01 X-0.7957 Y2.4819
G01 X-0.7247 Y2.5155
G01 X-0.5945 Y2.5731
G01 X-0.4663 Y2.6225
G01 X-0.3924 Y2.6490
G01 X-0.2619 Y2.6921
G01 X-0.1247 Y2.7302
G01 X-0.0486 Y2.7492
G01 X0.0903 Y2.7803
G01 X0.2257 Y2.8038
G01 X0.3034 Y2.8153
G01 X0.4447 Y2.8326
G01 X0.5817 Y2.8427
G01 X0.6602 Y2.8466
G01 X0.7288 Y2.8491
G01 X0.8000 Y2.8500
G01 X31.7000 Y2.8500
G01 X31.7687 Y2.8492
G01 X31.8398 Y2.8466
G01 X31.9183 Y2.8427
G01 X32.0553 Y2.8326
G01 X32.1966 Y2.8153
G01 X32.2743 Y2.8038
G01 X32.4097 Y2.7803
G01 X32.5486 Y2.7492
G01 X32.6247 Y2.7302
G01 X32.7572 Y2.6935
G01 X32.8924 Y2.6490
G01 X32.9663 Y2.6225
G01 X33.0990 Y2.5712
G01 X33.2247 Y2.5155
G01 X33.2957 Y2.4819
G01 X33.4184 Y2.4201
G01 X33.5423 Y2.3501
G01 X33.6097 Y2.3097
G01 X33.7258 Y2.2362
G01 X33.8422 Y2.1543
G01 X33.9053 Y2.1076
G01 X34.0136 Y2.0230
G01 X34.1215 Y1.9301
G01 X34.1796 Y1.8774
G01 X34.2827 Y1.7792
G01 X34.3774 Y1.6796
G01 X34.4301 Y1.6215
G01 X34.5230 Y1.5136
G01 X34.6076 Y1.4053
G01 X34.6543 Y1.3422
G01 X34.7362 Y1.2258
G01 X34.8097 Y1.1097
G01 X34.8501 Y1.0423
G01 X34.9201 Y0.9184
G01 X34.9819 Y0.7957
G01 X35.0155 Y0.7247
G01 X35.0731 Y0.5945
G01 X35.1225 Y0.4663
G01 X35.1490 Y0.3924
G01 X35.1921 Y0.2619
G01 X35.2302 Y0.1247
G01 X35.2492 Y0.0486
G01 X35.2794 Y-0.0855
G01 X35.3038 Y-0.2257
G01 X35.3153 Y-0.3034
G01 X35.3272 Y-0.4000
G00 X35.3272 Y-0.4000
G01 F100.00
G01 Z-0.8000
G01 F300.00
G01 X35.3153 Y-0.3034
G01 X35.3038 Y-0.2257
G01 X35.2794 Y-0.0855
G01 X35.2492 Y0.0486
G01 X35.2302 Y0.1247
G01 X35.1921 Y0.2619
G01 X35.1490 Y0.3924
G01 X35.1225 Y0.4663
G01 X35.0731 Y0.5945
G01 X35.0155 Y0.7247
G01 X34.9819 Y0.7957
G01 X34.9201 Y0.9184
G01 X34.8501 Y1.0423
G01 X34.8097 Y1.1097
G01 X34.7362 Y1.2258
G01 X34.6543 Y1.3422
G01 X34.6076 Y1.4053
G01 X34.5230 Y1.5136
G01 X34.4301 Y1.6215
G01 X34.3774 Y1.6796
G01 X34.2827 Y1.7792
G01 X34.1796 Y1.8774
G01 X34.1215 Y1.9301
G01 X34.0136 Y2.0230
G01 X33.9053 Y2.1076
G01 X33.8422 Y2.1543
G01 X33.7258 Y2.2362
G01 X33.6097 Y2.3097
G01 X33.5423 Y2.3501
G01 X33.4184 Y2.4201
G01 X33.2957 Y2.4819
G01 X33.2247 Y2.5155
G01 X33.0990 Y2.5712
G01 X32.9663 Y2.6225
G01 X32.8924 Y2.6490
G01 X32.7572 Y2.6935
G01 X32.6247 Y2.7302
G01 X32.5486 Y2.7492
G01 X32.4097 Y2.7803
G01 X32.2743 Y2.8038
G01 X32.1966 Y2.8153
G01 X32.0553 Y2.8326
G01 X31.9183 Y2.8427
G01 X31.8398 Y2.8466
G01 X31.7687 Y2.8492
G01 X31.7000 Y2.8500
G01 X0.8000 Y2.8500
G01 X0.7288 Y2.8491
G01 X0.6602 Y2.8466
G01 X0.5817 Y2.8427
G01 X0.4447 Y2.8326
G01 X0.3034 Y2.8153
G01 X0.2257 Y2.8038
G01 X0.0903 Y2.7803
G01 X-0.0486 Y2.7492
G01 X-0.1247 Y2.7302
G01 X-0.2619 Y2.6921
G01 X-0.3924 Y2.6490
G01 X-0.4663 Y2.6225
G01 X-0.5945 Y2.5731
G01 X-0.7247 Y2.5155
G01 X-0.7957 Y2.4819
G01 X-0.9227 Y2.4178
G01 X-1.0423 Y2.3501
G01 X-1.1097 Y2.3097
G01 X-1.2299 Y2.2335
G01 X-1.3422 Y2.1543
G01 X-1.4053 Y2.1076
G01 X-1.5136 Y2.0230
G01 X-1.6215 Y1.9301
G01 X-1.6796 Y1.8774
G01 X-1.7792 Y1.7827
G01 X-1.8774 Y1.6796
G01 X-1.9301 Y1.6215
G01 X-2.0199 Y1.5174
G01 X-2.1076 Y1.4053
G01 X-2.1543 Y1.3422
G01 X-2.2362 Y1.2258
G01 X-2.3097 Y1.1097
G01 X-2.3501 Y1.0423
G01 X-2.4178 Y0.9227
G01 X-2.4819 Y0.7957
G01 X-2.5155 Y0.7247
G01 X-2.5731 Y0.5945
G01 X-2.6225 Y0.4663
G01 X-2.6490 Y0.3924
G01 X-2.6935 Y0.2572
G01 X-2.7302 Y0.1247
G01 X-2.7492 Y0.0486
G01 X-2.7794 Y-0.0855
G01 X-2.8038 Y-0.2257
G01 X-2.8153 Y-0.3034
G01 X-2.8272 Y-0.4000
G00 X-2.8272 Y-0.4000
G01 F100.00
G01 Z-0.9000
G01 F300.00
G01 X-2.8153 Y-0.3034
G01 X-2.8038 Y-0.2257
G01 X-2.7794 Y-0.0855
G01 X-2.7492 Y0.0486
G01 X-2.7302 Y0.1247
G01 X-2.6935 Y0.2572
G01 X-2.6490 Y0.3924
G01 X-2.6225 Y0.4663
G01 X-2.5731 Y0.5945
G01 X-2.5155 Y0.7247
G01 X-2.4819 Y0.7957
G01 X-2.4178 Y0.9227
G01 X-2.3501 Y1.0423
G01 X-2.3097 Y1.1097
G01 X-2.2362 Y1.2258
G01 X-2.1543 Y1.3422
G01 X-2.1076 Y1.4053
G01 X-2.0199 Y1.5174
G01 X-1.9301 Y1.6215
G01 X-1.8774 Y1.6796
G01 X-1.7792 Y1.7827
G01 X-1.6796 Y1.8774
G01 X-1.6215 Y1.9301
G01 X-1.5136 Y2.0230
G01 X-1.4053 Y2.1076
G01 X-1.3422 Y2.1543
G01 X-1.2299 Y2.2335
G01 X-1.1097 Y2.3097
G01 X-1.0423 Y2.3501
G01 X-0.9227 Y2.4178
G01 X-0.7957 Y2.4819
G01 X-0.7247 Y2.5155
G01 X-0.5945 Y2.5731
G01 X-0.4663 Y2.6225
G01 X-0.3924 Y2.6490
G01 X-0.2619 Y2.6921
G01 X-0.1247 Y2.7302
G01 X-0.0486 Y2.7492
G01 X0.0903 Y2.7803
G01 X0.2257 Y2.8038
G01 X0.3034 Y2.8153
G01 X0.4447 Y2.8326
G01 X0.5817 Y2.8427
G01 X0.6602 Y2.8466
G01 X0.7288 Y2.8491
G01 X0.8000 Y2.8500
G01 X31.7000 Y2.8500
G01 X31.7687 Y2.8492
G01 X31.8398 Y2.8466
G01 X31.9183 Y2.8427
G01 X32.0553 Y2.8326
G01 X32.1966 Y2.8153
G01 X32.2743 Y2.8038
G01 X32.4097 Y2.7803
G01 X32.5486 Y2.7492
G01 X32.6247 Y2.7302
G01 X32.7572 Y2.6935
G01 X32.8924 Y2.6490
G01 X32.9663 Y2.6225
G01 X33.0990 Y2.5712
G01 X33.2247 Y2.5155
G01 X33.2957 Y2.4819
G01 X33.4184 Y2.4201
G01 X33.5423 Y2.3501
G01 X33.6097 Y2.3097
G01 X33.7258 Y2.2362
G01 X33.8422 Y2.1543
G01 X33.9053 Y2.1076
G01 X34.0136 Y2.0230
G01 X34.1215 Y1.9301
G01 X34.1796 Y1.8774
G01 X34.2827 Y1.7792
G01 X34.3774 Y1.6796
G01 X34.4301 Y1.6215
G01 X34.5230 Y1.5136
G01 X34.6076 Y1.4053
G01 X34.6543 Y1.3422
G01 X34.7362 Y1.2258
G01 X34.8097 Y1.1097
G01 X34.8501 Y1.0423
G01 X34.9201 Y0.9184
G01 X34.9819 Y0.7957
G01 X35.0155 Y0.7247
G01 X35.0731 Y0.5945
G01 X35.1225 Y0.4663
G01 X35.1490 Y0.3924
G01 X35.1921 Y0.2619
G01 X35.2302 Y0.1247
G01 X35.2492 Y0.0486
G01 X35.2794 Y-0.0855
G01 X35.3038 Y-0.2257
G01 X35.3153 Y-0.3034
G01 X35.3272 Y-0.4000
G00 X35.3272 Y-0.4000
G01 F100.00
G01 Z-1.0000
G01 F300.00
G01 X35.3153 Y-0.3034
G01 X35.3038 Y-0.2257
G01 X35.2794 Y-0.0855
G01 X35.2492 Y0.0486
G01 X35.2302 Y0.1247
G01 X35.1921 Y0.2619
G01 X35.1490 Y0.3924
G01 X35.1225 Y0.4663
G01 X35.0731 Y0.5945
G01 X35.0155 Y0.7247
G01 X34.9819 Y0.7957
G01 X34.9201 Y0.9184
G01 X34.8501 Y1.0423
G01 X34.8097 Y1.1097
G01 X34.7362 Y1.2258
G01 X34.6543 Y1.3422
G01 X34.6076 Y1.4053
G01 X34.5230 Y1.5136
G01 X34.4301 Y1.6215
G01 X34.3774 Y1.6796
G01 X34.2827 Y1.7792
G01 X34.1796 Y1.8774
G01 X34.1215 Y1.9301
G01 X34.0136 Y2.0230
G01 X33.9053 Y2.1076
G01 X33.8422 Y2.1543
G01 X33.7258 Y2.2362
G01 X33.6097 Y2.3097
G01 X33.5423 Y2.3501
G01 X33.4184 Y2.4201
G01 X33.2957 Y2.4819
G01 X33.2247 Y2.5155
G01 X33.0990 Y2.5712
G01 X32.9663 Y2.6225
G01 X32.8924 Y2.6490
G01 X32.7572 Y2.6935
G01 X32.6247 Y2.7302
G01 X32.5486 Y2.7492
G01 X32.4097 Y2.7803
G01 X32.2743 Y2.8038
G01 X32.1966 Y2.8153
G01 X32.0553 Y2.8326
G01 X31.9183 Y2.8427
G01 X31.8398 Y2.8466
G01 X31.7687 Y2.8492
G01 X31.7000 Y2.8500
G01 X0.8000 Y2.8500
G01 X0.7288 Y2.8491
G01 X0.6602 Y2.8466
G01 X0.5817 Y2.8427
G01 X0.4447 Y2.8326
G01 X0.3034 Y2.8153
G01 X0.2257 Y2.8038
G01 X0.0903 Y2.7803
G01 X-0.0486 Y2.7492
G01 X-0.1247 Y2.7302
G01 X-0.2619 Y2.6921
G01 X-0.3924 Y2.6490
G01 X-0.4663 Y2.6225
G01 X-0.5945 Y2.5731
G01 X-0.7247 Y2.5155
G01 X-0.7957 Y2.4819
G01 X-0.9227 Y2.4178
G01 X-1.0423 Y2.3501
G01 X-1.1097 Y2.3097
G01 X-1.2299 Y2.2335
G01 X-1.3422 Y2.1543
G01 X-1.4053 Y2.1076
G01 X-1.5136 Y2.0230
G01 X-1.6215 Y1.9301
G01 X-1.6796 Y1.8774
G01 X-1.7792 Y1.7827
G01 X-1.8774 Y1.6796
G01 X-1.9301 Y1.6215
G01 X-2.0199 Y1.5174
G01 X-2.1076 Y1.4053
G01 X-2.1543 Y1.3422
G01 X-2.2362 Y1.2258
G01 X-2.3097 Y1.1097
G01 X-2.3501 Y1.0423
G01 X-2.4178 Y0.9227
G01 X-2.4819 Y0.7957
G01 X-2.5155 Y0.7247
G01 X-2.5731 Y0.5945
G01 X-2.6225 Y0.4663
G01 X-2.6490 Y0.3924
G01 X-2.6935 Y0.2572
G01 X-2.7302 Y0.1247
G01 X-2.7492 Y0.0486
G01 X-2.7794 Y-0.0855
G01 X-2.8038 Y-0.2257
G01 X-2.8153 Y-0.3034
G01 X-2.8272 Y-0.4000
G00 X-2.8272 Y-0.4000
G01 F100.00
G01 Z-1.1000
G01 F300.00
G01 X-2.8153 Y-0.3034
G01 X-2.8038 Y-0.2257
G01 X-2.7794 Y-0.0855
G01 X-2.7492 Y0.0486
G01 X-2.7302 Y0.1247
G01 X-2.6935 Y0.2572
G01 X-2.6490 Y0.3924
G01 X-2.6225 Y0.4663
G01 X-2.5731 Y0.5945
G01 X-2.5155 Y0.7247
G01 X-2.4819 Y0.7957
G01 X-2.4178 Y0.9227
G01 X-2.3501 Y1.0423
G01 X-2.3097 Y1.1097
G01 X-2.2362 Y1.2258
G01 X-2.1543 Y1.3422
G01 X-2.1076 Y1.4053
G01 X-2.0199 Y1.5174
G01 X-1.9301 Y1.6215
G01 X-1.8774 Y1.6796
G01 X-1.7792 Y1.7827
G01 X-1.6796 Y1.8774
G01 X-1.6215 Y1.9301
G01 X-1.5136 Y2.0230
G01 X-1.4053 Y2.1076
G01 X-1.3422 Y2.1543
G01 X-1.2299 Y2.2335
G01 X-1.1097 Y2.3097
G01 X-1.0423 Y2.3501
G01 X-0.9227 Y2.4178
G01 X-0.7957 Y2.4819
G01 X-0.7247 Y2.5155
G01 X-0.5945 Y2.5731
G01 X-0.4663 Y2.6225
G01 X-0.3924 Y2.6490
G01 X-0.2619 Y2.6921
G01 X-0.1247 Y2.7302
G01 X-0.0486 Y2.7492
G01 X0.0903 Y2.7803
G01 X0.2257 Y2.8038
G01 X0.3034 Y2.8153
G01 X0.4447 Y2.8326
G01 X0.5817 Y2.8427
G01 X0.6602 Y2.8466
G01 X0.7288 Y2.8491
G01 X0.8000 Y2.8500
G01 X31.7000 Y2.8500
G01 X31.7687 Y2.8492
G01 X31.8398 Y2.8466
G01 X31.9183 Y2.8427
G01 X32.0553 Y2.8326
G01 X32.1966 Y2.8153
G01 X32.2743 Y2.8038
G01 X32.4097 Y2.7803
G01 X32.5486 Y2.7492
G01 X32.6247 Y2.7302
G01 X32.7572 Y2.6935
G01 X32.8924 Y2.6490
G01 X32.9663 Y2.6225
G01 X33.0990 Y2.5712
G01 X33.2247 Y2.5155
G01 X33.2957 Y2.4819
G01 X33.4184 Y2.4201
G01 X33.5423 Y2.3501
G01 X33.6097 Y2.3097
G01 X33.7258 Y2.2362
G01 X33.8422 Y2.1543
G01 X33.9053 Y2.1076
G01 X34.0136 Y2.0230
G01 X34.1215 Y1.9301
G01 X34.1796 Y1.8774
G01 X34.2827 Y1.7792
G01 X34.3774 Y1.6796
G01 X34.4301 Y1.6215
G01 X34.5230 Y1.5136
G01 X34.6076 Y1.4053
G01 X34.6543 Y1.3422
G01 X34.7362 Y1.2258
G01 X34.8097 Y1.1097
G01 X34.8501 Y1.0423
G01 X34.9201 Y0.9184
G01 X34.9819 Y0.7957
G01 X35.0155 Y0.7247
G01 X35.0731 Y0.5945
G01 X35.1225 Y0.4663
G01 X35.1490 Y0.3924
G01 X35.1921 Y0.2619
G01 X35.2302 Y0.1247
G01 X35.2492 Y0.0486
G01 X35.2794 Y-0.0855
G01 X35.3038 Y-0.2257
G01 X35.3153 Y-0.3034
G01 X35.3272 Y-0.4000
G00 X35.3272 Y-0.4000
G01 F100.00
G01 Z-1.2000
G01 F300.00
G01 X35.3153 Y-0.3034
G01 X35.3038 Y-0.2257
G01 X35.2794 Y-0.0855
G01 X35.2492 Y0.0486
G01 X35.2302 Y0.1247
G01 X35.1921 Y0.2619
G01 X35.1490 Y0.3924
G01 X35.1225 Y0.4663
G01 X35.0731 Y0.5945
G01 X35.0155 Y0.7247
G01 X34.9819 Y0.7957
G01 X34.9201 Y0.9184
G01 X34.8501 Y1.0423
G01 X34.8097 Y1.1097
G01 X34.7362 Y1.2258
G01 X34.6543 Y1.3422
G01 X34.6076 Y1.4053
G01 X34.5230 Y1.5136
G01 X34.4301 Y1.6215
G01 X34.3774 Y1.6796
G01 X34.2827 Y1.7792
G01 X34.1796 Y1.8774
G01 X34.1215 Y1.9301
G01 X34.0136 Y2.0230
G01 X33.9053 Y2.1076
G01 X33.8422 Y2.1543
G01 X33.7258 Y2.2362
G01 X33.6097 Y2.3097
G01 X33.5423 Y2.3501
G01 X33.4184 Y2.4201
G01 X33.2957 Y2.4819
G01 X33.2247 Y2.5155
G01 X33.0990 Y2.5712
G01 X32.9663 Y2.6225
G01 X32.8924 Y2.6490
G01 X32.7572 Y2.6935
G01 X32.6247 Y2.7302
G01 X32.5486 Y2.7492
G01 X32.4097 Y2.7803
G01 X32.2743 Y2.8038
G01 X32.1966 Y2.8153
G01 X32.0553 Y2.8326
G01 X31.9183 Y2.8427
G01 X31.8398 Y2.8466
G01 X31.7687 Y2.8492
G01 X31.7000 Y2.8500
G01 X0.8000 Y2.8500
G01 X0.7288 Y2.8491
G01 X0.6602 Y2.8466
G01 X0.5817 Y2.8427
G01 X0.4447 Y2.8326
G01 X0.3034 Y2.8153
G01 X0.2257 Y2.8038
G01 X0.0903 Y2.7803
G01 X-0.0486 Y2.7492
G01 X-0.1247 Y2.7302
G01 X-0.2619 Y2.6921
G01 X-0.3924 Y2.6490
G01 X-0.4663 Y2.6225
G01 X-0.5945 Y2.5731
G01 X-0.7247 Y2.5155
G01 X-0.7957 Y2.4819
G01 X-0.9227 Y2.4178
G01 X-1.0423 Y2.3501
G01 X-1.1097 Y2.3097
G01 X-1.2299 Y2.2335
G01 X-1.3422 Y2.1543
G01 X-1.4053 Y2.1076
G01 X-1.5136 Y2.0230
G01 X-1.6215 Y1.9301
G01 X-1.6796 Y1.8774
G01 X-1.7792 Y1.7827
G01 X-1.8774 Y1.6796
G01 X-1.9301 Y1.6215
G01 X-2.0199 Y1.5174
G01 X-2.1076 Y1.4053
G01 X-2.1543 Y1.3422
G01 X-2.2362 Y1.2258
G01 X-2.3097 Y1.1097
G01 X-2.3501 Y1.0423
G01 X-2.4178 Y0.9227
G01 X-2.4819 Y0.7957
G01 X-2.5155 Y0.7247
G01 X-2.5731 Y0.5945
G01 X-2.6225 Y0.4663
G01 X-2.6490 Y0.3924
G01 X-2.6935 Y0.2572
G01 X-2.7302 Y0.1247
G01 X-2.7492 Y0.0486
G01 X-2.7794 Y-0.0855
G01 X-2.8038 Y-0.2257
G01 X-2.8153 Y-0.3034
G01 X-2.8272 Y-0.4000
G00 X-2.8272 Y-0.4000
G01 F100.00
G01 Z-1.3000
G01 F300.00
G01 X-2.8153 Y-0.3034
G01 X-2.8038 Y-0.2257
G01 X-2.7794 Y-0.0855
G01 X-2.7492 Y0.0486
G01 X-2.7302 Y0.1247
G01 X-2.6935 Y0.2572
G01 X-2.6490 Y0.3924
G01 X-2.6225 Y0.4663
G01 X-2.5731 Y0.5945
G01 X-2.5155 Y0.7247
G01 X-2.4819 Y0.7957
G01 X-2.4178 Y0.9227
G01 X-2.3501 Y1.0423
G01 X-2.3097 Y1.1097
G01 X-2.2362 Y1.2258
G01 X-2.1543 Y1.3422
G01 X-2.1076 Y1.4053
G01 X-2.0199 Y1.5174
G01 X-1.9301 Y1.6215
G01 X-1.8774 Y1.6796
G01 X-1.7792 Y1.7827
G01 X-1.6796 Y1.8774
G01 X-1.6215 Y1.9301
G01 X-1.5136 Y2.0230
G01 X-1.4053 Y2.1076
G01 X-1.3422 Y2.1543
G01 X-1.2299 Y2.2335
G01 X-1.1097 Y2.3097
G01 X-1.0423 Y2.3501
G01 X-0.9227 Y2.4178
G01 X-0.7957 Y2.4819
G01 X-0.7247 Y2.5155
G01 X-0.5945 Y2.5731
G01 X-0.4663 Y2.6225
G01 X-0.3924 Y2.6490
G01 X-0.2619 Y2.6921
G01 X-0.1247 Y2.7302
G01 X-0.0486 Y2.7492
G01 X0.0903 Y2.7803
G01 X0.2257 Y2.8038
G01 X0.3034 Y2.8153
G01 X0.4447 Y2.8326
G01 X0.5817 Y2.8427
G01 X0.6602 Y2.8466
G01 X0.7288 Y2.8491
G01 X0.8000 Y2.8500
G01 X31.7000 Y2.8500
G01 X31.7687 Y2.8492
G01 X31.8398 Y2.8466
G01 X31.9183 Y2.8427
G01 X32.0553 Y2.8326
G01 X32.1966 Y2.8153
G01 X32.2743 Y2.8038
G01 X32.4097 Y2.7803
G01 X32.5486 Y2.7492
G01 X32.6247 Y2.7302
G01 X32.7572 Y2.6935
G01 X32.8924 Y2.6490
G01 X32.9663 Y2.6225
G01 X33.0990 Y2.5712
G01 X33.2247 Y2.5155
G01 X33.2957 Y2.4819
G01 X33.4184 Y2.4201
G01 X33.5423 Y2.3501
G01 X33.6097 Y2.3097
G01 X33.7258 Y2.2362
G01 X33.8422 Y2.1543
G01 X33.9053 Y2.1076
G01 X34.0136 Y2.0230
G01 X34.1215 Y1.9301
G01 X34.1796 Y1.8774
G01 X34.2827 Y1.7792
G01 X34.3774 Y1.6796
G01 X34.4301 Y1.6215
G01 X34.5230 Y1.5136
G01 X34.6076 Y1.4053
G01 X34.6543 Y1.3422
G01 X34.7362 Y1.2258
G01 X34.8097 Y1.1097
G01 X34.8501 Y1.0423
G01 X34.9201 Y0.9184
G01 X34.9819 Y0.7957
G01 X35.0155 Y0.7247
G01 X35.0731 Y0.5945
G01 X35.1225 Y0.4663
G01 X35.1490 Y0.3924
G01 X35.1921 Y0.2619
G01 X35.2302 Y0.1247
G01 X35.2492 Y0.0486
G01 X35.2794 Y-0.0855
G01 X35.3038 Y-0.2257
G01 X35.3153 Y-0.3034
G01 X35.3272 Y-0.4000
G00 X35.3272 Y-0.4000
G01 F100.00
G01 Z-1.4000
G01 F300.00
G01 X35.3153 Y-0.3034
G01 X35.3038 Y-0.2257
G01 X35.2794 Y-0.0855
G01 X35.2492 Y0.0486
G01 X35.2302 Y0.1247
G01 X35.1921 Y0.2619
G01 X35.1490 Y0.3924
G01 X35.1225 Y0.4663
G01 X35.0731 Y0.5945
G01 X35.0155 Y0.7247
G01 X34.9819 Y0.7957
G01 X34.9201 Y0.9184
G01 X34.8501 Y1.0423
G01 X34.8097 Y1.1097
G01 X34.7362 Y1.2258
G01 X34.6543 Y1.3422
G01 X34.6076 Y1.4053
G01 X34.5230 Y1.5136
G01 X34.4301 Y1.6215
G01 X34.3774 Y1.6796
G01 X34.2827 Y1.7792
G01 X34.1796 Y1.8774
G01 X34.1215 Y1.9301
G01 X34.0136 Y2.0230
G01 X33.9053 Y2.1076
G01 X33.8422 Y2.1543
G01 X33.7258 Y2.2362
G01 X33.6097 Y2.3097
G01 X33.5423 Y2.3501
G01 X33.4184 Y2.4201
G01 X33.2957 Y2.4819
G01 X33.2247 Y2.5155
G01 X33.0990 Y2.5712
G01 X32.9663 Y2.6225
G01 X32.8924 Y2.6490
G01 X32.7572 Y2.6935
G01 X32.6247 Y2.7302
G01 X32.5486 Y2.7492
G01 X32.4097 Y2.7803
G01 X32.2743 Y2.8038
G01 X32.1966 Y2.8153
G01 X32.0553 Y2.8326
G01 X31.9183 Y2.8427
G01 X31.8398 Y2.8466
G01 X31.7687 Y2.8492
G01 X31.7000 Y2.8500
G01 X0.8000 Y2.8500
G01 X0.7288 Y2.8491
G01 X0.6602 Y2.8466
G01 X0.5817 Y2.8427
G01 X0.4447 Y2.8326
G01 X0.3034 Y2.8153
G01 X0.2257 Y2.8038
G01 X0.0903 Y2.7803
G01 X-0.0486 Y2.7492
G01 X-0.1247 Y2.7302
G01 X-0.2619 Y2.6921
G01 X-0.3924 Y2.6490
G01 X-0.4663 Y2.6225
G01 X-0.5945 Y2.5731
G01 X-0.7247 Y2.5155
G01 X-0.7957 Y2.4819
G01 X-0.9227 Y2.4178
G01 X-1.0423 Y2.3501
G01 X-1.1097 Y2.3097
G01 X-1.2299 Y2.2335
G01 X-1.3422 Y2.1543
G01 X-1.4053 Y2.1076
G01 X-1.5136 Y2.0230
G01 X-1.6215 Y1.9301
G01 X-1.6796 Y1.8774
G01 X-1.7792 Y1.7827
G01 X-1.8774 Y1.6796
G01 X-1.9301 Y1.6215
G01 X-2.0199 Y1.5174
G01 X-2.1076 Y1.4053
G01 X-2.1543 Y1.3422
G01 X-2.2362 Y1.2258
G01 X-2.3097 Y1.1097
G01 X-2.3501 Y1.0423
G01 X-2.4178 Y0.9227
G01 X-2.4819 Y0.7957
G01 X-2.5155 Y0.7247
G01 X-2.5731 Y0.5945
G01 X-2.6225 Y0.4663
G01 X-2.6490 Y0.3924
G01 X-2.6935 Y0.2572
G01 X-2.7302 Y0.1247
G01 X-2.7492 Y0.0486
G01 X-2.7794 Y-0.0855
G01 X-2.8038 Y-0.2257
G01 X-2.8153 Y-0.3034
G01 X-2.8272 Y-0.4000
G00 X-2.8272 Y-0.4000
G01 F100.00
G01 Z-1.5000
G01 F300.00
G01 X-2.8153 Y-0.3034
G01 X-2.8038 Y-0.2257
G01 X-2.7794 Y-0.0855
G01 X-2.7492 Y0.0486
G01 X-2.7302 Y0.1247
G01 X-2.6935 Y0.2572
G01 X-2.6490 Y0.3924
G01 X-2.6225 Y0.4663
G01 X-2.5731 Y0.5945
G01 X-2.5155 Y0.7247
G01 X-2.4819 Y0.7957
G01 X-2.4178 Y0.9227
G01 X-2.3501 Y1.0423
G01 X-2.3097 Y1.1097
G01 X-2.2362 Y1.2258
G01 X-2.1543 Y1.3422
G01 X-2.1076 Y1.4053
G01 X-2.0199 Y1.5174
G01 X-1.9301 Y1.6215
G01 X-1.8774 Y1.6796
G01 X-1.7792 Y1.7827
G01 X-1.6796 Y1.8774
G01 X-1.6215 Y1.9301
G01 X-1.5136 Y2.0230
G01 X-1.4053 Y2.1076
G01 X-1.3422 Y2.1543
G01 X-1.2299 Y2.2335
G01 X-1.1097 Y2.3097
G01 X-1.0423 Y2.3501
G01 X-0.9227 Y2.4178
G01 X-0.7957 Y2.4819
G01 X-0.7247 Y2.5155
G01 X-0.5945 Y2.5731
G01 X-0.4663 Y2.6225
G01 X-0.3924 Y2.6490
G01 X-0.2619 Y2.6921
G01 X-0.1247 Y2.7302
G01 X-0.0486 Y2.7492
G01 X0.0903 Y2.7803
G01 X0.2257 Y2.8038
G01 X0.3034 Y2.8153
G01 X0.4447 Y2.8326
G01 X0.5817 Y2.8427
G01 X0.6602 Y2.8466
G01 X0.7288 Y2.8491
G01 X0.8000 Y2.8500
G01 X31.7000 Y2.8500
G01 X31.7687 Y2.8492
G01 X31.8398 Y2.8466
G01 X31.9183 Y2.8427
G01 X32.0553 Y2.8326
G01 X32.1966 Y2.8153
G01 X32.2743 Y2.8038
G01 X32.4097 Y2.7803
G01 X32.5486 Y2.7492
G01 X32.6247 Y2.7302
G01 X32.7572 Y2.6935
G01 X32.8924 Y2.6490
G01 X32.9663 Y2.6225
G01 X33.0990 Y2.5712
G01 X33.2247 Y2.5155
G01 X33.2957 Y2.4819
G01 X33.4184 Y2.4201
G01 X33.5423 Y2.3501
G01 X33.6097 Y2.3097
G01 X33.7258 Y2.2362
G01 X33.8422 Y2.1543
G01 X33.9053 Y2.1076
G01 X34.0136 Y2.0230
G01 X34.1215 Y1.9301
G01 X34.1796 Y1.8774
G01 X34.2827 Y1.7792
G01 X34.3774 Y1.6796
G01 X34.4301 Y1.6215
G01 X34.5230 Y1.5136
G01 X34.6076 Y1.4053
G01 X34.6543 Y1.3422
G01 X34.7362 Y1.2258
G01 X34.8097 Y1.1097
G01 X34.8501 Y1.0423
G01 X34.9201 Y0.9184
G01 X34.9819 Y0.7957
G01 X35.0155 Y0.7247
G01 X35.0731 Y0.5945
G01 X35.1225 Y0.4663
G01 X35.1490 Y0.3924
G01 X35.1921 Y0.2619
G01 X35.2302 Y0.1247
G01 X35.2492 Y0.0486
G01 X35.2794 Y-0.0855
G01 X35.3038 Y-0.2257
G01 X35.3153 Y-0.3034
G01 X35.3272 Y-0.4000
G00 X35.3272 Y-0.4000
G01 F100.00
G01 Z-1.6000
G01 F300.00
G01 X35.3153 Y-0.3034
G01 X35.3038 Y-0.2257
G01 X35.2794 Y-0.0855
G01 X35.2492 Y0.0486
G01 X35.2302 Y0.1247
G01 X35.1921 Y0.2619
G01 X35.1490 Y0.3924
G01 X35.1225 Y0.4663
G01 X35.0731 Y0.5945
G01 X35.0155 Y0.7247
G01 X34.9819 Y0.7957
G01 X34.9201 Y0.9184
G01 X34.8501 Y1.0423
G01 X34.8097 Y1.1097
G01 X34.7362 Y1.2258
G01 X34.6543 Y1.3422
G01 X34.6076 Y1.4053
G01 X34.5230 Y1.5136
G01 X34.4301 Y1.6215
G01 X34.3774 Y1.6796
G01 X34.2827 Y1.7792
G01 X34.1796 Y1.8774
G01 X34.1215 Y1.9301
G01 X34.0136 Y2.0230
G01 X33.9053 Y2.1076
G01 X33.8422 Y2.1543
G01 X33.7258 Y2.2362
G01 X33.6097 Y2.3097
G01 X33.5423 Y2.3501
G01 X33.4184 Y2.4201
G01 X33.2957 Y2.4819
G01 X33.2247 Y2.5155
G01 X33.0990 Y2.5712
G01 X32.9663 Y2.6225
G01 X32.8924 Y2.6490
G01 X32.7572 Y2.6935
G01 X32.6247 Y2.7302
G01 X32.5486 Y2.7492
G01 X32.4097 Y2.7803
G01 X32.2743 Y2.8038
G01 X32.1966 Y2.8153
G01 X32.0553 Y2.8326
G01 X31.9183 Y2.8427
G01 X31.8398 Y2.8466
G01 X31.7687 Y2.8492
G01 X31.7000 Y2.8500
G01 X0.8000 Y2.8500
G01 X0.7288 Y2.8491
G01 X0.6602 Y2.8466
G01 X0.5817 Y2.8427
G01 X0.4447 Y2.8326
G01 X0.3034 Y2.8153
G01 X0.2257 Y2.8038
G01 X0.0903 Y2.7803
G01 X-0.0486 Y2.7492
G01 X-0.1247 Y2.7302
G01 X-0.2619 Y2.6921
G01 X-0.3924 Y2.6490
G01 X-0.4663 Y2.6225
G01 X-0.5945 Y2.5731
G01 X-0.7247 Y2.5155
G01 X-0.7957 Y2.4819
G01 X-0.9227 Y2.4178
G01 X-1.0423 Y2.3501
G01 X-1.1097 Y2.3097
G01 X-1.2299 Y2.2335
G01 X-1.3422 Y2.1543
G01 X-1.4053 Y2.1076
G01 X-1.5136 Y2.0230
G01 X-1.6215 Y1.9301
G01 X-1.6796 Y1.8774
G01 X-1.7792 Y1.7827
G01 X-1.8774 Y1.6796
G01 X-1.9301 Y1.6215
G01 X-2.0199 Y1.5174
G01 X-2.1076 Y1.4053
G01 X-2.1543 Y1.3422
G01 X-2.2362 Y1.2258
G01 X-2.3097 Y1.1097
G01 X-2.3501 Y1.0423
G01 X-2.4178 Y0.9227
G01 X-2.4819 Y0.7957
G01 X-2.5155 Y0.7247
G01 X-2.5731 Y0.5945
G01 X-2.6225 Y0.4663
G01 X-2.6490 Y0.3924
G01 X-2.6935 Y0.2572
G01 X-2.7302 Y0.1247
G01 X-2.7492 Y0.0486
G01 X-2.7794 Y-0.0855
G01 X-2.8038 Y-0.2257
G01 X-2.8153 Y-0.3034
G01 X-2.8272 Y-0.4000
G00 X-2.8272 Y-0.4000
G01 F100.00
G01 Z-1.7000
G01 F300.00
G01 X-2.8153 Y-0.3034
G01 X-2.8038 Y-0.2257
G01 X-2.7794 Y-0.0855
G01 X-2.7492 Y0.0486
G01 X-2.7302 Y0.1247
G01 X-2.6935 Y0.2572
G01 X-2.6490 Y0.3924
G01 X-2.6225 Y0.4663
G01 X-2.5731 Y0.5945
G01 X-2.5155 Y0.7247
G01 X-2.4819 Y0.7957
G01 X-2.4178 Y0.9227
G01 X-2.3501 Y1.0423
G01 X-2.3097 Y1.1097
G01 X-2.2362 Y1.2258
G01 X-2.1543 Y1.3422
G01 X-2.1076 Y1.4053
G01 X-2.0199 Y1.5174
G01 X-1.9301 Y1.6215
G01 X-1.8774 Y1.6796
G01 X-1.7792 Y1.7827
G01 X-1.6796 Y1.8774
G01 X-1.6215 Y1.9301
G01 X-1.5136 Y2.0230
G01 X-1.4053 Y2.1076
G01 X-1.3422 Y2.1543
G01 X-1.2299 Y2.2335
G01 X-1.1097 Y2.3097
G01 X-1.0423 Y2.3501
G01 X-0.9227 Y2.4178
G01 X-0.7957 Y2.4819
G01 X-0.7247 Y2.5155
G01 X-0.5945 Y2.5731
G01 X-0.4663 Y2.6225
G01 X-0.3924 Y2.6490
G01 X-0.2619 Y2.6921
G01 X-0.1247 Y2.7302
G01 X-0.0486 Y2.7492
G01 X0.0903 Y2.7803
G01 X0.2257 Y2.8038
G01 X0.3034 Y2.8153
G01 X0.4447 Y2.8326
G01 X0.5817 Y2.8427
G01 X0.6602 Y2.8466
G01 X0.7288 Y2.8491
G01 X0.8000 Y2.8500
G01 X31.7000 Y2.8500
G01 X31.7687 Y2.8492
G01 X31.8398 Y2.8466
G01 X31.9183 Y2.8427
G01 X32.0553 Y2.8326
G01 X32.1966 Y2.8153
G01 X32.2743 Y2.8038
G01 X32.4097 Y2.7803
G01 X32.5486 Y2.7492
G01 X32.6247 Y2.7302
G01 X32.7572 Y2.6935
G01 X32.8924 Y2.6490
G01 X32.9663 Y2.6225
G01 X33.0990 Y2.5712
G01 X33.2247 Y2.5155
G01 X33.2957 Y2.4819
G01 X33.4184 Y2.4201
G01 X33.5423 Y2.3501
G01 X33.6097 Y2.3097
G01 X33.7258 Y2.2362
G01 X33.8422 Y2.1543
G01 X33.9053 Y2.1076
G01 X34.0136 Y2.0230
G01 X34.1215 Y1.9301
G01 X34.1796 Y1.8774
G01 X34.2827 Y1.7792
G01 X34.3774 Y1.6796
G01 X34.4301 Y1.6215
G01 X34.5230 Y1.5136
G01 X34.6076 Y1.4053
G01 X34.6543 Y1.3422
G01 X34.7362 Y1.2258
G01 X34.8097 Y1.1097
G01 X34.8501 Y1.0423
G01 X34.9201 Y0.9184
G01 X34.9819 Y0.7957
G01 X35.0155 Y0.7247
G01 X35.0731 Y0.5945
G01 X35.1225 Y0.4663
G01 X35.1490 Y0.3924
G01 X35.1921 Y0.2619
G01 X35.2302 Y0.1247
G01 X35.2492 Y0.0486
G01 X35.2794 Y-0.0855
G01 X35.3038 Y-0.2257
G01 X35.3153 Y-0.3034
G01 X35.3272 Y-0.4000
G00 X35.3272 Y-0.4000
G01 F100.00
G01 Z-1.8000
G01 F300.00
G01 X35.3153 Y-0.3034
G01 X35.3038 Y-0.2257
G01 X35.2794 Y-0.0855
G01 X35.2492 Y0.0486
G01 X35.2302 Y0.1247
G01 X35.1921 Y0.2619
G01 X35.1490 Y0.3924
G01 X35.1225 Y0.4663
G01 X35.0731 Y0.5945
G01 X35.0155 Y0.7247
G01 X34.9819 Y0.7957
G01 X34.9201 Y0.9184
G01 X34.8501 Y1.0423
G01 X34.8097 Y1.1097
G01 X34.7362 Y1.2258
G01 X34.6543 Y1.3422
G01 X34.6076 Y1.4053
G01 X34.5230 Y1.5136
G01 X34.4301 Y1.6215
G01 X34.3774 Y1.6796
G01 X34.2827 Y1.7792
G01 X34.1796 Y1.8774
G01 X34.1215 Y1.9301
G01 X34.0136 Y2.0230
G01 X33.9053 Y2.1076
G01 X33.8422 Y2.1543
G01 X33.7258 Y2.2362
G01 X33.6097 Y2.3097
G01 X33.5423 Y2.3501
G01 X33.4184 Y2.4201
G01 X33.2957 Y2.4819
G01 X33.2247 Y2.5155
G01 X33.0990 Y2.5712
G01 X32.9663 Y2.6225
G01 X32.8924 Y2.6490
G01 X32.7572 Y2.6935
G01 X32.6247 Y2.7302
G01 X32.5486 Y2.7492
G01 X32.4097 Y2.7803
G01 X32.2743 Y2.8038
G01 X32.1966 Y2.8153
G01 X32.0553 Y2.8326
G01 X31.9183 Y2.8427
G01 X31.8398 Y2.8466
G01 X31.7687 Y2.8492
G01 X31.7000 Y2.8500
G01 X0.8000 Y2.8500
G01 X0.7288 Y2.8491
G01 X0.6602 Y2.8466
G01 X0.5817 Y2.8427
G01 X0.4447 Y2.8326
G01 X0.3034 Y2.8153
G01 X0.2257 Y2.8038
G01 X0.0903 Y2.7803
G01 X-0.0486 Y2.7492
G01 X-0.1247 Y2.7302
G01 X-0.2619 Y2.6921
G01 X-0.3924 Y2.6490
G01 X-0.4663 Y2.6225
G01 X-0.5945 Y2.5731
G01 X-0.7247 Y2.5155
G01 X-0.7957 Y2.4819
G01 X-0.9227 Y2.4178
G01 X-1.0423 Y2.3501
G01 X-1.1097 Y2.3097
G01 X-1.2299 Y2.2335
G01 X-1.3422 Y2.1543
G01 X-1.4053 Y2.1076
G01 X-1.5136 Y2.0230
G01 X-1.6215 Y1.9301
G01 X-1.6796 Y1.8774
G01 X-1.7792 Y1.7827
G01 X-1.8774 Y1.6796
G01 X-1.9301 Y1.6215
G01 X-2.0199 Y1.5174
G01 X-2.1076 Y1.4053
G01 X-2.1543 Y1.3422
G01 X-2.2362 Y1.2258
G01 X-2.3097 Y1.1097
G01 X-2.3501 Y1.0423
G01 X-2.4178 Y0.9227
G01 X-2.4819 Y0.7957
G01 X-2.5155 Y0.7247
G01 X-2.5731 Y0.5945
G01 X-2.6225 Y0.4663
G01 X-2.6490 Y0.3924
G01 X-2.6935 Y0.2572
G01 X-2.7302 Y0.1247
G01 X-2.7492 Y0.0486
G01 X-2.7794 Y-0.0855
G01 X-2.8038 Y-0.2257
G01 X-2.8153 Y-0.3034
G01 X-2.8272 Y-0.4000
G00 X-2.8272 Y-0.4000
G01 F100.00
G01 Z-1.9000
G01 F300.00
G01 X-2.8153 Y-0.3034
G01 X-2.8038 Y-0.2257
G01 X-2.7794 Y-0.0855
G01 X-2.7492 Y0.0486
G01 X-2.7302 Y0.1247
G01 X-2.6935 Y0.2572
G01 X-2.6490 Y0.3924
G01 X-2.6225 Y0.4663
G01 X-2.5731 Y0.5945
G01 X-2.5155 Y0.7247
G01 X-2.4819 Y0.7957
G01 X-2.4178 Y0.9227
G01 X-2.3501 Y1.0423
G01 X-2.3097 Y1.1097
G01 X-2.2362 Y1.2258
G01 X-2.1543 Y1.3422
G01 X-2.1076 Y1.4053
G01 X-2.0199 Y1.5174
G01 X-1.9301 Y1.6215
G01 X-1.8774 Y1.6796
G01 X-1.7792 Y1.7827
G01 X-1.6796 Y1.8774
G01 X-1.6215 Y1.9301
G01 X-1.5136 Y2.0230
G01 X-1.4053 Y2.1076
G01 X-1.3422 Y2.1543
G01 X-1.2299 Y2.2335
G01 X-1.1097 Y2.3097
G01 X-1.0423 Y2.3501
G01 X-0.9227 Y2.4178
G01 X-0.7957 Y2.4819
G01 X-0.7247 Y2.5155
G01 X-0.5945 Y2.5731
G01 X-0.4663 Y2.6225
G01 X-0.3924 Y2.6490
G01 X-0.2619 Y2.6921
G01 X-0.1247 Y2.7302
G01 X-0.0486 Y2.7492
G01 X0.0903 Y2.7803
G01 X0.2257 Y2.8038
G01 X0.3034 Y2.8153
G01 X0.4447 Y2.8326
G01 X0.5817 Y2.8427
G01 X0.6602 Y2.8466
G01 X0.7288 Y2.8491
G01 X0.8000 Y2.8500
G01 X31.7000 Y2.8500
G01 X31.7687 Y2.8492
G01 X31.8398 Y2.8466
G01 X31.9183 Y2.8427
G01 X32.0553 Y2.8326
G01 X32.1966 Y2.8153
G01 X32.2743 Y2.8038
G01 X32.4097 Y2.7803
G01 X32.5486 Y2.7492
G01 X32.6247 Y2.7302
G01 X32.7572 Y2.6935
G01 X32.8924 Y2.6490
G01 X32.9663 Y2.6225
G01 X33.0990 Y2.5712
G01 X33.2247 Y2.5155
G01 X33.2957 Y2.4819
G01 X33.4184 Y2.4201
G01 X33.5423 Y2.3501
G01 X33.6097 Y2.3097
G01 X33.7258 Y2.2362
G01 X33.8422 Y2.1543
G01 X33.9053 Y2.1076
G01 X34.0136 Y2.0230
G01 X34.1215 Y1.9301
G01 X34.1796 Y1.8774
G01 X34.2827 Y1.7792
G01 X34.3774 Y1.6796
G01 X34.4301 Y1.6215
G01 X34.5230 Y1.5136
G01 X34.6076 Y1.4053
G01 X34.6543 Y1.3422
G01 X34.7362 Y1.2258
G01 X34.8097 Y1.1097
G01 X34.8501 Y1.0423
G01 X34.9201 Y0.9184
G01 X34.9819 Y0.7957
G01 X35.0155 Y0.7247
G01 X35.0731 Y0.5945
G01 X35.1225 Y0.4663
G01 X35.1490 Y0.3924
G01 X35.1921 Y0.2619
G01 X35.2302 Y0.1247
G01 X35.2492 Y0.0486
G01 X35.2794 Y-0.0855
G01 X35.3038 Y-0.2257
G01 X35.3153 Y-0.3034
G01 X35.3272 Y-0.4000
G00 X35.3272 Y-0.4000
G01 F100.00
G01 Z-2.0000
G01 F300.00
G01 X35.3153 Y-0.3034
G01 X35.3038 Y-0.2257
G01 X35.2794 Y-0.0855
G01 X35.2492 Y0.0486
G01 X35.2302 Y0.1247
G01 X35.1921 Y0.2619
G01 X35.1490 Y0.3924
G01 X35.1225 Y0.4663
G01 X35.0731 Y0.5945
G01 X35.0155 Y0.7247
G01 X34.9819 Y0.7957
G01 X34.9201 Y0.9184
G01 X34.8501 Y1.0423
G01 X34.8097 Y1.1097
G01 X34.7362 Y1.2258
G01 X34.6543 Y1.3422
G01 X34.6076 Y1.4053
G01 X34.5230 Y1.5136
G01 X34.4301 Y1.6215
G01 X34.3774 Y1.6796
G01 X34.2827 Y1.7792
G01 X34.1796 Y1.8774
G01 X34.1215 Y1.9301
G01 X34.0136 Y2.0230
G01 X33.9053 Y2.1076
G01 X33.8422 Y2.1543
G01 X33.7258 Y2.2362
G01 X33.6097 Y2.3097
G01 X33.5423 Y2.3501
G01 X33.4184 Y2.4201
G01 X33.2957 Y2.4819
G01 X33.2247 Y2.5155
G01 X33.0990 Y2.5712
G01 X32.9663 Y2.6225
G01 X32.8924 Y2.6490
G01 X32.7572 Y2.6935
G01 X32.6247 Y2.7302
G01 X32.5486 Y2.7492
G01 X32.4097 Y2.7803
G01 X32.2743 Y2.8038
G01 X32.1966 Y2.8153
G01 X32.0553 Y2.8326
G01 X31.9183 Y2.8427
G01 X31.8398 Y2.8466
G01 X31.7687 Y2.8492
G01 X31.7000 Y2.8500
G01 X0.8000 Y2.8500
G01 X0.7288 Y2.8491
G01 X0.6602 Y2.8466
G01 X0.5817 Y2.8427
G01 X0.4447 Y2.8326
G01 X0.3034 Y2.8153
G01 X0.2257 Y2.8038
G01 X0.0903 Y2.7803
G01 X-0.0486 Y2.7492
G01 X-0.1247 Y2.7302
G01 X-0.2619 Y2.6921
G01 X-0.3924 Y2.6490
G01 X-0.4663 Y2.6225
G01 X-0.5945 Y2.5731
G01 X-0.7247 Y2.5155
G01 X-0.7957 Y2.4819
G01 X-0.9227 Y2.4178
G01 X-1.0423 Y2.3501
G01 X-1.1097 Y2.3097
G01 X-1.2299 Y2.2335
G01 X-1.3422 Y2.1543
G01 X-1.4053 Y2.1076
G01 X-1.5136 Y2.0230
G01 X-1.6215 Y1.9301
G01 X-1.6796 Y1.8774
G01 X-1.7792 Y1.7827
G01 X-1.8774 Y1.6796
G01 X-1.9301 Y1.6215
G01 X-2.0199 Y1.5174
G01 X-2.1076 Y1.4053
G01 X-2.1543 Y1.3422
G01 X-2.2362 Y1.2258
G01 X-2.3097 Y1.1097
G01 X-2.3501 Y1.0423
G01 X-2.4178 Y0.9227
G01 X-2.4819 Y0.7957
G01 X-2.5155 Y0.7247
G01 X-2.5731 Y0.5945
G01 X-2.6225 Y0.4663
G01 X-2.6490 Y0.3924
G01 X-2.6935 Y0.2572
G01 X-2.7302 Y0.1247
G01 X-2.7492 Y0.0486
G01 X-2.7794 Y-0.0855
G01 X-2.8038 Y-0.2257
G01 X-2.8153 Y-0.3034
G01 X-2.8272 Y-0.4000
G00 X-2.8272 Y-0.4000
G01 F100.00
G01 Z-2.1000
G01 F300.00
G01 X-2.8153 Y-0.3034
G01 X-2.8038 Y-0.2257
G01 X-2.7794 Y-0.0855
G01 X-2.7492 Y0.0486
G01 X-2.7302 Y0.1247
G01 X-2.6935 Y0.2572
G01 X-2.6490 Y0.3924
G01 X-2.6225 Y0.4663
G01 X-2.5731 Y0.5945
G01 X-2.5155 Y0.7247
G01 X-2.4819 Y0.7957
G01 X-2.4178 Y0.9227
G01 X-2.3501 Y1.0423
G01 X-2.3097 Y1.1097
G01 X-2.2362 Y1.2258
G01 X-2.1543 Y1.3422
G01 X-2.1076 Y1.4053
G01 X-2.0199 Y1.5174
G01 X-1.9301 Y1.6215
G01 X-1.8774 Y1.6796
G01 X-1.7792 Y1.7827
G01 X-1.6796 Y1.8774
G01 X-1.6215 Y1.9301
G01 X-1.5136 Y2.0230
G01 X-1.4053 Y2.1076
G01 X-1.3422 Y2.1543
G01 X-1.2299 Y2.2335
G01 X-1.1097 Y2.3097
G01 X-1.0423 Y2.3501
G01 X-0.9227 Y2.4178
G01 X-0.7957 Y2.4819
G01 X-0.7247 Y2.5155
G01 X-0.5945 Y2.5731
G01 X-0.4663 Y2.6225
G01 X-0.3924 Y2.6490
G01 X-0.2619 Y2.6921
G01 X-0.1247 Y2.7302
G01 X-0.0486 Y2.7492
G01 X0.0903 Y2.7803
G01 X0.2257 Y2.8038
G01 X0.3034 Y2.8153
G01 X0.4447 Y2.8326
G01 X0.5817 Y2.8427
G01 X0.6602 Y2.8466
G01 X0.7288 Y2.8491
G01 X0.8000 Y2.8500
G01 X31.7000 Y2.8500
G01 X31.7687 Y2.8492
G01 X31.8398 Y2.8466
G01 X31.9183 Y2.8427
G01 X32.0553 Y2.8326
G01 X32.1966 Y2.8153
G01 X32.2743 Y2.8038
G01 X32.4097 Y2.7803
G01 X32.5486 Y2.7492
G01 X32.6247 Y2.7302
G01 X32.7572 Y2.6935
G01 X32.8924 Y2.6490
G01 X32.9663 Y2.6225
G01 X33.0990 Y2.5712
G01 X33.2247 Y2.5155
G01 X33.2957 Y2.4819
G01 X33.4184 Y2.4201
G01 X33.5423 Y2.3501
G01 X33.6097 Y2.3097
G01 X33.7258 Y2.2362
G01 X33.8422 Y2.1543
G01 X33.9053 Y2.1076
G01 X34.0136 Y2.0230
G01 X34.1215 Y1.9301
G01 X34.1796 Y1.8774
G01 X34.2827 Y1.7792
G01 X34.3774 Y1.6796
G01 X34.4301 Y1.6215
G01 X34.5230 Y1.5136
G01 X34.6076 Y1.4053
G01 X34.6543 Y1.3422
G01 X34.7362 Y1.2258
G01 X34.8097 Y1.1097
G01 X34.8501 Y1.0423
G01 X34.9201 Y0.9184
G01 X34.9819 Y0.7957
G01 X35.0155 Y0.7247
G01 X35.0731 Y0.5945
G01 X35.1225 Y0.4663
G01 X35.1490 Y0.3924
G01 X35.1921 Y0.2619
G01 X35.2302 Y0.1247
G01 X35.2492 Y0.0486
G01 X35.2794 Y-0.0855
G01 X35.3038 Y-0.2257
G01 X35.3153 Y-0.3034
G01 X35.3272 Y-0.4000
G00 X35.3272 Y-0.4000
G01 F100.00
G01 Z-2.2000
G01 F300.00
G01 X35.3153 Y-0.3034
G01 X35.3038 Y-0.2257
G01 X35.2794 Y-0.0855
G01 X35.2492 Y0.0486
G01 X35.2302 Y0.1247
G01 X35.1921 Y0.2619
G01 X35.1490 Y0.3924
G01 X35.1225 Y0.4663
G01 X35.0731 Y0.5945
G01 X35.0155 Y0.7247
G01 X34.9819 Y0.7957
G01 X34.9201 Y0.9184
G01 X34.8501 Y1.0423
G01 X34.8097 Y1.1097
G01 X34.7362 Y1.2258
G01 X34.6543 Y1.3422
G01 X34.6076 Y1.4053
G01 X34.5230 Y1.5136
G01 X34.4301 Y1.6215
G01 X34.3774 Y1.6796
G01 X34.2827 Y1.7792
G01 X34.1796 Y1.8774
G01 X34.1215 Y1.9301
G01 X34.0136 Y2.0230
G01 X33.9053 Y2.1076
G01 X33.8422 Y2.1543
G01 X33.7258 Y2.2362
G01 X33.6097 Y2.3097
G01 X33.5423 Y2.3501
G01 X33.4184 Y2.4201
G01 X33.2957 Y2.4819
G01 X33.2247 Y2.5155
G01 X33.0990 Y2.5712
G01 X32.9663 Y2.6225
G01 X32.8924 Y2.6490
G01 X32.7572 Y2.6935
G01 X32.6247 Y2.7302
G01 X32.5486 Y2.7492
G01 X32.4097 Y2.7803
G01 X32.2743 Y2.8038
G01 X32.1966 Y2.8153
G01 X32.0553 Y2.8326
G01 X31.9183 Y2.8427
G01 X31.8398 Y2.8466
G01 X31.7687 Y2.8492
G01 X31.7000 Y2.8500
G01 X0.8000 Y2.8500
G01 X0.7288 Y2.8491
G01 X0.6602 Y2.8466
G01 X0.5817 Y2.8427
G01 X0.4447 Y2.8326
G01 X0.3034 Y2.8153
G01 X0.2257 Y2.8038
G01 X0.0903 Y2.7803
G01 X-0.0486 Y2.7492
G01 X-0.1247 Y2.7302
G01 X-0.2619 Y2.6921
G01 X-0.3924 Y2.6490
G01 X-0.4663 Y2.6225
G01 X-0.5945 Y2.5731
G01 X-0.7247 Y2.5155
G01 X-0.7957 Y2.4819
G01 X-0.9227 Y2.4178
G01 X-1.0423 Y2.3501
G01 X-1.1097 Y2.3097
G01 X-1.2299 Y2.2335
G01 X-1.3422 Y2.1543
G01 X-1.4053 Y2.1076
G01 X-1.5136 Y2.0230
G01 X-1.6215 Y1.9301
G01 X-1.6796 Y1.8774
G01 X-1.7792 Y1.7827
G01 X-1.8774 Y1.6796
G01 X-1.9301 Y1.6215
G01 X-2.0199 Y1.5174
G01 X-2.1076 Y1.4053
G01 X-2.1543 Y1.3422
G01 X-2.2362 Y1.2258
G01 X-2.3097 Y1.1097
G01 X-2.3501 Y1.0423
G01 X-2.4178 Y0.9227
G01 X-2.4819 Y0.7957
G01 X-2.5155 Y0.7247
G01 X-2.5731 Y0.5945
G01 X-2.6225 Y0.4663
G01 X-2.6490 Y0.3924
G01 X-2.6935 Y0.2572
G01 X-2.7302 Y0.1247
G01 X-2.7492 Y0.0486
G01 X-2.7794 Y-0.0855
G01 X-2.8038 Y-0.2257
G01 X-2.8153 Y-0.3034
G01 X-2.8272 Y-0.4000
G00 X-2.8272 Y-0.4000
G01 F100.00
G01 Z-2.3000
G01 F300.00
G01 X-2.8153 Y-0.3034
G01 X-2.8038 Y-0.2257
G01 X-2.7794 Y-0.0855
G01 X-2.7492 Y0.0486
G01 X-2.7302 Y0.1247
G01 X-2.6935 Y0.2572
G01 X-2.6490 Y0.3924
G01 X-2.6225 Y0.4663
G01 X-2.5731 Y0.5945
G01 X-2.5155 Y0.7247
G01 X-2.4819 Y0.7957
G01 X-2.4178 Y0.9227
G01 X-2.3501 Y1.0423
G01 X-2.3097 Y1.1097
G01 X-2.2362 Y1.2258
G01 X-2.1543 Y1.3422
G01 X-2.1076 Y1.4053
G01 X-2.0199 Y1.5174
G01 X-1.9301 Y1.6215
G01 X-1.8774 Y1.6796
G01 X-1.7792 Y1.7827
G01 X-1.6796 Y1.8774
G01 X-1.6215 Y1.9301
G01 X-1.5136 Y2.0230
G01 X-1.4053 Y2.1076
G01 X-1.3422 Y2.1543
G01 X-1.2299 Y2.2335
G01 X-1.1097 Y2.3097
G01 X-1.0423 Y2.3501
G01 X-0.9227 Y2.4178
G01 X-0.7957 Y2.4819
G01 X-0.7247 Y2.5155
G01 X-0.5945 Y2.5731
G01 X-0.4663 Y2.6225
G01 X-0.3924 Y2.6490
G01 X-0.2619 Y2.6921
G01 X-0.1247 Y2.7302
G01 X-0.0486 Y2.7492
G01 X0.0903 Y2.7803
G01 X0.2257 Y2.8038
G01 X0.3034 Y2.8153
G01 X0.4447 Y2.8326
G01 X0.5817 Y2.8427
G01 X0.6602 Y2.8466
G01 X0.7288 Y2.8491
G01 X0.8000 Y2.8500
G01 X31.7000 Y2.8500
G01 X31.7687 Y2.8492
G01 X31.8398 Y2.8466
G01 X31.9183 Y2.8427
G01 X32.0553 Y2.8326
G01 X32.1966 Y2.8153
G01 X32.2743 Y2.8038
G01 X32.4097 Y2.7803
G01 X32.5486 Y2.7492
G01 X32.6247 Y2.7302
G01 X32.7572 Y2.6935
G01 X32.8924 Y2.6490
G01 X32.9663 Y2.6225
G01 X33.0990 Y2.5712
G01 X33.2247 Y2.5155
G01 X33.2957 Y2.4819
G01 X33.4184 Y2.4201
G01 X33.5423 Y2.3501
G01 X33.6097 Y2.3097
G01 X33.7258 Y2.2362
G01 X33.8422 Y2.1543
G01 X33.9053 Y2.1076
G01 X34.0136 Y2.0230
G01 X34.1215 Y1.9301
G01 X34.1796 Y1.8774
G01 X34.2827 Y1.7792
G01 X34.3774 Y1.6796
G01 X34.4301 Y1.6215
G01 X34.5230 Y1.5136
G01 X34.6076 Y1.4053
G01 X34.6543 Y1.3422
G01 X34.7362 Y1.2258
G01 X34.8097 Y1.1097
G01 X34.8501 Y1.0423
G01 X34.9201 Y0.9184
G01 X34.9819 Y0.7957
G01 X35.0155 Y0.7247
G01 X35.0731 Y0.5945
G01 X35.1225 Y0.4663
G01 X35.1490 Y0.3924
G01 X35.1921 Y0.2619
G01 X35.2302 Y0.1247
G01 X35.2492 Y0.0486
G01 X35.2794 Y-0.0855
G01 X35.3038 Y-0.2257
G01 X35.3153 Y-0.3034
G01 X35.3272 Y-0.4000
G00 X35.3272 Y-0.4000
G01 F100.00
G01 Z-2.4000
G01 F300.00
G01 X35.3153 Y-0.3034
G01 X35.3038 Y-0.2257
G01 X35.2794 Y-0.0855
G01 X35.2492 Y0.0486
G01 X35.2302 Y0.1247
G01 X35.1921 Y0.2619
G01 X35.1490 Y0.3924
G01 X35.1225 Y0.4663
G01 X35.0731 Y0.5945
G01 X35.0155 Y0.7247
G01 X34.9819 Y0.7957
G01 X34.9201 Y0.9184
G01 X34.8501 Y1.0423
G01 X34.8097 Y1.1097
G01 X34.7362 Y1.2258
G01 X34.6543 Y1.3422
G01 X34.6076 Y1.4053
G01 X34.5230 Y1.5136
G01 X34.4301 Y1.6215
G01 X34.3774 Y1.6796
G01 X34.2827 Y1.7792
G01 X34.1796 Y1.8774
G01 X34.1215 Y1.9301
G01 X34.0136 Y2.0230
G01 X33.9053 Y2.1076
G01 X33.8422 Y2.1543
G01 X33.7258 Y2.2362
G01 X33.6097 Y2.3097
G01 X33.5423 Y2.3501
G01 X33.4184 Y2.4201
G01 X33.2957 Y2.4819
G01 X33.2247 Y2.5155
G01 X33.0990 Y2.5712
G01 X32.9663 Y2.6225
G01 X32.8924 Y2.6490
G01 X32.7572 Y2.6935
G01 X32.6247 Y2.7302
G01 X32.5486 Y2.7492
G01 X32.4097 Y2.7803
G01 X32.2743 Y2.8038
G01 X32.1966 Y2.8153
G01 X32.0553 Y2.8326
G01 X31.9183 Y2.8427
G01 X31.8398 Y2.8466
G01 X31.7687 Y2.8492
G01 X31.7000 Y2.8500
G01 X0.8000 Y2.8500
G01 X0.7288 Y2.8491
G01 X0.6602 Y2.8466
G01 X0.5817 Y2.8427
G01 X0.4447 Y2.8326
G01 X0.3034 Y2.8153
G01 X0.2257 Y2.8038
G01 X0.0903 Y2.7803
G01 X-0.0486 Y2.7492
G01 X-0.1247 Y2.7302
G01 X-0.2619 Y2.6921
G01 X-0.3924 Y2.6490
G01 X-0.4663 Y2.6225
G01 X-0.5945 Y2.5731
G01 X-0.7247 Y2.5155
G01 X-0.7957 Y2.4819
G01 X-0.9227 Y2.4178
G01 X-1.0423 Y2.3501
G01 X-1.1097 Y2.3097
G01 X-1.2299 Y2.2335
G01 X-1.3422 Y2.1543
G01 X-1.4053 Y2.1076
G01 X-1.5136 Y2.0230
G01 X-1.6215 Y1.9301
G01 X-1.6796 Y1.8774
G01 X-1.7792 Y1.7827
G01 X-1.8774 Y1.6796
G01 X-1.9301 Y1.6215
G01 X-2.0199 Y1.5174
G01 X-2.1076 Y1.4053
G01 X-2.1543 Y1.3422
G01 X-2.2362 Y1.2258
G01 X-2.3097 Y1.1097
G01 X-2.3501 Y1.0423
G01 X-2.4178 Y0.9227
G01 X-2.4819 Y0.7957
G01 X-2.5155 Y0.7247
G01 X-2.5731 Y0.5945
G01 X-2.6225 Y0.4663
G01 X-2.6490 Y0.3924
G01 X-2.6935 Y0.2572
G01 X-2.7302 Y0.1247
G01 X-2.7492 Y0.0486
G01 X-2.7794 Y-0.0855
G01 X-2.8038 Y-0.2257
G01 X-2.8153 Y-0.3034
G01 X-2.8272 Y-0.4000
G00 X-2.8272 Y-0.4000
G01 F100.00
G01 Z-2.5000
G01 F300.00
G01 X-2.8153 Y-0.3034
G01 X-2.8038 Y-0.2257
G01 X-2.7794 Y-0.0855
G01 X-2.7492 Y0.0486
G01 X-2.7302 Y0.1247
G01 X-2.6935 Y0.2572
G01 X-2.6490 Y0.3924
G01 X-2.6225 Y0.4663
G01 X-2.5731 Y0.5945
G01 X-2.5155 Y0.7247
G01 X-2.4819 Y0.7957
G01 X-2.4178 Y0.9227
G01 X-2.3501 Y1.0423
G01 X-2.3097 Y1.1097
G01 X-2.2362 Y1.2258
G01 X-2.1543 Y1.3422
G01 X-2.1076 Y1.4053
G01 X-2.0199 Y1.5174
G01 X-1.9301 Y1.6215
G01 X-1.8774 Y1.6796
G01 X-1.7792 Y1.7827
G01 X-1.6796 Y1.8774
G01 X-1.6215 Y1.9301
G01 X-1.5136 Y2.0230
G01 X-1.4053 Y2.1076
G01 X-1.3422 Y2.1543
G01 X-1.2299 Y2.2335
G01 X-1.1097 Y2.3097
G01 X-1.0423 Y2.3501
G01 X-0.9227 Y2.4178
G01 X-0.7957 Y2.4819
G01 X-0.7247 Y2.5155
G01 X-0.5945 Y2.5731
G01 X-0.4663 Y2.6225
G01 X-0.3924 Y2.6490
G01 X-0.2619 Y2.6921
G01 X-0.1247 Y2.7302
G01 X-0.0486 Y2.7492
G01 X0.0903 Y2.7803
G01 X0.2257 Y2.8038
G01 X0.3034 Y2.8153
G01 X0.4447 Y2.8326
G01 X0.5817 Y2.8427
G01 X0.6602 Y2.8466
G01 X0.7288 Y2.8491
G01 X0.8000 Y2.8500
G01 X31.7000 Y2.8500
G01 X31.7687 Y2.8492
G01 X31.8398 Y2.8466
G01 X31.9183 Y2.8427
G01 X32.0553 Y2.8326
G01 X32.1966 Y2.8153
G01 X32.2743 Y2.8038
G01 X32.4097 Y2.7803
G01 X32.5486 Y2.7492
G01 X32.6247 Y2.7302
G01 X32.7572 Y2.6935
G01 X32.8924 Y2.6490
G01 X32.9663 Y2.6225
G01 X33.0990 Y2.5712
G01 X33.2247 Y2.5155
G01 X33.2957 Y2.4819
G01 X33.4184 Y2.4201
G01 X33.5423 Y2.3501
G01 X33.6097 Y2.3097
G01 X33.7258 Y2.2362
G01 X33.8422 Y2.1543
G01 X33.9053 Y2.1076
G01 X34.0136 Y2.0230
G01 X34.1215 Y1.9301
G01 X34.1796 Y1.8774
G01 X34.2827 Y1.7792
G01 X34.3774 Y1.6796
G01 X34.4301 Y1.6215
G01 X34.5230 Y1.5136
G01 X34.6076 Y1.4053
G01 X34.6543 Y1.3422
G01 X34.7362 Y1.2258
G01 X34.8097 Y1.1097
G01 X34.8501 Y1.0423
G01 X34.9201 Y0.9184
G01 X34.9819 Y0.7957
G01 X35.0155 Y0.7247
G01 X35.0731 Y0.5945
G01 X35.1225 Y0.4663
G01 X35.1490 Y0.3924
G01 X35.1921 Y0.2619
G01 X35.2302 Y0.1247
G01 X35.2492 Y0.0486
G01 X35.2794 Y-0.0855
G01 X35.3038 Y-0.2257
G01 X35.3153 Y-0.3034
G01 X35.3272 Y-0.4000
G00 X35.3272 Y-0.4000
G01 F100.00
G01 Z-2.6000
G01 F300.00
G01 X35.3153 Y-0.3034
G01 X35.3038 Y-0.2257
G01 X35.2794 Y-0.0855
G01 X35.2492 Y0.0486
G01 X35.2302 Y0.1247
G01 X35.1921 Y0.2619
G01 X35.1490 Y0.3924
G01 X35.1225 Y0.4663
G01 X35.0731 Y0.5945
G01 X35.0155 Y0.7247
G01 X34.9819 Y0.7957
G01 X34.9201 Y0.9184
G01 X34.8501 Y1.0423
G01 X34.8097 Y1.1097
G01 X34.7362 Y1.2258
G01 X34.6543 Y1.3422
G01 X34.6076 Y1.4053
G01 X34.5230 Y1.5136
G01 X34.4301 Y1.6215
G01 X34.3774 Y1.6796
G01 X34.2827 Y1.7792
G01 X34.1796 Y1.8774
G01 X34.1215 Y1.9301
G01 X34.0136 Y2.0230
G01 X33.9053 Y2.1076
G01 X33.8422 Y2.1543
G01 X33.7258 Y2.2362
G01 X33.6097 Y2.3097
G01 X33.5423 Y2.3501
G01 X33.4184 Y2.4201
G01 X33.2957 Y2.4819
G01 X33.2247 Y2.5155
G01 X33.0990 Y2.5712
G01 X32.9663 Y2.6225
G01 X32.8924 Y2.6490
G01 X32.7572 Y2.6935
G01 X32.6247 Y2.7302
G01 X32.5486 Y2.7492
G01 X32.4097 Y2.7803
G01 X32.2743 Y2.8038
G01 X32.1966 Y2.8153
G01 X32.0553 Y2.8326
G01 X31.9183 Y2.8427
G01 X31.8398 Y2.8466
G01 X31.7687 Y2.8492
G01 X31.7000 Y2.8500
G01 X0.8000 Y2.8500
G01 X0.7288 Y2.8491
G01 X0.6602 Y2.8466
G01 X0.5817 Y2.8427
G01 X0.4447 Y2.8326
G01 X0.3034 Y2.8153
G01 X0.2257 Y2.8038
G01 X0.0903 Y2.7803
G01 X-0.0486 Y2.7492
G01 X-0.1247 Y2.7302
G01 X-0.2619 Y2.6921
G01 X-0.3924 Y2.6490
G01 X-0.4663 Y2.6225
G01 X-0.5945 Y2.5731
G01 X-0.7247 Y2.5155
G01 X-0.7957 Y2.4819
G01 X-0.9227 Y2.4178
G01 X-1.0423 Y2.3501
G01 X-1.1097 Y2.3097
G01 X-1.2299 Y2.2335
G01 X-1.3422 Y2.1543
G01 X-1.4053 Y2.1076
G01 X-1.5136 Y2.0230
G01 X-1.6215 Y1.9301
G01 X-1.6796 Y1.8774
G01 X-1.7792 Y1.7827
G01 X-1.8774 Y1.6796
G01 X-1.9301 Y1.6215
G01 X-2.0199 Y1.5174
G01 X-2.1076 Y1.4053
G01 X-2.1543 Y1.3422
G01 X-2.2362 Y1.2258
G01 X-2.3097 Y1.1097
G01 X-2.3501 Y1.0423
G01 X-2.4178 Y0.9227
G01 X-2.4819 Y0.7957
G01 X-2.5155 Y0.7247
G01 X-2.5731 Y0.5945
G01 X-2.6225 Y0.4663
G01 X-2.6490 Y0.3924
G01 X-2.6935 Y0.2572
G01 X-2.7302 Y0.1247
G01 X-2.7492 Y0.0486
G01 X-2.7794 Y-0.0855
G01 X-2.8038 Y-0.2257
G01 X-2.8153 Y-0.3034
G01 X-2.8272 Y-0.4000
G00 X-2.8272 Y-0.4000
G01 F100.00
G01 Z-2.7000
G01 F300.00
G01 X-2.8153 Y-0.3034
G01 X-2.8038 Y-0.2257
G01 X-2.7794 Y-0.0855
G01 X-2.7492 Y0.0486
G01 X-2.7302 Y0.1247
G01 X-2.6935 Y0.2572
G01 X-2.6490 Y0.3924
G01 X-2.6225 Y0.4663
G01 X-2.5731 Y0.5945
G01 X-2.5155 Y0.7247
G01 X-2.4819 Y0.7957
G01 X-2.4178 Y0.9227
G01 X-2.3501 Y1.0423
G01 X-2.3097 Y1.1097
G01 X-2.2362 Y1.2258
G01 X-2.1543 Y1.3422
G01 X-2.1076 Y1.4053
G01 X-2.0199 Y1.5174
G01 X-1.9301 Y1.6215
G01 X-1.8774 Y1.6796
G01 X-1.7792 Y1.7827
G01 X-1.6796 Y1.8774
G01 X-1.6215 Y1.9301
G01 X-1.5136 Y2.0230
G01 X-1.4053 Y2.1076
G01 X-1.3422 Y2.1543
G01 X-1.2299 Y2.2335
G01 X-1.1097 Y2.3097
G01 X-1.0423 Y2.3501
G01 X-0.9227 Y2.4178
G01 X-0.7957 Y2.4819
G01 X-0.7247 Y2.5155
G01 X-0.5945 Y2.5731
G01 X-0.4663 Y2.6225
G01 X-0.3924 Y2.6490
G01 X-0.2619 Y2.6921
G01 X-0.1247 Y2.7302
G01 X-0.0486 Y2.7492
G01 X0.0903 Y2.7803
G01 X0.2257 Y2.8038
G01 X0.3034 Y2.8153
G01 X0.4447 Y2.8326
G01 X0.5817 Y2.8427
G01 X0.6602 Y2.8466
G01 X0.7288 Y2.8491
G01 X0.8000 Y2.8500
G01 X31.7000 Y2.8500
G01 X31.7687 Y2.8492
G01 X31.8398 Y2.8466
G01 X31.9183 Y2.8427
G01 X32.0553 Y2.8326
G01 X32.1966 Y2.8153
G01 X32.2743 Y2.8038
G01 X32.4097 Y2.7803
G01 X32.5486 Y2.7492
G01 X32.6247 Y2.7302
G01 X32.7572 Y2.6935
G01 X32.8924 Y2.6490
G01 X32.9663 Y2.6225
G01 X33.0990 Y2.5712
G01 X33.2247 Y2.5155
G01 X33.2957 Y2.4819
G01 X33.4184 Y2.4201
G01 X33.5423 Y2.3501
G01 X33.6097 Y2.3097
G01 X33.7258 Y2.2362
G01 X33.8422 Y2.1543
G01 X33.9053 Y2.1076
G01 X34.0136 Y2.0230
G01 X34.1215 Y1.9301
G01 X34.1796 Y1.8774
G01 X34.2827 Y1.7792
G01 X34.3774 Y1.6796
G01 X34.4301 Y1.6215
G01 X34.5230 Y1.5136
G01 X34.6076 Y1.4053
G01 X34.6543 Y1.3422
G01 X34.7362 Y1.2258
G01 X34.8097 Y1.1097
G01 X34.8501 Y1.0423
G01 X34.9201 Y0.9184
G01 X34.9819 Y0.7957
G01 X35.0155 Y0.7247
G01 X35.0731 Y0.5945
G01 X35.1225 Y0.4663
G01 X35.1490 Y0.3924
G01 X35.1921 Y0.2619
G01 X35.2302 Y0.1247
G01 X35.2492 Y0.0486
G01 X35.2794 Y-0.0855
G01 X35.3038 Y-0.2257
G01 X35.3153 Y-0.3034
G01 X35.3272 Y-0.4000
G00 X35.3272 Y-0.4000
G01 F100.00
G01 Z-2.8000
G01 F300.00
G01 X35.3153 Y-0.3034
G01 X35.3038 Y-0.2257
G01 X35.2794 Y-0.0855
G01 X35.2492 Y0.0486
G01 X35.2302 Y0.1247
G01 X35.1921 Y0.2619
G01 X35.1490 Y0.3924
G01 X35.1225 Y0.4663
G01 X35.0731 Y0.5945
G01 X35.0155 Y0.7247
G01 X34.9819 Y0.7957
G01 X34.9201 Y0.9184
G01 X34.8501 Y1.0423
G01 X34.8097 Y1.1097
G01 X34.7362 Y1.2258
G01 X34.6543 Y1.3422
G01 X34.6076 Y1.4053
G01 X34.5230 Y1.5136
G01 X34.4301 Y1.6215
G01 X34.3774 Y1.6796
G01 X34.2827 Y1.7792
G01 X34.1796 Y1.8774
G01 X34.1215 Y1.9301
G01 X34.0136 Y2.0230
G01 X33.9053 Y2.1076
G01 X33.8422 Y2.1543
G01 X33.7258 Y2.2362
G01 X33.6097 Y2.3097
G01 X33.5423 Y2.3501
G01 X33.4184 Y2.4201
G01 X33.2957 Y2.4819
G01 X33.2247 Y2.5155
G01 X33.0990 Y2.5712
G01 X32.9663 Y2.6225
G01 X32.8924 Y2.6490
G01 X32.7572 Y2.6935
G01 X32.6247 Y2.7302
G01 X32.5486 Y2.7492
G01 X32.4097 Y2.7803
G01 X32.2743 Y2.8038
G01 X32.1966 Y2.8153
G01 X32.0553 Y2.8326
G01 X31.9183 Y2.8427
G01 X31.8398 Y2.8466
G01 X31.7687 Y2.8492
G01 X31.7000 Y2.8500
G01 X0.8000 Y2.8500
G01 X0.7288 Y2.8491
G01 X0.6602 Y2.8466
G01 X0.5817 Y2.8427
G01 X0.4447 Y2.8326
G01 X0.3034 Y2.8153
G01 X0.2257 Y2.8038
G01 X0.0903 Y2.7803
G01 X-0.0486 Y2.7492
G01 X-0.1247 Y2.7302
G01 X-0.2619 Y2.6921
G01 X-0.3924 Y2.6490
G01 X-0.4663 Y2.6225
G01 X-0.5945 Y2.5731
G01 X-0.7247 Y2.5155
G01 X-0.7957 Y2.4819
G01 X-0.9227 Y2.4178
G01 X-1.0423 Y2.3501
G01 X-1.1097 Y2.3097
G01 X-1.2299 Y2.2335
G01 X-1.3422 Y2.1543
G01 X-1.4053 Y2.1076
G01 X-1.5136 Y2.0230
G01 X-1.6215 Y1.9301
G01 X-1.6796 Y1.8774
G01 X-1.7792 Y1.7827
G01 X-1.8774 Y1.6796
G01 X-1.9301 Y1.6215
G01 X-2.0199 Y1.5174
G01 X-2.1076 Y1.4053
G01 X-2.1543 Y1.3422
G01 X-2.2362 Y1.2258
G01 X-2.3097 Y1.1097
G01 X-2.3501 Y1.0423
G01 X-2.4178 Y0.9227
G01 X-2.4819 Y0.7957
G01 X-2.5155 Y0.7247
G01 X-2.5731 Y0.5945
G01 X-2.6225 Y0.4663
G01 X-2.6490 Y0.3924
G01 X-2.6935 Y0.2572
G01 X-2.7302 Y0.1247
G01 X-2.7492 Y0.0486
G01 X-2.7794 Y-0.0855
G01 X-2.8038 Y-0.2257
G01 X-2.8153 Y-0.3034
G01 X-2.8272 Y-0.4000
G00 X-2.8272 Y-0.4000
G01 F100.00
G01 Z-2.9000
G01 F300.00
G01 X-2.8153 Y-0.3034
G01 X-2.8038 Y-0.2257
G01 X-2.7794 Y-0.0855
G01 X-2.7492 Y0.0486
G01 X-2.7302 Y0.1247
G01 X-2.6935 Y0.2572
G01 X-2.6490 Y0.3924
G01 X-2.6225 Y0.4663
G01 X-2.5731 Y0.5945
G01 X-2.5155 Y0.7247
G01 X-2.4819 Y0.7957
G01 X-2.4178 Y0.9227
G01 X-2.3501 Y1.0423
G01 X-2.3097 Y1.1097
G01 X-2.2362 Y1.2258
G01 X-2.1543 Y1.3422
G01 X-2.1076 Y1.4053
G01 X-2.0199 Y1.5174
G01 X-1.9301 Y1.6215
G01 X-1.8774 Y1.6796
G01 X-1.7792 Y1.7827
G01 X-1.6796 Y1.8774
G01 X-1.6215 Y1.9301
G01 X-1.5136 Y2.0230
G01 X-1.4053 Y2.1076
G01 X-1.3422 Y2.1543
G01 X-1.2299 Y2.2335
G01 X-1.1097 Y2.3097
G01 X-1.0423 Y2.3501
G01 X-0.9227 Y2.4178
G01 X-0.7957 Y2.4819
G01 X-0.7247 Y2.5155
G01 X-0.5945 Y2.5731
G01 X-0.4663 Y2.6225
G01 X-0.3924 Y2.6490
G01 X-0.2619 Y2.6921
G01 X-0.1247 Y2.7302
G01 X-0.0486 Y2.7492
G01 X0.0903 Y2.7803
G01 X0.2257 Y2.8038
G01 X0.3034 Y2.8153
G01 X0.4447 Y2.8326
G01 X0.5817 Y2.8427
G01 X0.6602 Y2.8466
G01 X0.7288 Y2.8491
G01 X0.8000 Y2.8500
G01 X31.7000 Y2.8500
G01 X31.7687 Y2.8492
G01 X31.8398 Y2.8466
G01 X31.9183 Y2.8427
G01 X32.0553 Y2.8326
G01 X32.1966 Y2.8153
G01 X32.2743 Y2.8038
G01 X32.4097 Y2.7803
G01 X32.5486 Y2.7492
G01 X32.6247 Y2.7302
G01 X32.7572 Y2.6935
G01 X32.8924 Y2.6490
G01 X32.9663 Y2.6225
G01 X33.0990 Y2.5712
G01 X33.2247 Y2.5155
G01 X33.2957 Y2.4819
G01 X33.4184 Y2.4201
G01 X33.5423 Y2.3501
G01 X33.6097 Y2.3097
G01 X33.7258 Y2.2362
G01 X33.8422 Y2.1543
G01 X33.9053 Y2.1076
G01 X34.0136 Y2.0230
G01 X34.1215 Y1.9301
G01 X34.1796 Y1.8774
G01 X34.2827 Y1.7792
G01 X34.3774 Y1.6796
G01 X34.4301 Y1.6215
G01 X34.5230 Y1.5136
G01 X34.6076 Y1.4053
G01 X34.6543 Y1.3422
G01 X34.7362 Y1.2258
G01 X34.8097 Y1.1097
G01 X34.8501 Y1.0423
G01 X34.9201 Y0.9184
G01 X34.9819 Y0.7957
G01 X35.0155 Y0.7247
G01 X35.0731 Y0.5945
G01 X35.1225 Y0.4663
G01 X35.1490 Y0.3924
G01 X35.1921 Y0.2619
G01 X35.2302 Y0.1247
G01 X35.2492 Y0.0486
G01 X35.2794 Y-0.0855
G01 X35.3038 Y-0.2257
G01 X35.3153 Y-0.3034
G01 X35.3272 Y-0.4000
G00 X35.3272 Y-0.4000
G01 F100.00
G01 Z-3.0000
G01 F300.00
G01 X35.3153 Y-0.3034
G01 X35.3038 Y-0.2257
G01 X35.2794 Y-0.0855
G01 X35.2492 Y0.0486
G01 X35.2302 Y0.1247
G01 X35.1921 Y0.2619
G01 X35.1490 Y0.3924
G01 X35.1225 Y0.4663
G01 X35.0731 Y0.5945
G01 X35.0155 Y0.7247
G01 X34.9819 Y0.7957
G01 X34.9201 Y0.9184
G01 X34.8501 Y1.0423
G01 X34.8097 Y1.1097
G01 X34.7362 Y1.2258
G01 X34.6543 Y1.3422
G01 X34.6076 Y1.4053
G01 X34.5230 Y1.5136
G01 X34.4301 Y1.6215
G01 X34.3774 Y1.6796
G01 X34.2827 Y1.7792
G01 X34.1796 Y1.8774
G01 X34.1215 Y1.9301
G01 X34.0136 Y2.0230
G01 X33.9053 Y2.1076
G01 X33.8422 Y2.1543
G01 X33.7258 Y2.2362
G01 X33.6097 Y2.3097
G01 X33.5423 Y2.3501
G01 X33.4184 Y2.4201
G01 X33.2957 Y2.4819
G01 X33.2247 Y2.5155
G01 X33.0990 Y2.5712
G01 X32.9663 Y2.6225
G01 X32.8924 Y2.6490
G01 X32.7572 Y2.6935
G01 X32.6247 Y2.7302
G01 X32.5486 Y2.7492
G01 X32.4097 Y2.7803
G01 X32.2743 Y2.8038
G01 X32.1966 Y2.8153
G01 X32.0553 Y2.8326
G01 X31.9183 Y2.8427
G01 X31.8398 Y2.8466
G01 X31.7687 Y2.8492
G01 X31.7000 Y2.8500
G01 X0.8000 Y2.8500
G01 X0.7288 Y2.8491
G01 X0.6602 Y2.8466
G01 X0.5817 Y2.8427
G01 X0.4447 Y2.8326
G01 X0.3034 Y2.8153
G01 X0.2257 Y2.8038
G01 X0.0903 Y2.7803
G01 X-0.0486 Y2.7492
G01 X-0.1247 Y2.7302
G01 X-0.2619 Y2.6921
G01 X-0.3924 Y2.6490
G01 X-0.4663 Y2.6225
G01 X-0.5945 Y2.5731
G01 X-0.7247 Y2.5155
G01 X-0.7957 Y2.4819
G01 X-0.9227 Y2.4178
G01 X-1.0423 Y2.3501
G01 X-1.1097 Y2.3097
G01 X-1.2299 Y2.2335
G01 X-1.3422 Y2.1543
G01 X-1.4053 Y2.1076
G01 X-1.5136 Y2.0230
G01 X-1.6215 Y1.9301
G01 X-1.6796 Y1.8774
G01 X-1.7792 Y1.7827
G01 X-1.8774 Y1.6796
G01 X-1.9301 Y1.6215
G01 X-2.0199 Y1.5174
G01 X-2.1076 Y1.4053
G01 X-2.1543 Y1.3422
G01 X-2.2362 Y1.2258
G01 X-2.3097 Y1.1097
G01 X-2.3501 Y1.0423
G01 X-2.4178 Y0.9227
G01 X-2.4819 Y0.7957
G01 X-2.5155 Y0.7247
G01 X-2.5731 Y0.5945
G01 X-2.6225 Y0.4663
G01 X-2.6490 Y0.3924
G01 X-2.6935 Y0.2572
G01 X-2.7302 Y0.1247
G01 X-2.7492 Y0.0486
G01 X-2.7794 Y-0.0855
G01 X-2.8038 Y-0.2257
G01 X-2.8153 Y-0.3034
G01 X-2.8272 Y-0.4000
G00 X-2.8272 Y-0.4000
G01 F100.00
G01 Z-3.1000
G01 F300.00
G01 X-2.8153 Y-0.3034
G01 X-2.8038 Y-0.2257
G01 X-2.7794 Y-0.0855
G01 X-2.7492 Y0.0486
G01 X-2.7302 Y0.1247
G01 X-2.6935 Y0.2572
G01 X-2.6490 Y0.3924
G01 X-2.6225 Y0.4663
G01 X-2.5731 Y0.5945
G01 X-2.5155 Y0.7247
G01 X-2.4819 Y0.7957
G01 X-2.4178 Y0.9227
G01 X-2.3501 Y1.0423
G01 X-2.3097 Y1.1097
G01 X-2.2362 Y1.2258
G01 X-2.1543 Y1.3422
G01 X-2.1076 Y1.4053
G01 X-2.0199 Y1.5174
G01 X-1.9301 Y1.6215
G01 X-1.8774 Y1.6796
G01 X-1.7792 Y1.7827
G01 X-1.6796 Y1.8774
G01 X-1.6215 Y1.9301
G01 X-1.5136 Y2.0230
G01 X-1.4053 Y2.1076
G01 X-1.3422 Y2.1543
G01 X-1.2299 Y2.2335
G01 X-1.1097 Y2.3097
G01 X-1.0423 Y2.3501
G01 X-0.9227 Y2.4178
G01 X-0.7957 Y2.4819
G01 X-0.7247 Y2.5155
G01 X-0.5945 Y2.5731
G01 X-0.4663 Y2.6225
G01 X-0.3924 Y2.6490
G01 X-0.2619 Y2.6921
G01 X-0.1247 Y2.7302
G01 X-0.0486 Y2.7492
G01 X0.0903 Y2.7803
G01 X0.2257 Y2.8038
G01 X0.3034 Y2.8153
G01 X0.4447 Y2.8326
G01 X0.5817 Y2.8427
G01 X0.6602 Y2.8466
G01 X0.7288 Y2.8491
G01 X0.8000 Y2.8500
G01 X31.7000 Y2.8500
G01 X31.7687 Y2.8492
G01 X31.8398 Y2.8466
G01 X31.9183 Y2.8427
G01 X32.0553 Y2.8326
G01 X32.1966 Y2.8153
G01 X32.2743 Y2.8038
G01 X32.4097 Y2.7803
G01 X32.5486 Y2.7492
G01 X32.6247 Y2.7302
G01 X32.7572 Y2.6935
G01 X32.8924 Y2.6490
G01 X32.9663 Y2.6225
G01 X33.0990 Y2.5712
G01 X33.2247 Y2.5155
G01 X33.2957 Y2.4819
G01 X33.4184 Y2.4201
G01 X33.5423 Y2.3501
G01 X33.6097 Y2.3097
G01 X33.7258 Y2.2362
G01 X33.8422 Y2.1543
G01 X33.9053 Y2.1076
G01 X34.0136 Y2.0230
G01 X34.1215 Y1.9301
G01 X34.1796 Y1.8774
G01 X34.2827 Y1.7792
G01 X34.3774 Y1.6796
G01 X34.4301 Y1.6215
G01 X34.5230 Y1.5136
G01 X34.6076 Y1.4053
G01 X34.6543 Y1.3422
G01 X34.7362 Y1.2258
G01 X34.8097 Y1.1097
G01 X34.8501 Y1.0423
G01 X34.9201 Y0.9184
G01 X34.9819 Y0.7957
G01 X35.0155 Y0.7247
G01 X35.0731 Y0.5945
G01 X35.1225 Y0.4663
G01 X35.1490 Y0.3924
G01 X35.1921 Y0.2619
G01 X35.2302 Y0.1247
G01 X35.2492 Y0.0486
G01 X35.2794 Y-0.0855
G01 X35.3038 Y-0.2257
G01 X35.3153 Y-0.3034
G01 X35.3272 Y-0.4000
G00 X35.3272 Y-0.4000
G01 F100.00
G01 Z-3.2000
G01 F300.00
G01 X35.3153 Y-0.3034
G01 X35.3038 Y-0.2257
G01 X35.2794 Y-0.0855
G01 X35.2492 Y0.0486
G01 X35.2302 Y0.1247
G01 X35.1921 Y0.2619
G01 X35.1490 Y0.3924
G01 X35.1225 Y0.4663
G01 X35.0731 Y0.5945
G01 X35.0155 Y0.7247
G01 X34.9819 Y0.7957
G01 X34.9201 Y0.9184
G01 X34.8501 Y1.0423
G01 X34.8097 Y1.1097
G01 X34.7362 Y1.2258
G01 X34.6543 Y1.3422
G01 X34.6076 Y1.4053
G01 X34.5230 Y1.5136
G01 X34.4301 Y1.6215
G01 X34.3774 Y1.6796
G01 X34.2827 Y1.7792
G01 X34.1796 Y1.8774
G01 X34.1215 Y1.9301
G01 X34.0136 Y2.0230
G01 X33.9053 Y2.1076
G01 X33.8422 Y2.1543
G01 X33.7258 Y2.2362
G01 X33.6097 Y2.3097
G01 X33.5423 Y2.3501
G01 X33.4184 Y2.4201
G01 X33.2957 Y2.4819
G01 X33.2247 Y2.5155
G01 X33.0990 Y2.5712
G01 X32.9663 Y2.6225
G01 X32.8924 Y2.6490
G01 X32.7572 Y2.6935
G01 X32.6247 Y2.7302
G01 X32.5486 Y2.7492
G01 X32.4097 Y2.7803
G01 X32.2743 Y2.8038
G01 X32.1966 Y2.8153
G01 X32.0553 Y2.8326
G01 X31.9183 Y2.8427
G01 X31.8398 Y2.8466
G01 X31.7687 Y2.8492
G01 X31.7000 Y2.8500
G01 X0.8000 Y2.8500
G01 X0.7288 Y2.8491
G01 X0.6602 Y2.8466
G01 X0.5817 Y2.8427
G01 X0.4447 Y2.8326
G01 X0.3034 Y2.8153
G01 X0.2257 Y2.8038
G01 X0.0903 Y2.7803
G01 X-0.0486 Y2.7492
G01 X-0.1247 Y2.7302
G01 X-0.2619 Y2.6921
G01 X-0.3924 Y2.6490
G01 X-0.4663 Y2.6225
G01 X-0.5945 Y2.5731
G01 X-0.7247 Y2.5155
G01 X-0.7957 Y2.4819
G01 X-0.9227 Y2.4178
G01 X-1.0423 Y2.3501
G01 X-1.1097 Y2.3097
G01 X-1.2299 Y2.2335
G01 X-1.3422 Y2.1543
G01 X-1.4053 Y2.1076
G01 X-1.5136 Y2.0230
G01 X-1.6215 Y1.9301
G01 X-1.6796 Y1.8774
G01 X-1.7792 Y1.7827
G01 X-1.8774 Y1.6796
G01 X-1.9301 Y1.6215
G01 X-2.0199 Y1.5174
G01 X-2.1076 Y1.4053
G01 X-2.1543 Y1.3422
G01 X-2.2362 Y1.2258
G01 X-2.3097 Y1.1097
G01 X-2.3501 Y1.0423
G01 X-2.4178 Y0.9227
G01 X-2.4819 Y0.7957
G01 X-2.5155 Y0.7247
G01 X-2.5731 Y0.5945
G01 X-2.6225 Y0.4663
G01 X-2.6490 Y0.3924
G01 X-2.6935 Y0.2572
G01 X-2.7302 Y0.1247
G01 X-2.7492 Y0.0486
G01 X-2.7794 Y-0.0855
G01 X-2.8038 Y-0.2257
G01 X-2.8153 Y-0.3034
G01 X-2.8272 Y-0.4000
G00 Z2.0000
G00 X35.3500 Y-2.5000
G01 F100.00
G01 Z-0.1000
G01 F300.00
G01 X35.3500 Y-5.7000
G01 X35.3491 Y-5.7712
G01 X35.3466 Y-5.8398
G01 X35.3427 Y-5.9183
G01 X35.3321 Y-6.0602
G01 X35.3153 Y-6.1966
G01 X35.3038 Y-6.2743
G01 X35.2803 Y-6.4097
G01 X35.2492 Y-6.5486
G01 X35.2302 Y-6.6247
G01 X35.1921 Y-6.7619
G01 X35.1490 Y-6.8924
G01 X35.1225 Y-6.9663
G01 X35.0712 Y-7.0990
G01 X35.0155 Y-7.2247
G01 X34.9819 Y-7.2957
G01 X34.9178 Y-7.4227
G01 X34.8501 Y-7.5423
G01 X34.8097 Y-7.6097
G01 X34.7335 Y-7.7299
G01 X34.6543 Y-7.8422
G01 X34.6076 Y-7.9053
G01 X34.5199 Y-8.0174
G01 X34.4301 Y-8.1215
G01 X34.3774 Y-8.1796
G01 X34.2827 Y-8.2792
G01 X34.1796 Y-8.3774
G01 X34.1215 Y-8.4301
G01 X34.0136 Y-8.5230
G01 X33.9053 Y-8.6076
G01 X33.8422 Y-8.6543
G01 X33.7258 Y-8.7362
G01 X33.6097 Y-8.8097
G01 X33.5423 Y-8.8501
G01 X33.4184 Y-8.9201
G01 X33.2957 Y-8.9819
G01 X33.2247 Y-9.0155
G01 X33.0945 Y-9.0731
G01 X32.9663 Y-9.1225
G01 X32.8924 Y-9.1490
G01 X32.7619 Y-9.1921
G01 X32.6247 Y-9.2302
G01 X32.5486 Y-9.2492
G01 X32.4097 Y-9.2803
G01 X32.2743 Y-9.3038
G01 X32.1966 Y-9.3153
G01 X32.0553 Y-9.3326
G01 X31.9183 Y-9.3427
G01 X31.8398 Y-9.3466
G01 X31.7712 Y-9.3491
G01 X31.7000 Y-9.3500
G01 X0.8000 Y-9.3500
G01 X0.7288 Y-9.3491
G01 X0.6602 Y-9.3466
G01 X0.5817 Y-9.3427
G01 X0.4398 Y-9.3321
G01 X0.3034 Y-9.3153
G01 X0.2257 Y-9.3038
G01 X0.0855 Y-9.2794
G01 X-0.0486 Y-9.2492
G01 X-0.1247 Y-9.2302
G01 X-0.2572 Y-9.1935
G01 X-0.3924 Y-9.1490
G01 X-0.4663 Y-9.1225
G01 X-0.5990 Y-9.0712
G01 X-0.7247 Y-9.0155
G01 X-0.7957 Y-8.9819
G01 X-0.9227 Y-8.9178
G01 X-1.0423 Y-8.8501
G01 X-1.1097 Y-8.8097
G01 X-1.2299 Y-8.7335
G01 X-1.3422 Y-8.6543
G01 X-1.4053 Y-8.6076
G01 X-1.5174 Y-8.5199
G01 X-1.6215 Y-8.4301
G01 X-1.6796 Y-8.3774
G01 X-1.7827 Y-8.2792
G01 X-1.8774 Y-8.1796
G01 X-1.9301 Y-8.1215
G01 X-2.0230 Y-8.0136
G01 X-2.1076 Y-7.9053
G01 X-2.1543 Y-7.8422
G01 X-2.2362 Y-7.7258
G01 X-2.3097 Y-7.6097
G01 X-2.3501 Y-7.5423
G01 X-2.4201 Y-7.4184
G01 X-2.4819 Y-7.2957
G01 X-2.5155 Y-7.2247
G01 X-2.5731 Y-7.0945
G01 X-2.6225 Y-6.9663
G01 X-2.6490 Y-6.8924
G01 X-2.6935 Y-6.7572
G01 X-2.7302 Y-6.6247
G01 X-2.7492 Y-6.5486
G01 X-2.7803 Y-6.4097
G01 X-2.8038 Y-6.2743
G01 X-2.8153 Y-6.1966
G01 X-2.8326 Y-6.0553
G01 X-2.8427 Y-5.9183
G01 X-2.8466 Y-5.8398
G01 X-2.8491 Y-5.7712
G01 X-2.8500 Y-5.7000
G01 X-2.8500 Y-2.5000
G00 X-2.8500 Y-2.5000
G01 F100.00
G01 Z-0.2000
G01 F300.00
G01 X-2.8500 Y-5.7000
G01 X-2.8491 Y-5.7712
G01 X-2.8466 Y-5.8398
G01 X-2.8427 Y-5.9183
G01 X-2.8326 Y-6.0553
G01 X-2.8153 Y-6.1966
G01 X-2.8038 Y-6.2743
G01 X-2.7803 Y-6.4097
G01 X-2.7492 Y-6.5486
G01 X-2.7302 Y-6.6247
G01 X-2.6935 Y-6.7572
G01 X-2.6490 Y-6.8924
G01 X-2.6225 Y-6.9663
G01 X-2.5731 Y-7.0945
G01 X-2.5155 Y-7.2247
G01 X-2.4819 Y-7.2957
G01 X-2.4201 Y-7.4184
G01 X-2.3501 Y-7.5423
G01 X-2.3097 Y-7.6097
G01 X-2.2362 Y-7.7258
G01 X-2.1543 Y-7.8422
G01 X-2.1076 Y-7.9053
G01 X-2.0230 Y-8.0136
G01 X-1.9301 Y-8.1215
G01 X-1.8774 Y-8.1796
G01 X-1.7827 Y-8.2792
G01 X-1.6796 Y-8.3774
G01 X-1.6215 Y-8.4301
G01 X-1.5174 Y-8.5199
G01 X-1.4053 Y-8.6076
G01 X-1.3422 Y-8.6543
G01 X-1.2299 Y-8.7335
G01 X-1.1097 Y-8.8097
G01 X-1.0423 Y-8.8501
G01 X-0.9227 Y-8.9178
G01 X-0.7957 Y-8.9819
G01 X-0.7247 Y-9.0155
G01 X-0.5990 Y-9.0712
G01 X-0.4663 Y-9.1225
G01 X-0.3924 Y-9.1490
G01 X-0.2572 Y-9.1935
G01 X-0.1247 Y-9.2302
G01 X-0.0486 Y-9.2492
G01 X0.0855 Y-9.2794
G01 X0.2257 Y-9.3038
G01 X0.3034 Y-9.3153
G01 X0.4398 Y-9.3321
G01 X0.5817 Y-9.3427
G01 X0.6602 Y-9.3466
G01 X0.7288 Y-9.3491
G01 X0.8000 Y-9.3500
G01 X31.7000 Y-9.3500
G01 X31.7712 Y-9.3491
G01 X31.8398 Y-9.3466
G01 X31.9183 Y-9.3427
G01 X32.0553 Y-9.3326
G01 X32.1966 Y-9.3153
G01 X32.2743 Y-9.3038
G01 X32.4097 Y-9.2803
G01 X32.5486 Y-9.2492
G01 X32.6247 Y-9.2302
G01 X32.7619 Y-9.1921
G01 X32.8924 Y-9.1490
G01 X32.9663 Y-9.1225
G01 X33.0945 Y-9.0731
G01 X33.2247 Y-9.0155
G01 X33.2957 Y-8.9819
G01 X33.4184 Y-8.9201
G01 X33.5423 Y-8.8501
G01 X33.6097 Y-8.8097
G01 X33.7258 Y-8.7362
G01 X33.8422 Y-8.6543
G01 X33.9053 Y-8.6076
G01 X34.0136 Y-8.5230
G01 X34.1215 Y-8.4301
G01 X34.1796 Y-8.3774
G01 X34.2827 Y-8.2792
G01 X34.3774 Y-8.1796
G01 X34.4301 Y-8.1215
G01 X34.5199 Y-8.0174
G01 X34.6076 Y-7.9053
G01 X34.6543 Y-7.8422
G01 X34.7335 Y-7.7299
G01 X34.8097 Y-7.6097
G01 X34.8501 Y-7.5423
G01 X34.9178 Y-7.4227
G01 X34.9819 Y-7.2957
G01 X35.0155 Y-7.2247
G01 X35.0712 Y-7.0990
G01 X35.1225 Y-6.9663
G01 X35.1490 Y-6.8924
G01 X35.1921 Y-6.7619
G01 X35.2302 Y-6.6247
G01 X35.2492 Y-6.5486
G01 X35.2803 Y-6.4097
G01 X35.3038 Y-6.2743
G01 X35.3153 Y-6.1966
G01 X35.3321 Y-6.0602
G01 X35.3427 Y-5.9183
G01 X35.3466 Y-5.8398
G01 X35.3491 Y-5.7712
G01 X35.3500 Y-5.7000
G01 X35.3500 Y-2.5000
G00 X35.3500 Y-2.5000
G01 F100.00
G01 Z-0.3000
G01 F300.00
G01 X35.3500 Y-5.7000
G01 X35.3491 Y-5.7712
G01 X35.3466 Y-5.8398
G01 X35.3427 Y-5.9183
G01 X35.3321 Y-6.0602
G01 X35.3153 Y-6.1966
G01 X35.3038 Y-6.2743
G01 X35.2803 Y-6.4097
G01 X35.2492 Y-6.5486
G01 X35.2302 Y-6.6247
G01 X35.1921 Y-6.7619
G01 X35.1490 Y-6.8924
G01 X35.1225 Y-6.9663
G01 X35.0712 Y-7.0990
G01 X35.0155 Y-7.2247
G01 X34.9819 Y-7.2957
G01 X34.9178 Y-7.4227
G01 X34.8501 Y-7.5423
G01 X34.8097 Y-7.6097
G01 X34.7335 Y-7.7299
G01 X34.6543 Y-7.8422
G01 X34.6076 Y-7.9053
G01 X34.5199 Y-8.0174
G01 X34.4301 Y-8.1215
G01 X34.3774 Y-8.1796
G01 X34.2827 Y-8.2792
G01 X34.1796 Y-8.3774
G01 X34.1215 Y-8.4301
G01 X34.0136 Y-8.5230
G01 X33.9053 Y-8.6076
G01 X33.8422 Y-8.6543
G01 X33.7258 Y-8.7362
G01 X33.6097 Y-8.8097
G01 X33.5423 Y-8.8501
G01 X33.4184 Y-8.9201
G01 X33.2957 Y-8.9819
G01 X33.2247 Y-9.0155
G01 X33.0945 Y-9.0731
G01 X32.9663 Y-9.1225
G01 X32.8924 Y-9.1490
G01 X32.7619 Y-9.1921
G01 X32.6247 Y-9.2302
G01 X32.5486 Y-9.2492
G01 X32.4097 Y-9.2803
G01 X32.2743 Y-9.3038
G01 X32.1966 Y-9.3153
G01 X32.0553 Y-9.3326
G01 X31.9183 Y-9.3427
G01 X31.8398 Y-9.3466
G01 X31.7712 Y-9.3491
G01 X31.7000 Y-9.3500
G01 X0.8000 Y-9.3500
G01 X0.7288 Y-9.3491
G01 X0.6602 Y-9.3466
G01 X0.5817 Y-9.3427
G01 X0.4398 Y-9.3321
G01 X0.3034 Y-9.3153
G01 X0.2257 Y-9.3038
G01 X0.0855 Y-9.2794
G01 X-0.0486 Y-9.2492
G01 X-0.1247 Y-9.2302
G01 X-0.2572 Y-9.1935
G01 X-0.3924 Y-9.1490
G01 X-0.4663 Y-9.1225
G01 X-0.5990 Y-9.0712
G01 X-0.7247 Y-9.0155
G01 X-0.7957 Y-8.9819
G01 X-0.9227 Y-8.9178
G01 X-1.0423 Y-8.8501
G01 X-1.1097 Y-8.8097
G01 X-1.2299 Y-8.7335
G01 X-1.3422 Y-8.6543
G01 X-1.4053 Y-8.6076
G01 X-1.5174 Y-8.5199
G01 X-1.6215 Y-8.4301
G01 X-1.6796 Y-8.3774
G01 X-1.7827 Y-8.2792
G01 X-1.8774 Y-8.1796
G01 X-1.9301 Y-8.1215
G01 X-2.0230 Y-8.0136
G01 X-2.1076 Y-7.9053
G01 X-2.1543 Y-7.8422
G01 X-2.2362 Y-7.7258
G01 X-2.3097 Y-7.6097
G01 X-2.3501 Y-7.5423
G01 X-2.4201 Y-7.4184
G01 X-2.4819 Y-7.2957
G01 X-2.5155 Y-7.2247
G01 X-2.5731 Y-7.0945
G01 X-2.6225 Y-6.9663
G01 X-2.6490 Y-6.8924
G01 X-2.6935 Y-6.7572
G01 X-2.7302 Y-6.6247
G01 X-2.7492 Y-6.5486
G01 X-2.7803 Y-6.4097
G01 X-2.8038 Y-6.2743
G01 X-2.8153 Y-6.1966
G01 X-2.8326 Y-6.0553
G01 X-2.8427 Y-5.9183
G01 X-2.8466 Y-5.8398
G01 X-2.8491 Y-5.7712
G01 X-2.8500 Y-5.7000
G01 X-2.8500 Y-2.5000
G00 X-2.8500 Y-2.5000
G01 F100.00
G01 Z-0.4000
G01 F300.00
G01 X-2.8500 Y-5.7000
G01 X-2.8491 Y-5.7712
G01 X-2.8466 Y-5.8398
G01 X-2.8427 Y-5.9183
G01 X-2.8326 Y-6.0553
G01 X-2.8153 Y-6.1966
G01 X-2.8038 Y-6.2743
G01 X-2.7803 Y-6.4097
G01 X-2.7492 Y-6.5486
G01 X-2.7302 Y-6.6247
G01 X-2.6935 Y-6.7572
G01 X-2.6490 Y-6.8924
G01 X-2.6225 Y-6.9663
G01 X-2.5731 Y-7.0945
G01 X-2.5155 Y-7.2247
G01 X-2.4819 Y-7.2957
G01 X-2.4201 Y-7.4184
G01 X-2.3501 Y-7.5423
G01 X-2.3097 Y-7.6097
G01 X-2.2362 Y-7.7258
G01 X-2.1543 Y-7.8422
G01 X-2.1076 Y-7.9053
G01 X-2.0230 Y-8.0136
G01 X-1.9301 Y-8.1215
G01 X-1.8774 Y-8.1796
G01 X-1.7827 Y-8.2792
G01 X-1.6796 Y-8.3774
G01 X-1.6215 Y-8.4301
G01 X-1.5174 Y-8.5199
G01 X-1.4053 Y-8.6076
G01 X-1.3422 Y-8.6543
G01 X-1.2299 Y-8.7335
G01 X-1.1097 Y-8.8097
G01 X-1.0423 Y-8.8501
G01 X-0.9227 Y-8.9178
G01 X-0.7957 Y-8.9819
G01 X-0.7247 Y-9.0155
G01 X-0.5990 Y-9.0712
G01 X-0.4663 Y-9.1225
G01 X-0.3924 Y-9.1490
G01 X-0.2572 Y-9.1935
G01 X-0.1247 Y-9.2302
G01 X-0.0486 Y-9.2492
G01 X0.0855 Y-9.2794
G01 X0.2257 Y-9.3038
G01 X0.3034 Y-9.3153
G01 X0.4398 Y-9.3321
G01 X0.5817 Y-9.3427
G01 X0.6602 Y-9.3466
G01 X0.7288 Y-9.3491
G01 X0.8000 Y-9.3500
G01 X31.7000 Y-9.3500
G01 X31.7712 Y-9.3491
G01 X31.8398 Y-9.3466
G01 X31.9183 Y-9.3427
G01 X32.0553 Y-9.3326
G01 X32.1966 Y-9.3153
G01 X32.2743 Y-9.3038
G01 X32.4097 Y-9.2803
G01 X32.5486 Y-9.2492
G01 X32.6247 Y-9.2302
G01 X32.7619 Y-9.1921
G01 X32.8924 Y-9.1490
G01 X32.9663 Y-9.1225
G01 X33.0945 Y-9.0731
G01 X33.2247 Y-9.0155
G01 X33.2957 Y-8.9819
G01 X33.4184 Y-8.9201
G01 X33.5423 Y-8.8501
G01 X33.6097 Y-8.8097
G01 X33.7258 Y-8.7362
G01 X33.8422 Y-8.6543
G01 X33.9053 Y-8.6076
G01 X34.0136 Y-8.5230
G01 X34.1215 Y-8.4301
G01 X34.1796 Y-8.3774
G01 X34.2827 Y-8.2792
G01 X34.3774 Y-8.1796
G01 X34.4301 Y-8.1215
G01 X34.5199 Y-8.0174
G01 X34.6076 Y-7.9053
G01 X34.6543 Y-7.8422
G01 X34.7335 Y-7.7299
G01 X34.8097 Y-7.6097
G01 X34.8501 Y-7.5423
G01 X34.9178 Y-7.4227
G01 X34.9819 Y-7.2957
G01 X35.0155 Y-7.2247
G01 X35.0712 Y-7.0990
G01 X35.1225 Y-6.9663
G01 X35.1490 Y-6.8924
G01 X35.1921 Y-6.7619
G01 X35.2302 Y-6.6247
G01 X35.2492 Y-6.5486
G01 X35.2803 Y-6.4097
G01 X35.3038 Y-6.2743
G01 X35.3153 Y-6.1966
G01 X35.3321 Y-6.0602
G01 X35.3427 Y-5.9183
G01 X35.3466 Y-5.8398
G01 X35.3491 Y-5.7712
G01 X35.3500 Y-5.7000
G01 X35.3500 Y-2.5000
G00 X35.3500 Y-2.5000
G01 F100.00
G01 Z-0.5000
G01 F300.00
G01 X35.3500 Y-5.7000
G01 X35.3491 Y-5.7712
G01 X35.3466 Y-5.8398
G01 X35.3427 Y-5.9183
G01 X35.3321 Y-6.0602
G01 X35.3153 Y-6.1966
G01 X35.3038 Y-6.2743
G01 X35.2803 Y-6.4097
G01 X35.2492 Y-6.5486
G01 X35.2302 Y-6.6247
G01 X35.1921 Y-6.7619
G01 X35.1490 Y-6.8924
G01 X35.1225 Y-6.9663
G01 X35.0712 Y-7.0990
G01 X35.0155 Y-7.2247
G01 X34.9819 Y-7.2957
G01 X34.9178 Y-7.4227
G01 X34.8501 Y-7.5423
G01 X34.8097 Y-7.6097
G01 X34.7335 Y-7.7299
G01 X34.6543 Y-7.8422
G01 X34.6076 Y-7.9053
G01 X34.5199 Y-8.0174
G01 X34.4301 Y-8.1215
G01 X34.3774 Y-8.1796
G01 X34.2827 Y-8.2792
G01 X34.1796 Y-8.3774
G01 X34.1215 Y-8.4301
G01 X34.0136 Y-8.5230
G01 X33.9053 Y-8.6076
G01 X33.8422 Y-8.6543
G01 X33.7258 Y-8.7362
G01 X33.6097 Y-8.8097
G01 X33.5423 Y-8.8501
G01 X33.4184 Y-8.9201
G01 X33.2957 Y-8.9819
G01 X33.2247 Y-9.0155
G01 X33.0945 Y-9.0731
G01 X32.9663 Y-9.1225
G01 X32.8924 Y-9.1490
G01 X32.7619 Y-9.1921
G01 X32.6247 Y-9.2302
G01 X32.5486 Y-9.2492
G01 X32.4097 Y-9.2803
G01 X32.2743 Y-9.3038
G01 X32.1966 Y-9.3153
G01 X32.0553 Y-9.3326
G01 X31.9183 Y-9.3427
G01 X31.8398 Y-9.3466
G01 X31.7712 Y-9.3491
G01 X31.7000 Y-9.3500
G01 X0.8000 Y-9.3500
G01 X0.7288 Y-9.3491
G01 X0.6602 Y-9.3466
G01 X0.5817 Y-9.3427
G01 X0.4398 Y-9.3321
G01 X0.3034 Y-9.3153
G01 X0.2257 Y-9.3038
G01 X0.0855 Y-9.2794
G01 X-0.0486 Y-9.2492
G01 X-0.1247 Y-9.2302
G01 X-0.2572 Y-9.1935
G01 X-0.3924 Y-9.1490
G01 X-0.4663 Y-9.1225
G01 X-0.5990 Y-9.0712
G01 X-0.7247 Y-9.0155
G01 X-0.7957 Y-8.9819
G01 X-0.9227 Y-8.9178
G01 X-1.0423 Y-8.8501
G01 X-1.1097 Y-8.8097
G01 X-1.2299 Y-8.7335
G01 X-1.3422 Y-8.6543
G01 X-1.4053 Y-8.6076
G01 X-1.5174 Y-8.5199
G01 X-1.6215 Y-8.4301
G01 X-1.6796 Y-8.3774
G01 X-1.7827 Y-8.2792
G01 X-1.8774 Y-8.1796
G01 X-1.9301 Y-8.1215
G01 X-2.0230 Y-8.0136
G01 X-2.1076 Y-7.9053
G01 X-2.1543 Y-7.8422
G01 X-2.2362 Y-7.7258
G01 X-2.3097 Y-7.6097
G01 X-2.3501 Y-7.5423
G01 X-2.4201 Y-7.4184
G01 X-2.4819 Y-7.2957
G01 X-2.5155 Y-7.2247
G01 X-2.5731 Y-7.0945
G01 X-2.6225 Y-6.9663
G01 X-2.6490 Y-6.8924
G01 X-2.6935 Y-6.7572
G01 X-2.7302 Y-6.6247
G01 X-2.7492 Y-6.5486
G01 X-2.7803 Y-6.4097
G01 X-2.8038 Y-6.2743
G01 X-2.8153 Y-6.1966
G01 X-2.8326 Y-6.0553
G01 X-2.8427 Y-5.9183
G01 X-2.8466 Y-5.8398
G01 X-2.8491 Y-5.7712
G01 X-2.8500 Y-5.7000
G01 X-2.8500 Y-2.5000
G00 X-2.8500 Y-2.5000
G01 F100.00
G01 Z-0.6000
G01 F300.00
G01 X-2.8500 Y-5.7000
G01 X-2.8491 Y-5.7712
G01 X-2.8466 Y-5.8398
G01 X-2.8427 Y-5.9183
G01 X-2.8326 Y-6.0553
G01 X-2.8153 Y-6.1966
G01 X-2.8038 Y-6.2743
G01 X-2.7803 Y-6.4097
G01 X-2.7492 Y-6.5486
G01 X-2.7302 Y-6.6247
G01 X-2.6935 Y-6.7572
G01 X-2.6490 Y-6.8924
G01 X-2.6225 Y-6.9663
G01 X-2.5731 Y-7.0945
G01 X-2.5155 Y-7.2247
G01 X-2.4819 Y-7.2957
G01 X-2.4201 Y-7.4184
G01 X-2.3501 Y-7.5423
G01 X-2.3097 Y-7.6097
G01 X-2.2362 Y-7.7258
G01 X-2.1543 Y-7.8422
G01 X-2.1076 Y-7.9053
G01 X-2.0230 Y-8.0136
G01 X-1.9301 Y-8.1215
G01 X-1.8774 Y-8.1796
G01 X-1.7827 Y-8.2792
G01 X-1.6796 Y-8.3774
G01 X-1.6215 Y-8.4301
G01 X-1.5174 Y-8.5199
G01 X-1.4053 Y-8.6076
G01 X-1.3422 Y-8.6543
G01 X-1.2299 Y-8.7335
G01 X-1.1097 Y-8.8097
G01 X-1.0423 Y-8.8501
G01 X-0.9227 Y-8.9178
G01 X-0.7957 Y-8.9819
G01 X-0.7247 Y-9.0155
G01 X-0.5990 Y-9.0712
G01 X-0.4663 Y-9.1225
G01 X-0.3924 Y-9.1490
G01 X-0.2572 Y-9.1935
G01 X-0.1247 Y-9.2302
G01 X-0.0486 Y-9.2492
G01 X0.0855 Y-9.2794
G01 X0.2257 Y-9.3038
G01 X0.3034 Y-9.3153
G01 X0.4398 Y-9.3321
G01 X0.5817 Y-9.3427
G01 X0.6602 Y-9.3466
G01 X0.7288 Y-9.3491
G01 X0.8000 Y-9.3500
G01 X31.7000 Y-9.3500
G01 X31.7712 Y-9.3491
G01 X31.8398 Y-9.3466
G01 X31.9183 Y-9.3427
G01 X32.0553 Y-9.3326
G01 X32.1966 Y-9.3153
G01 X32.2743 Y-9.3038
G01 X32.4097 Y-9.2803
G01 X32.5486 Y-9.2492
G01 X32.6247 Y-9.2302
G01 X32.7619 Y-9.1921
G01 X32.8924 Y-9.1490
G01 X32.9663 Y-9.1225
G01 X33.0945 Y-9.0731
G01 X33.2247 Y-9.0155
G01 X33.2957 Y-8.9819
G01 X33.4184 Y-8.9201
G01 X33.5423 Y-8.8501
G01 X33.6097 Y-8.8097
G01 X33.7258 Y-8.7362
G01 X33.8422 Y-8.6543
G01 X33.9053 Y-8.6076
G01 X34.0136 Y-8.5230
G01 X34.1215 Y-8.4301
G01 X34.1796 Y-8.3774
G01 X34.2827 Y-8.2792
G01 X34.3774 Y-8.1796
G01 X34.4301 Y-8.1215
G01 X34.5199 Y-8.0174
G01 X34.6076 Y-7.9053
G01 X34.6543 Y-7.8422
G01 X34.7335 Y-7.7299
G01 X34.8097 Y-7.6097
G01 X34.8501 Y-7.5423
G01 X34.9178 Y-7.4227
G01 X34.9819 Y-7.2957
G01 X35.0155 Y-7.2247
G01 X35.0712 Y-7.0990
G01 X35.1225 Y-6.9663
G01 X35.1490 Y-6.8924
G01 X35.1921 Y-6.7619
G01 X35.2302 Y-6.6247
G01 X35.2492 Y-6.5486
G01 X35.2803 Y-6.4097
G01 X35.3038 Y-6.2743
G01 X35.3153 Y-6.1966
G01 X35.3321 Y-6.0602
G01 X35.3427 Y-5.9183
G01 X35.3466 Y-5.8398
G01 X35.3491 Y-5.7712
G01 X35.3500 Y-5.7000
G01 X35.3500 Y-2.5000
G00 X35.3500 Y-2.5000
G01 F100.00
G01 Z-0.7000
G01 F300.00
G01 X35.3500 Y-5.7000
G01 X35.3491 Y-5.7712
G01 X35.3466 Y-5.8398
G01 X35.3427 Y-5.9183
G01 X35.3321 Y-6.0602
G01 X35.3153 Y-6.1966
G01 X35.3038 Y-6.2743
G01 X35.2803 Y-6.4097
G01 X35.2492 Y-6.5486
G01 X35.2302 Y-6.6247
G01 X35.1921 Y-6.7619
G01 X35.1490 Y-6.8924
G01 X35.1225 Y-6.9663
G01 X35.0712 Y-7.0990
G01 X35.0155 Y-7.2247
G01 X34.9819 Y-7.2957
G01 X34.9178 Y-7.4227
G01 X34.8501 Y-7.5423
G01 X34.8097 Y-7.6097
G01 X34.7335 Y-7.7299
G01 X34.6543 Y-7.8422
G01 X34.6076 Y-7.9053
G01 X34.5199 Y-8.0174
G01 X34.4301 Y-8.1215
G01 X34.3774 Y-8.1796
G01 X34.2827 Y-8.2792
G01 X34.1796 Y-8.3774
G01 X34.1215 Y-8.4301
G01 X34.0136 Y-8.5230
G01 X33.9053 Y-8.6076
G01 X33.8422 Y-8.6543
G01 X33.7258 Y-8.7362
G01 X33.6097 Y-8.8097
G01 X33.5423 Y-8.8501
G01 X33.4184 Y-8.9201
G01 X33.2957 Y-8.9819
G01 X33.2247 Y-9.0155
G01 X33.0945 Y-9.0731
G01 X32.9663 Y-9.1225
G01 X32.8924 Y-9.1490
G01 X32.7619 Y-9.1921
G01 X32.6247 Y-9.2302
G01 X32.5486 Y-9.2492
G01 X32.4097 Y-9.2803
G01 X32.2743 Y-9.3038
G01 X32.1966 Y-9.3153
G01 X32.0553 Y-9.3326
G01 X31.9183 Y-9.3427
G01 X31.8398 Y-9.3466
G01 X31.7712 Y-9.3491
G01 X31.7000 Y-9.3500
G01 X0.8000 Y-9.3500
G01 X0.7288 Y-9.3491
G01 X0.6602 Y-9.3466
G01 X0.5817 Y-9.3427
G01 X0.4398 Y-9.3321
G01 X0.3034 Y-9.3153
G01 X0.2257 Y-9.3038
G01 X0.0855 Y-9.2794
G01 X-0.0486 Y-9.2492
G01 X-0.1247 Y-9.2302
G01 X-0.2572 Y-9.1935
G01 X-0.3924 Y-9.1490
G01 X-0.4663 Y-9.1225
G01 X-0.5990 Y-9.0712
G01 X-0.7247 Y-9.0155
G01 X-0.7957 Y-8.9819
G01 X-0.9227 Y-8.9178
G01 X-1.0423 Y-8.8501
G01 X-1.1097 Y-8.8097
G01 X-1.2299 Y-8.7335
G01 X-1.3422 Y-8.6543
G01 X-1.4053 Y-8.6076
G01 X-1.5174 Y-8.5199
G01 X-1.6215 Y-8.4301
G01 X-1.6796 Y-8.3774
G01 X-1.7827 Y-8.2792
G01 X-1.8774 Y-8.1796
G01 X-1.9301 Y-8.1215
G01 X-2.0230 Y-8.0136
G01 X-2.1076 Y-7.9053
G01 X-2.1543 Y-7.8422
G01 X-2.2362 Y-7.7258
G01 X-2.3097 Y-7.6097
G01 X-2.3501 Y-7.5423
G01 X-2.4201 Y-7.4184
G01 X-2.4819 Y-7.2957
G01 X-2.5155 Y-7.2247
G01 X-2.5731 Y-7.0945
G01 X-2.6225 Y-6.9663
G01 X-2.6490 Y-6.8924
G01 X-2.6935 Y-6.7572
G01 X-2.7302 Y-6.6247
G01 X-2.7492 Y-6.5486
G01 X-2.7803 Y-6.4097
G01 X-2.8038 Y-6.2743
G01 X-2.8153 Y-6.1966
G01 X-2.8326 Y-6.0553
G01 X-2.8427 Y-5.9183
G01 X-2.8466 Y-5.8398
G01 X-2.8491 Y-5.7712
G01 X-2.8500 Y-5.7000
G01 X-2.8500 Y-2.5000
G00 X-2.8500 Y-2.5000
G01 F100.00
G01 Z-0.8000
G01 F300.00
G01 X-2.8500 Y-5.7000
G01 X-2.8491 Y-5.7712
G01 X-2.8466 Y-5.8398
G01 X-2.8427 Y-5.9183
G01 X-2.8326 Y-6.0553
G01 X-2.8153 Y-6.1966
G01 X-2.8038 Y-6.2743
G01 X-2.7803 Y-6.4097
G01 X-2.7492 Y-6.5486
G01 X-2.7302 Y-6.6247
G01 X-2.6935 Y-6.7572
G01 X-2.6490 Y-6.8924
G01 X-2.6225 Y-6.9663
G01 X-2.5731 Y-7.0945
G01 X-2.5155 Y-7.2247
G01 X-2.4819 Y-7.2957
G01 X-2.4201 Y-7.4184
G01 X-2.3501 Y-7.5423
G01 X-2.3097 Y-7.6097
G01 X-2.2362 Y-7.7258
G01 X-2.1543 Y-7.8422
G01 X-2.1076 Y-7.9053
G01 X-2.0230 Y-8.0136
G01 X-1.9301 Y-8.1215
G01 X-1.8774 Y-8.1796
G01 X-1.7827 Y-8.2792
G01 X-1.6796 Y-8.3774
G01 X-1.6215 Y-8.4301
G01 X-1.5174 Y-8.5199
G01 X-1.4053 Y-8.6076
G01 X-1.3422 Y-8.6543
G01 X-1.2299 Y-8.7335
G01 X-1.1097 Y-8.8097
G01 X-1.0423 Y-8.8501
G01 X-0.9227 Y-8.9178
G01 X-0.7957 Y-8.9819
G01 X-0.7247 Y-9.0155
G01 X-0.5990 Y-9.0712
G01 X-0.4663 Y-9.1225
G01 X-0.3924 Y-9.1490
G01 X-0.2572 Y-9.1935
G01 X-0.1247 Y-9.2302
G01 X-0.0486 Y-9.2492
G01 X0.0855 Y-9.2794
G01 X0.2257 Y-9.3038
G01 X0.3034 Y-9.3153
G01 X0.4398 Y-9.3321
G01 X0.5817 Y-9.3427
G01 X0.6602 Y-9.3466
G01 X0.7288 Y-9.3491
G01 X0.8000 Y-9.3500
G01 X31.7000 Y-9.3500
G01 X31.7712 Y-9.3491
G01 X31.8398 Y-9.3466
G01 X31.9183 Y-9.3427
G01 X32.0553 Y-9.3326
G01 X32.1966 Y-9.3153
G01 X32.2743 Y-9.3038
G01 X32.4097 Y-9.2803
G01 X32.5486 Y-9.2492
G01 X32.6247 Y-9.2302
G01 X32.7619 Y-9.1921
G01 X32.8924 Y-9.1490
G01 X32.9663 Y-9.1225
G01 X33.0945 Y-9.0731
G01 X33.2247 Y-9.0155
G01 X33.2957 Y-8.9819
G01 X33.4184 Y-8.9201
G01 X33.5423 Y-8.8501
G01 X33.6097 Y-8.8097
G01 X33.7258 Y-8.7362
G01 X33.8422 Y-8.6543
G01 X33.9053 Y-8.6076
G01 X34.0136 Y-8.5230
G01 X34.1215 Y-8.4301
G01 X34.1796 Y-8.3774
G01 X34.2827 Y-8.2792
G01 X34.3774 Y-8.1796
G01 X34.4301 Y-8.1215
G01 X34.5199 Y-8.0174
G01 X34.6076 Y-7.9053
G01 X34.6543 Y-7.8422
G01 X34.7335 Y-7.7299
G01 X34.8097 Y-7.6097
G01 X34.8501 Y-7.5423
G01 X34.9178 Y-7.4227
G01 X34.9819 Y-7.2957
G01 X35.0155 Y-7.2247
G01 X35.0712 Y-7.0990
G01 X35.1225 Y-6.9663
G01 X35.1490 Y-6.8924
G01 X35.1921 Y-6.7619
G01 X35.2302 Y-6.6247
G01 X35.2492 Y-6.5486
G01 X35.2803 Y-6.4097
G01 X35.3038 Y-6.2743
G01 X35.3153 Y-6.1966
G01 X35.3321 Y-6.0602
G01 X35.3427 Y-5.9183
G01 X35.3466 Y-5.8398
G01 X35.3491 Y-5.7712
G01 X35.3500 Y-5.7000
G01 X35.3500 Y-2.5000
G00 X35.3500 Y-2.5000
G01 F100.00
G01 Z-0.9000
G01 F300.00
G01 X35.3500 Y-5.7000
G01 X35.3491 Y-5.7712
G01 X35.3466 Y-5.8398
G01 X35.3427 Y-5.9183
G01 X35.3321 Y-6.0602
G01 X35.3153 Y-6.1966
G01 X35.3038 Y-6.2743
G01 X35.2803 Y-6.4097
G01 X35.2492 Y-6.5486
G01 X35.2302 Y-6.6247
G01 X35.1921 Y-6.7619
G01 X35.1490 Y-6.8924
G01 X35.1225 Y-6.9663
G01 X35.0712 Y-7.0990
G01 X35.0155 Y-7.2247
G01 X34.9819 Y-7.2957
G01 X34.9178 Y-7.4227
G01 X34.8501 Y-7.5423
G01 X34.8097 Y-7.6097
G01 X34.7335 Y-7.7299
G01 X34.6543 Y-7.8422
G01 X34.6076 Y-7.9053
G01 X34.5199 Y-8.0174
G01 X34.4301 Y-8.1215
G01 X34.3774 Y-8.1796
G01 X34.2827 Y-8.2792
G01 X34.1796 Y-8.3774
G01 X34.1215 Y-8.4301
G01 X34.0136 Y-8.5230
G01 X33.9053 Y-8.6076
G01 X33.8422 Y-8.6543
G01 X33.7258 Y-8.7362
G01 X33.6097 Y-8.8097
G01 X33.5423 Y-8.8501
G01 X33.4184 Y-8.9201
G01 X33.2957 Y-8.9819
G01 X33.2247 Y-9.0155
G01 X33.0945 Y-9.0731
G01 X32.9663 Y-9.1225
G01 X32.8924 Y-9.1490
G01 X32.7619 Y-9.1921
G01 X32.6247 Y-9.2302
G01 X32.5486 Y-9.2492
G01 X32.4097 Y-9.2803
G01 X32.2743 Y-9.3038
G01 X32.1966 Y-9.3153
G01 X32.0553 Y-9.3326
G01 X31.9183 Y-9.3427
G01 X31.8398 Y-9.3466
G01 X31.7712 Y-9.3491
G01 X31.7000 Y-9.3500
G01 X0.8000 Y-9.3500
G01 X0.7288 Y-9.3491
G01 X0.6602 Y-9.3466
G01 X0.5817 Y-9.3427
G01 X0.4398 Y-9.3321
G01 X0.3034 Y-9.3153
G01 X0.2257 Y-9.3038
G01 X0.0855 Y-9.2794
G01 X-0.0486 Y-9.2492
G01 X-0.1247 Y-9.2302
G01 X-0.2572 Y-9.1935
G01 X-0.3924 Y-9.1490
G01 X-0.4663 Y-9.1225
G01 X-0.5990 Y-9.0712
G01 X-0.7247 Y-9.0155
G01 X-0.7957 Y-8.9819
G01 X-0.9227 Y-8.9178
G01 X-1.0423 Y-8.8501
G01 X-1.1097 Y-8.8097
G01 X-1.2299 Y-8.7335
G01 X-1.3422 Y-8.6543
G01 X-1.4053 Y-8.6076
G01 X-1.5174 Y-8.5199
G01 X-1.6215 Y-8.4301
G01 X-1.6796 Y-8.3774
G01 X-1.7827 Y-8.2792
G01 X-1.8774 Y-8.1796
G01 X-1.9301 Y-8.1215
G01 X-2.0230 Y-8.0136
G01 X-2.1076 Y-7.9053
G01 X-2.1543 Y-7.8422
G01 X-2.2362 Y-7.7258
G01 X-2.3097 Y-7.6097
G01 X-2.3501 Y-7.5423
G01 X-2.4201 Y-7.4184
G01 X-2.4819 Y-7.2957
G01 X-2.5155 Y-7.2247
G01 X-2.5731 Y-7.0945
G01 X-2.6225 Y-6.9663
G01 X-2.6490 Y-6.8924
G01 X-2.6935 Y-6.7572
G01 X-2.7302 Y-6.6247
G01 X-2.7492 Y-6.5486
G01 X-2.7803 Y-6.4097
G01 X-2.8038 Y-6.2743
G01 X-2.8153 Y-6.1966
G01 X-2.8326 Y-6.0553
G01 X-2.8427 Y-5.9183
G01 X-2.8466 Y-5.8398
G01 X-2.8491 Y-5.7712
G01 X-2.8500 Y-5.7000
G01 X-2.8500 Y-2.5000
G00 X-2.8500 Y-2.5000
G01 F100.00
G01 Z-1.0000
G01 F300.00
G01 X-2.8500 Y-5.7000
G01 X-2.8491 Y-5.7712
G01 X-2.8466 Y-5.8398
G01 X-2.8427 Y-5.9183
G01 X-2.8326 Y-6.0553
G01 X-2.8153 Y-6.1966
G01 X-2.8038 Y-6.2743
G01 X-2.7803 Y-6.4097
G01 X-2.7492 Y-6.5486
G01 X-2.7302 Y-6.6247
G01 X-2.6935 Y-6.7572
G01 X-2.6490 Y-6.8924
G01 X-2.6225 Y-6.9663
G01 X-2.5731 Y-7.0945
G01 X-2.5155 Y-7.2247
G01 X-2.4819 Y-7.2957
G01 X-2.4201 Y-7.4184
G01 X-2.3501 Y-7.5423
G01 X-2.3097 Y-7.6097
G01 X-2.2362 Y-7.7258
G01 X-2.1543 Y-7.8422
G01 X-2.1076 Y-7.9053
G01 X-2.0230 Y-8.0136
G01 X-1.9301 Y-8.1215
G01 X-1.8774 Y-8.1796
G01 X-1.7827 Y-8.2792
G01 X-1.6796 Y-8.3774
G01 X-1.6215 Y-8.4301
G01 X-1.5174 Y-8.5199
G01 X-1.4053 Y-8.6076
G01 X-1.3422 Y-8.6543
G01 X-1.2299 Y-8.7335
G01 X-1.1097 Y-8.8097
G01 X-1.0423 Y-8.8501
G01 X-0.9227 Y-8.9178
G01 X-0.7957 Y-8.9819
G01 X-0.7247 Y-9.0155
G01 X-0.5990 Y-9.0712
G01 X-0.4663 Y-9.1225
G01 X-0.3924 Y-9.1490
G01 X-0.2572 Y-9.1935
G01 X-0.1247 Y-9.2302
G01 X-0.0486 Y-9.2492
G01 X0.0855 Y-9.2794
G01 X0.2257 Y-9.3038
G01 X0.3034 Y-9.3153
G01 X0.4398 Y-9.3321
G01 X0.5817 Y-9.3427
G01 X0.6602 Y-9.3466
G01 X0.7288 Y-9.3491
G01 X0.8000 Y-9.3500
G01 X31.7000 Y-9.3500
G01 X31.7712 Y-9.3491
G01 X31.8398 Y-9.3466
G01 X31.9183 Y-9.3427
G01 X32.0553 Y-9.3326
G01 X32.1966 Y-9.3153
G01 X32.2743 Y-9.3038
G01 X32.4097 Y-9.2803
G01 X32.5486 Y-9.2492
G01 X32.6247 Y-9.2302
G01 X32.7619 Y-9.1921
G01 X32.8924 Y-9.1490
G01 X32.9663 Y-9.1225
G01 X33.0945 Y-9.0731
G01 X33.2247 Y-9.0155
G01 X33.2957 Y-8.9819
G01 X33.4184 Y-8.9201
G01 X33.5423 Y-8.8501
G01 X33.6097 Y-8.8097
G01 X33.7258 Y-8.7362
G01 X33.8422 Y-8.6543
G01 X33.9053 Y-8.6076
G01 X34.0136 Y-8.5230
G01 X34.1215 Y-8.4301
G01 X34.1796 Y-8.3774
G01 X34.2827 Y-8.2792
G01 X34.3774 Y-8.1796
G01 X34.4301 Y-8.1215
G01 X34.5199 Y-8.0174
G01 X34.6076 Y-7.9053
G01 X34.6543 Y-7.8422
G01 X34.7335 Y-7.7299
G01 X34.8097 Y-7.6097
G01 X34.8501 Y-7.5423
G01 X34.9178 Y-7.4227
G01 X34.9819 Y-7.2957
G01 X35.0155 Y-7.2247
G01 X35.0712 Y-7.0990
G01 X35.1225 Y-6.9663
G01 X35.1490 Y-6.8924
G01 X35.1921 Y-6.7619
G01 X35.2302 Y-6.6247
G01 X35.2492 Y-6.5486
G01 X35.2803 Y-6.4097
G01 X35.3038 Y-6.2743
G01 X35.3153 Y-6.1966
G01 X35.3321 Y-6.0602
G01 X35.3427 Y-5.9183
G01 X35.3466 Y-5.8398
G01 X35.3491 Y-5.7712
G01 X35.3500 Y-5.7000
G01 X35.3500 Y-2.5000
G00 X35.3500 Y-2.5000
G01 F100.00
G01 Z-1.1000
G01 F300.00
G01 X35.3500 Y-5.7000
G01 X35.3491 Y-5.7712
G01 X35.3466 Y-5.8398
G01 X35.3427 Y-5.9183
G01 X35.3321 Y-6.0602
G01 X35.3153 Y-6.1966
G01 X35.3038 Y-6.2743
G01 X35.2803 Y-6.4097
G01 X35.2492 Y-6.5486
G01 X35.2302 Y-6.6247
G01 X35.1921 Y-6.7619
G01 X35.1490 Y-6.8924
G01 X35.1225 Y-6.9663
G01 X35.0712 Y-7.0990
G01 X35.0155 Y-7.2247
G01 X34.9819 Y-7.2957
G01 X34.9178 Y-7.4227
G01 X34.8501 Y-7.5423
G01 X34.8097 Y-7.6097
G01 X34.7335 Y-7.7299
G01 X34.6543 Y-7.8422
G01 X34.6076 Y-7.9053
G01 X34.5199 Y-8.0174
G01 X34.4301 Y-8.1215
G01 X34.3774 Y-8.1796
G01 X34.2827 Y-8.2792
G01 X34.1796 Y-8.3774
G01 X34.1215 Y-8.4301
G01 X34.0136 Y-8.5230
G01 X33.9053 Y-8.6076
G01 X33.8422 Y-8.6543
G01 X33.7258 Y-8.7362
G01 X33.6097 Y-8.8097
G01 X33.5423 Y-8.8501
G01 X33.4184 Y-8.9201
G01 X33.2957 Y-8.9819
G01 X33.2247 Y-9.0155
G01 X33.0945 Y-9.0731
G01 X32.9663 Y-9.1225
G01 X32.8924 Y-9.1490
G01 X32.7619 Y-9.1921
G01 X32.6247 Y-9.2302
G01 X32.5486 Y-9.2492
G01 X32.4097 Y-9.2803
G01 X32.2743 Y-9.3038
G01 X32.1966 Y-9.3153
G01 X32.0553 Y-9.3326
G01 X31.9183 Y-9.3427
G01 X31.8398 Y-9.3466
G01 X31.7712 Y-9.3491
G01 X31.7000 Y-9.3500
G01 X0.8000 Y-9.3500
G01 X0.7288 Y-9.3491
G01 X0.6602 Y-9.3466
G01 X0.5817 Y-9.3427
G01 X0.4398 Y-9.3321
G01 X0.3034 Y-9.3153
G01 X0.2257 Y-9.3038
G01 X0.0855 Y-9.2794
G01 X-0.0486 Y-9.2492
G01 X-0.1247 Y-9.2302
G01 X-0.2572 Y-9.1935
G01 X-0.3924 Y-9.1490
G01 X-0.4663 Y-9.1225
G01 X-0.5990 Y-9.0712
G01 X-0.7247 Y-9.0155
G01 X-0.7957 Y-8.9819
G01 X-0.9227 Y-8.9178
G01 X-1.0423 Y-8.8501
G01 X-1.1097 Y-8.8097
G01 X-1.2299 Y-8.7335
G01 X-1.3422 Y-8.6543
G01 X-1.4053 Y-8.6076
G01 X-1.5174 Y-8.5199
G01 X-1.6215 Y-8.4301
G01 X-1.6796 Y-8.3774
G01 X-1.7827 Y-8.2792
G01 X-1.8774 Y-8.1796
G01 X-1.9301 Y-8.1215
G01 X-2.0230 Y-8.0136
G01 X-2.1076 Y-7.9053
G01 X-2.1543 Y-7.8422
G01 X-2.2362 Y-7.7258
G01 X-2.3097 Y-7.6097
G01 X-2.3501 Y-7.5423
G01 X-2.4201 Y-7.4184
G01 X-2.4819 Y-7.2957
G01 X-2.5155 Y-7.2247
G01 X-2.5731 Y-7.0945
G01 X-2.6225 Y-6.9663
G01 X-2.6490 Y-6.8924
G01 X-2.6935 Y-6.7572
G01 X-2.7302 Y-6.6247
G01 X-2.7492 Y-6.5486
G01 X-2.7803 Y-6.4097
G01 X-2.8038 Y-6.2743
G01 X-2.8153 Y-6.1966
G01 X-2.8326 Y-6.0553
G01 X-2.8427 Y-5.9183
G01 X-2.8466 Y-5.8398
G01 X-2.8491 Y-5.7712
G01 X-2.8500 Y-5.7000
G01 X-2.8500 Y-2.5000
G00 X-2.8500 Y-2.5000
G01 F100.00
G01 Z-1.2000
G01 F300.00
G01 X-2.8500 Y-5.7000
G01 X-2.8491 Y-5.7712
G01 X-2.8466 Y-5.8398
G01 X-2.8427 Y-5.9183
G01 X-2.8326 Y-6.0553
G01 X-2.8153 Y-6.1966
G01 X-2.8038 Y-6.2743
G01 X-2.7803 Y-6.4097
G01 X-2.7492 Y-6.5486
G01 X-2.7302 Y-6.6247
G01 X-2.6935 Y-6.7572
G01 X-2.6490 Y-6.8924
G01 X-2.6225 Y-6.9663
G01 X-2.5731 Y-7.0945
G01 X-2.5155 Y-7.2247
G01 X-2.4819 Y-7.2957
G01 X-2.4201 Y-7.4184
G01 X-2.3501 Y-7.5423
G01 X-2.3097 Y-7.6097
G01 X-2.2362 Y-7.7258
G01 X-2.1543 Y-7.8422
G01 X-2.1076 Y-7.9053
G01 X-2.0230 Y-8.0136
G01 X-1.9301 Y-8.1215
G01 X-1.8774 Y-8.1796
G01 X-1.7827 Y-8.2792
G01 X-1.6796 Y-8.3774
G01 X-1.6215 Y-8.4301
G01 X-1.5174 Y-8.5199
G01 X-1.4053 Y-8.6076
G01 X-1.3422 Y-8.6543
G01 X-1.2299 Y-8.7335
G01 X-1.1097 Y-8.8097
G01 X-1.0423 Y-8.8501
G01 X-0.9227 Y-8.9178
G01 X-0.7957 Y-8.9819
G01 X-0.7247 Y-9.0155
G01 X-0.5990 Y-9.0712
G01 X-0.4663 Y-9.1225
G01 X-0.3924 Y-9.1490
G01 X-0.2572 Y-9.1935
G01 X-0.1247 Y-9.2302
G01 X-0.0486 Y-9.2492
G01 X0.0855 Y-9.2794
G01 X0.2257 Y-9.3038
G01 X0.3034 Y-9.3153
G01 X0.4398 Y-9.3321
G01 X0.5817 Y-9.3427
G01 X0.6602 Y-9.3466
G01 X0.7288 Y-9.3491
G01 X0.8000 Y-9.3500
G01 X31.7000 Y-9.3500
G01 X31.7712 Y-9.3491
G01 X31.8398 Y-9.3466
G01 X31.9183 Y-9.3427
G01 X32.0553 Y-9.3326
G01 X32.1966 Y-9.3153
G01 X32.2743 Y-9.3038
G01 X32.4097 Y-9.2803
G01 X32.5486 Y-9.2492
G01 X32.6247 Y-9.2302
G01 X32.7619 Y-9.1921
G01 X32.8924 Y-9.1490
G01 X32.9663 Y-9.1225
G01 X33.0945 Y-9.0731
G01 X33.2247 Y-9.0155
G01 X33.2957 Y-8.9819
G01 X33.4184 Y-8.9201
G01 X33.5423 Y-8.8501
G01 X33.6097 Y-8.8097
G01 X33.7258 Y-8.7362
G01 X33.8422 Y-8.6543
G01 X33.9053 Y-8.6076
G01 X34.0136 Y-8.5230
G01 X34.1215 Y-8.4301
G01 X34.1796 Y-8.3774
G01 X34.2827 Y-8.2792
G01 X34.3774 Y-8.1796
G01 X34.4301 Y-8.1215
G01 X34.5199 Y-8.0174
G01 X34.6076 Y-7.9053
G01 X34.6543 Y-7.8422
G01 X34.7335 Y-7.7299
G01 X34.8097 Y-7.6097
G01 X34.8501 Y-7.5423
G01 X34.9178 Y-7.4227
G01 X34.9819 Y-7.2957
G01 X35.0155 Y-7.2247
G01 X35.0712 Y-7.0990
G01 X35.1225 Y-6.9663
G01 X35.1490 Y-6.8924
G01 X35.1921 Y-6.7619
G01 X35.2302 Y-6.6247
G01 X35.2492 Y-6.5486
G01 X35.2803 Y-6.4097
G01 X35.3038 Y-6.2743
G01 X35.3153 Y-6.1966
G01 X35.3321 Y-6.0602
G01 X35.3427 Y-5.9183
G01 X35.3466 Y-5.8398
G01 X35.3491 Y-5.7712
G01 X35.3500 Y-5.7000
G01 X35.3500 Y-2.5000
G00 X35.3500 Y-2.5000
G01 F100.00
G01 Z-1.3000
G01 F300.00
G01 X35.3500 Y-5.7000
G01 X35.3491 Y-5.7712
G01 X35.3466 Y-5.8398
G01 X35.3427 Y-5.9183
G01 X35.3321 Y-6.0602
G01 X35.3153 Y-6.1966
G01 X35.3038 Y-6.2743
G01 X35.2803 Y-6.4097
G01 X35.2492 Y-6.5486
G01 X35.2302 Y-6.6247
G01 X35.1921 Y-6.7619
G01 X35.1490 Y-6.8924
G01 X35.1225 Y-6.9663
G01 X35.0712 Y-7.0990
G01 X35.0155 Y-7.2247
G01 X34.9819 Y-7.2957
G01 X34.9178 Y-7.4227
G01 X34.8501 Y-7.5423
G01 X34.8097 Y-7.6097
G01 X34.7335 Y-7.7299
G01 X34.6543 Y-7.8422
G01 X34.6076 Y-7.9053
G01 X34.5199 Y-8.0174
G01 X34.4301 Y-8.1215
G01 X34.3774 Y-8.1796
G01 X34.2827 Y-8.2792
G01 X34.1796 Y-8.3774
G01 X34.1215 Y-8.4301
G01 X34.0136 Y-8.5230
G01 X33.9053 Y-8.6076
G01 X33.8422 Y-8.6543
G01 X33.7258 Y-8.7362
G01 X33.6097 Y-8.8097
G01 X33.5423 Y-8.8501
G01 X33.4184 Y-8.9201
G01 X33.2957 Y-8.9819
G01 X33.2247 Y-9.0155
G01 X33.0945 Y-9.0731
G01 X32.9663 Y-9.1225
G01 X32.8924 Y-9.1490
G01 X32.7619 Y-9.1921
G01 X32.6247 Y-9.2302
G01 X32.5486 Y-9.2492
G01 X32.4097 Y-9.2803
G01 X32.2743 Y-9.3038
G01 X32.1966 Y-9.3153
G01 X32.0553 Y-9.3326
G01 X31.9183 Y-9.3427
G01 X31.8398 Y-9.3466
G01 X31.7712 Y-9.3491
G01 X31.7000 Y-9.3500
G01 X0.8000 Y-9.3500
G01 X0.7288 Y-9.3491
G01 X0.6602 Y-9.3466
G01 X0.5817 Y-9.3427
G01 X0.4398 Y-9.3321
G01 X0.3034 Y-9.3153
G01 X0.2257 Y-9.3038
G01 X0.0855 Y-9.2794
G01 X-0.0486 Y-9.2492
G01 X-0.1247 Y-9.2302
G01 X-0.2572 Y-9.1935
G01 X-0.3924 Y-9.1490
G01 X-0.4663 Y-9.1225
G01 X-0.5990 Y-9.0712
G01 X-0.7247 Y-9.0155
G01 X-0.7957 Y-8.9819
G01 X-0.9227 Y-8.9178
G01 X-1.0423 Y-8.8501
G01 X-1.1097 Y-8.8097
G01 X-1.2299 Y-8.7335
G01 X-1.3422 Y-8.6543
G01 X-1.4053 Y-8.6076
G01 X-1.5174 Y-8.5199
G01 X-1.6215 Y-8.4301
G01 X-1.6796 Y-8.3774
G01 X-1.7827 Y-8.2792
G01 X-1.8774 Y-8.1796
G01 X-1.9301 Y-8.1215
G01 X-2.0230 Y-8.0136
G01 X-2.1076 Y-7.9053
G01 X-2.1543 Y-7.8422
G01 X-2.2362 Y-7.7258
G01 X-2.3097 Y-7.6097
G01 X-2.3501 Y-7.5423
G01 X-2.4201 Y-7.4184
G01 X-2.4819 Y-7.2957
G01 X-2.5155 Y-7.2247
G01 X-2.5731 Y-7.0945
G01 X-2.6225 Y-6.9663
G01 X-2.6490 Y-6.8924
G01 X-2.6935 Y-6.7572
G01 X-2.7302 Y-6.6247
G01 X-2.7492 Y-6.5486
G01 X-2.7803 Y-6.4097
G01 X-2.8038 Y-6.2743
G01 X-2.8153 Y-6.1966
G01 X-2.8326 Y-6.0553
G01 X-2.8427 Y-5.9183
G01 X-2.8466 Y-5.8398
G01 X-2.8491 Y-5.7712
G01 X-2.8500 Y-5.7000
G01 X-2.8500 Y-2.5000
G00 X-2.8500 Y-2.5000
G01 F100.00
G01 Z-1.4000
G01 F300.00
G01 X-2.8500 Y-5.7000
G01 X-2.8491 Y-5.7712
G01 X-2.8466 Y-5.8398
G01 X-2.8427 Y-5.9183
G01 X-2.8326 Y-6.0553
G01 X-2.8153 Y-6.1966
G01 X-2.8038 Y-6.2743
G01 X-2.7803 Y-6.4097
G01 X-2.7492 Y-6.5486
G01 X-2.7302 Y-6.6247
G01 X-2.6935 Y-6.7572
G01 X-2.6490 Y-6.8924
G01 X-2.6225 Y-6.9663
G01 X-2.5731 Y-7.0945
G01 X-2.5155 Y-7.2247
G01 X-2.4819 Y-7.2957
G01 X-2.4201 Y-7.4184
G01 X-2.3501 Y-7.5423
G01 X-2.3097 Y-7.6097
G01 X-2.2362 Y-7.7258
G01 X-2.1543 Y-7.8422
G01 X-2.1076 Y-7.9053
G01 X-2.0230 Y-8.0136
G01 X-1.9301 Y-8.1215
G01 X-1.8774 Y-8.1796
G01 X-1.7827 Y-8.2792
G01 X-1.6796 Y-8.3774
G01 X-1.6215 Y-8.4301
G01 X-1.5174 Y-8.5199
G01 X-1.4053 Y-8.6076
G01 X-1.3422 Y-8.6543
G01 X-1.2299 Y-8.7335
G01 X-1.1097 Y-8.8097
G01 X-1.0423 Y-8.8501
G01 X-0.9227 Y-8.9178
G01 X-0.7957 Y-8.9819
G01 X-0.7247 Y-9.0155
G01 X-0.5990 Y-9.0712
G01 X-0.4663 Y-9.1225
G01 X-0.3924 Y-9.1490
G01 X-0.2572 Y-9.1935
G01 X-0.1247 Y-9.2302
G01 X-0.0486 Y-9.2492
G01 X0.0855 Y-9.2794
G01 X0.2257 Y-9.3038
G01 X0.3034 Y-9.3153
G01 X0.4398 Y-9.3321
G01 X0.5817 Y-9.3427
G01 X0.6602 Y-9.3466
G01 X0.7288 Y-9.3491
G01 X0.8000 Y-9.3500
G01 X31.7000 Y-9.3500
G01 X31.7712 Y-9.3491
G01 X31.8398 Y-9.3466
G01 X31.9183 Y-9.3427
G01 X32.0553 Y-9.3326
G01 X32.1966 Y-9.3153
G01 X32.2743 Y-9.3038
G01 X32.4097 Y-9.2803
G01 X32.5486 Y-9.2492
G01 X32.6247 Y-9.2302
G01 X32.7619 Y-9.1921
G01 X32.8924 Y-9.1490
G01 X32.9663 Y-9.1225
G01 X33.0945 Y-9.0731
G01 X33.2247 Y-9.0155
G01 X33.2957 Y-8.9819
G01 X33.4184 Y-8.9201
G01 X33.5423 Y-8.8501
G01 X33.6097 Y-8.8097
G01 X33.7258 Y-8.7362
G01 X33.8422 Y-8.6543
G01 X33.9053 Y-8.6076
G01 X34.0136 Y-8.5230
G01 X34.1215 Y-8.4301
G01 X34.1796 Y-8.3774
G01 X34.2827 Y-8.2792
G01 X34.3774 Y-8.1796
G01 X34.4301 Y-8.1215
G01 X34.5199 Y-8.0174
G01 X34.6076 Y-7.9053
G01 X34.6543 Y-7.8422
G01 X34.7335 Y-7.7299
G01 X34.8097 Y-7.6097
G01 X34.8501 Y-7.5423
G01 X34.9178 Y-7.4227
G01 X34.9819 Y-7.2957
G01 X35.0155 Y-7.2247
G01 X35.0712 Y-7.0990
G01 X35.1225 Y-6.9663
G01 X35.1490 Y-6.8924
G01 X35.1921 Y-6.7619
G01 X35.2302 Y-6.6247
G01 X35.2492 Y-6.5486
G01 X35.2803 Y-6.4097
G01 X35.3038 Y-6.2743
G01 X35.3153 Y-6.1966
G01 X35.3321 Y-6.0602
G01 X35.3427 Y-5.9183
G01 X35.3466 Y-5.8398
G01 X35.3491 Y-5.7712
G01 X35.3500 Y-5.7000
G01 X35.3500 Y-2.5000
G00 X35.3500 Y-2.5000
G01 F100.00
G01 Z-1.5000
G01 F300.00
G01 X35.3500 Y-5.7000
G01 X35.3491 Y-5.7712
G01 X35.3466 Y-5.8398
G01 X35.3427 Y-5.9183
G01 X35.3321 Y-6.0602
G01 X35.3153 Y-6.1966
G01 X35.3038 Y-6.2743
G01 X35.2803 Y-6.4097
G01 X35.2492 Y-6.5486
G01 X35.2302 Y-6.6247
G01 X35.1921 Y-6.7619
G01 X35.1490 Y-6.8924
G01 X35.1225 Y-6.9663
G01 X35.0712 Y-7.0990
G01 X35.0155 Y-7.2247
G01 X34.9819 Y-7.2957
G01 X34.9178 Y-7.4227
G01 X34.8501 Y-7.5423
G01 X34.8097 Y-7.6097
G01 X34.7335 Y-7.7299
G01 X34.6543 Y-7.8422
G01 X34.6076 Y-7.9053
G01 X34.5199 Y-8.0174
G01 X34.4301 Y-8.1215
G01 X34.3774 Y-8.1796
G01 X34.2827 Y-8.2792
G01 X34.1796 Y-8.3774
G01 X34.1215 Y-8.4301
G01 X34.0136 Y-8.5230
G01 X33.9053 Y-8.6076
G01 X33.8422 Y-8.6543
G01 X33.7258 Y-8.7362
G01 X33.6097 Y-8.8097
G01 X33.5423 Y-8.8501
G01 X33.4184 Y-8.9201
G01 X33.2957 Y-8.9819
G01 X33.2247 Y-9.0155
G01 X33.0945 Y-9.0731
G01 X32.9663 Y-9.1225
G01 X32.8924 Y-9.1490
G01 X32.7619 Y-9.1921
G01 X32.6247 Y-9.2302
G01 X32.5486 Y-9.2492
G01 X32.4097 Y-9.2803
G01 X32.2743 Y-9.3038
G01 X32.1966 Y-9.3153
G01 X32.0553 Y-9.3326
G01 X31.9183 Y-9.3427
G01 X31.8398 Y-9.3466
G01 X31.7712 Y-9.3491
G01 X31.7000 Y-9.3500
G01 X0.8000 Y-9.3500
G01 X0.7288 Y-9.3491
G01 X0.6602 Y-9.3466
G01 X0.5817 Y-9.3427
G01 X0.4398 Y-9.3321
G01 X0.3034 Y-9.3153
G01 X0.2257 Y-9.3038
G01 X0.0855 Y-9.2794
G01 X-0.0486 Y-9.2492
G01 X-0.1247 Y-9.2302
G01 X-0.2572 Y-9.1935
G01 X-0.3924 Y-9.1490
G01 X-0.4663 Y-9.1225
G01 X-0.5990 Y-9.0712
G01 X-0.7247 Y-9.0155
G01 X-0.7957 Y-8.9819
G01 X-0.9227 Y-8.9178
G01 X-1.0423 Y-8.8501
G01 X-1.1097 Y-8.8097
G01 X-1.2299 Y-8.7335
G01 X-1.3422 Y-8.6543
G01 X-1.4053 Y-8.6076
G01 X-1.5174 Y-8.5199
G01 X-1.6215 Y-8.4301
G01 X-1.6796 Y-8.3774
G01 X-1.7827 Y-8.2792
G01 X-1.8774 Y-8.1796
G01 X-1.9301 Y-8.1215
G01 X-2.0230 Y-8.0136
G01 X-2.1076 Y-7.9053
G01 X-2.1543 Y-7.8422
G01 X-2.2362 Y-7.7258
G01 X-2.3097 Y-7.6097
G01 X-2.3501 Y-7.5423
G01 X-2.4201 Y-7.4184
G01 X-2.4819 Y-7.2957
G01 X-2.5155 Y-7.2247
G01 X-2.5731 Y-7.0945
G01 X-2.6225 Y-6.9663
G01 X-2.6490 Y-6.8924
G01 X-2.6935 Y-6.7572
G01 X-2.7302 Y-6.6247
G01 X-2.7492 Y-6.5486
G01 X-2.7803 Y-6.4097
G01 X-2.8038 Y-6.2743
G01 X-2.8153 Y-6.1966
G01 X-2.8326 Y-6.0553
G01 X-2.8427 Y-5.9183
G01 X-2.8466 Y-5.8398
G01 X-2.8491 Y-5.7712
G01 X-2.8500 Y-5.7000
