(Project screen3)
(Created by Estlcam version 11 build 11,245)
(Machining time about 00:20:52 hours)

(Required tools:)
(2)
(2)
G21
G90
G94
M03 S<s>
G00 Z5.0000


(No. 1: )
G00 X8.6000 Y9.6000
G01 Z0.5000 F120 S1700
G01 Z-2.0000 F70
G01 X11.2000 Y7.6000 F120
G01 X13.4000 Y7.2000
G01 X44.8000
G01 Y10.4000
G01 X11.8000 Y10.8000
G01 X10.2000 Y13.0000
G01 Y21.4000
G01 X10.8000 Y22.6000
G01 X12.6000 Y24.0000
G01 X20.8000
G01 Y27.2000
G01 X11.8000 Y27.0000
G01 X10.0000 Y26.2000
G01 X8.2000 Y24.4000
G01 X7.4000 Y22.4000
G01 Y12.0000
G01 X8.6000 Y9.6000
G01 X8.8000 Y11.0000
G01 X10.6000 Y9.0000
G01 X13.4000 Y8.2000
G01 X43.8000
G01 Y9.4000
G01 X12.6000
G01 X11.2000 Y10.0000
G01 X9.2000 Y12.8000
G01 Y21.6000
G01 X10.0000 Y23.2000
G01 X12.6000 Y25.0000
G01 X19.8000
G01 Y26.2000
G01 X11.8000 Y26.0000
G01 X9.0000 Y23.8000
G01 X8.4000 Y22.2000
G01 X8.8000 Y11.0000
G00 Z5.0000
G00 X29.4000 Y24.0000
G01 Z0.5000
G01 Z-2.0000 F70
G01 X40.8000 F120
G01 Y27.2000
G01 X29.4000
G01 Y24.0000
G01 X30.4000 Y25.0000
G01 X39.8000
G01 Y26.2000
G01 X30.4000
G01 Y25.0000
G00 Z5.0000
G00 X49.2000 Y26.6000
G01 Z0.5000
G01 Z-2.0000 F70
G01 Y23.0000 F120
G01 X50.2000 Y21.4000
G01 Y13.0000
G01 X49.2000 Y11.4000
G01 Y7.8000
G01 X50.2000 Y8.0000
G01 X52.2000 Y10.0000
G01 X53.0000 Y12.0000
G01 Y22.4000
G01 X52.2000 Y24.4000
G01 X49.8000 Y26.6000
G01 X49.2000
G01 Z-1.5000
G01 X50.6000 Y24.6000
G01 Z-2.0000 F70
G01 X50.2000 Y23.4000 F120
G01 X51.2000 Y21.6000
G01 Y12.8000
G01 X50.2000 Y9.8000
G01 X51.4000 Y10.6000
G01 X52.0000 Y12.2000
G01 Y22.2000
G01 X50.6000 Y24.6000
G00 Z5.0000
G00 X12.0000 Y12.0000
(Project screen3)
(Created by Estlcam version 11 build 11,245)
(Machining time about 00:20:52 hours)

(Required tools:)
(2)
(2)
G21
G90
G94
M03 S<s>


(No. 2: )
G01 X12.0000 Y12.0000 Z5.5000 F120
G01 X12.6750 Y10.9500
G01 Z-3.0000
G01 X45.4500
G01 X45.5250 Z-1.0000
G01 X47.7750
G01 Z0.5000
G01 X48.3750 Y11.2500
G01 Z-1.0000
G01 X12.5250
G01 X12.4500 Z-3.0000
G01 X12.0750
G01 X11.7000 Y11.5500
G01 X11.9250
G01 X12.0000 Z-1.0000
G01 X48.4500
G01 X48.5250 Z-3.0000
G01 X48.7500
G01 X49.0500 Y11.8500
G01 X48.8250
G01 X48.7500 Z-1.0000
G01 X11.7000
G01 X11.6250 Z-3.0000
G01 X11.4000
G01 X11.1750 Y12.1500
G01 X11.4000
G01 X11.4750 Z-1.0000
G01 X48.9750
G01 X49.0500 Z-3.0000
G01 X49.2750
G01 Z0.0000
G01 X49.3500 Y12.4500
G01 Z-3.0000
G01 X49.1250 Z-1.0000
G01 X11.3250
G01 X11.2500 Z-3.0000
G01 X11.0250
G01 X10.9500 Y12.7500
G01 X11.1750 Z-1.0000
G01 X49.2000
G01 X49.4250 Z-3.0000
G01 X49.5000 Y13.0500
G01 X49.2750 Z-1.0000
G01 X45.6750
G01 X45.6000 Z0.0000
G01 X14.8500
G01 X14.7750 Z-1.0000
G01 X11.1000
G01 X10.8750 Z-3.0000
G01 Z0.0000
G01 X10.8000 Y13.3500
G01 Z-3.0000
G01 X11.0250 Z-1.0000
G01 X14.1000
G01 X14.1750 Z0.0000
G01 X46.2750
G01 X46.3500 Z-1.0000
G01 X49.3500
G01 X49.5750 Z-3.0000
G01 Y13.6500
G01 X49.3500 Z-1.0000
G01 X46.7250
G01 X46.6500 Z0.0000
G01 X13.8000
G01 X13.7250 Z-1.0000
G01 X11.0250
G01 X10.8000 Z-3.0000
G01 Y13.9500
G01 X11.0250 Z-1.0000
G01 X13.4250
G01 X13.5000 Z0.0000
G01 X46.9500
G01 X47.0250 Z-1.0000
G01 X49.3500
G01 X49.5750 Z-3.0000
G01 Y14.2500
G01 X49.3500 Z-1.0000
G01 X47.1750
G01 X47.1000 Z0.0000
G01 X13.3500
G01 X13.2750 Z-1.0000
G01 X11.0250
G01 X10.8000 Z-3.0000
G01 Y14.5500
G01 X11.0250 Z-1.0000
G01 X13.1250
G01 X13.2000 Z0.0000
G01 X47.1750
G01 X47.2500 Z-1.0000
G01 X49.3500
G01 X49.5750 Z-3.0000
G01 Y14.8500
G01 X49.3500 Z-1.0000
G01 X47.4000
G01 X47.3250 Z0.0000
G01 X13.0500
G01 X12.9750 Z-1.0000
G01 X11.0250
G01 X10.8000 Z-3.0000
G01 Y15.1500
G01 X11.0250 Z-1.0000
G01 X12.9750
G01 X13.0500 Z0.0000
G01 X47.3250
G01 X47.4000 Z-1.0000
G01 X49.3500
G01 X49.5750 Z-3.0000
G01 Y15.4500
G01 X49.3500 Z-1.0000
G01 X47.4750
G01 X47.4000 Z0.0000
G01 X12.9750
G01 X12.9000 Z-1.0000
G01 X11.0250
G01 X10.8000 Z-3.0000
G01 Y15.7500
G01 X11.0250 Z-1.0000
G01 X12.9000
G01 X12.9750 Z0.0000
G01 X47.4000
G01 X47.4750 Z-1.0000
G01 X49.3500
G01 X49.5750 Z-3.0000
G01 Y16.0500
G01 X49.3500 Z-1.0000
G01 X47.4750
G01 X47.4000 Z0.0000
G01 X12.9750
G01 X12.9000 Z-1.0000
G01 X11.0250
G01 X10.8000 Z-3.0000
G01 Y16.3500
G01 X11.0250 Z-1.0000
G01 X12.9000
G01 X12.9750 Z0.0000
G01 X47.4000
G01 X47.4750 Z-1.0000
G01 X49.3500
G01 X49.5750 Z-3.0000
G01 Y16.6500
G01 X49.3500 Z-1.0000
G01 X47.4750
G01 X47.4000 Z0.0000
G01 X12.9750
G01 X12.9000 Z-1.0000
G01 X11.0250
G01 X10.8000 Z-3.0000
G01 Y16.9500
G01 X11.0250 Z-1.0000
G01 X12.9000
G01 X12.9750 Z0.0000
G01 X47.4000
G01 X47.4750 Z-1.0000
G01 X49.3500
G01 X49.5750 Z-3.0000
G01 Y17.2500
G01 X49.3500 Z-1.0000
G01 X47.4750
G01 X47.4000 Z0.0000
G01 X12.9750
G01 X12.9000 Z-1.0000
G01 X11.0250
G01 X10.8000 Z-3.0000
G01 Y17.5500
G01 X11.0250 Z-1.0000
G01 X12.9000
G01 X12.9750 Z0.0000
G01 X47.4000
G01 X47.4750 Z-1.0000
G01 X49.3500
G01 X49.5750 Z-3.0000
G01 Y17.8500
G01 X49.3500 Z-1.0000
G01 X47.4750
G01 X47.4000 Z0.0000
G01 X12.9750
G01 X12.9000 Z-1.0000
G01 X11.0250
G01 X10.8000 Z-3.0000
G01 Y18.1500
G01 X11.0250 Z-1.0000
G01 X12.9000
G01 X12.9750 Z0.0000
G01 X47.4000
G01 X47.4750 Z-1.0000
G01 X49.3500
G01 X49.5750 Z-3.0000
G01 Y18.4500
G01 X49.3500 Z-1.0000
G01 X47.4750
G01 X47.4000 Z0.0000
G01 X12.9750
G01 X12.9000 Z-1.0000
G01 X11.0250
G01 X10.8000 Z-3.0000
G01 Y18.7500
G01 X11.0250 Z-1.0000
G01 X12.9000
G01 X12.9750 Z0.0000
G01 X47.4000
G01 X47.4750 Z-1.0000
G01 X49.3500
G01 X49.5750 Z-3.0000
G01 Y19.0500
G01 X49.3500 Z-1.0000
G01 X47.4750
G01 X47.4000 Z0.0000
G01 X12.9750
G01 X12.9000 Z-1.0000
G01 X11.0250
G01 X10.8000 Z-3.0000
G01 Y19.3500
G01 X11.0250 Z-1.0000
G01 X12.9750
G01 X13.0500 Z0.0000
G01 X47.3250
G01 X47.4000 Z-1.0000
G01 X49.3500
G01 X49.5750 Z-3.0000
G01 Y19.6500
G01 X49.3500 Z-1.0000
G01 X47.4000
G01 X47.3250 Z0.0000
G01 X13.0500
G01 X12.9750 Z-1.0000
G01 X11.0250
G01 X10.8000 Z-3.0000
G01 Y19.9500
G01 X11.0250 Z-1.0000
G01 X13.1250
G01 X13.2000 Z0.0000
G01 X47.1750
G01 X47.2500 Z-1.0000
G01 X49.3500
G01 X49.5750 Z-3.0000
G01 Y20.2500
G01 X49.3500 Z-1.0000
G01 X47.1750
G01 X47.1000 Z0.0000
G01 X13.3500
G01 X13.2750 Z-1.0000
G01 X11.0250
G01 X10.8000 Z-3.0000
G01 Y20.5500
G01 X11.0250 Z-1.0000
G01 X13.4250
G01 X13.5000 Z0.0000
G01 X46.9500
G01 X47.0250 Z-1.0000
G01 X49.3500
G01 X49.5750 Z-3.0000
G01 Y20.8500
G01 X49.3500 Z-1.0000
G01 X46.7250
G01 X46.6500 Z0.0000
G01 X13.8000
G01 X13.7250 Z-1.0000
G01 X11.0250
G01 X10.8000 Z-3.0000
G01 Y21.1500
G01 X11.0250 Z-1.0000
G01 X14.1000
G01 X14.1750 Z0.0000
G01 X46.2750
G01 X46.3500 Z-1.0000
G01 X49.3500
G01 X49.5750 Z-3.0000
G01 Z0.0000
G01 X49.5000 Y21.4500
G01 Z-3.0000
G01 X49.2750 Z-1.0000
G01 X45.6750
G01 X45.6000 Z0.0000
G01 X14.8500
G01 X14.7750 Z-1.0000
G01 X11.1000
G01 X10.8750 Z-3.0000
G01 X10.9500 Y21.7500
G01 X11.1750 Z-1.0000
G01 X49.2000
G01 X49.4250 Z-3.0000
G01 X49.3500 Y22.0500
G01 X49.1250 Z-1.0000
G01 X11.3250
G01 X11.2500 Z-3.0000
G01 X11.0250
G01 Z0.0000
G01 X11.1750 Y22.3500
G01 Z-3.0000
G01 X11.4000
G01 X11.4750 Z-1.0000
G01 X48.9750
G01 X49.0500 Z-3.0000
G01 X49.2750
G01 X49.0500 Y22.6500
G01 X48.8250
G01 X48.7500 Z-1.0000
G01 X11.7000
G01 X11.6250 Z-3.0000
G01 X11.4000
G01 X11.7000 Y22.9500
G01 X11.9250
G01 X12.0000 Z-1.0000
G01 X48.4500
G01 X48.5250 Z-3.0000
G01 X48.7500
G01 Z0.0000
G01 X48.3750 Y23.2500
G01 Z-1.0000
G01 X12.5250
G01 X12.4500 Z-3.0000
G01 X12.0750
G01 Z0.5000
G01 X12.6750 Y23.5500
G01 Z-3.0000
G01 X21.6750
G01 X21.7500 Z-1.0000
G01 X28.6500
G01 X28.7250 Z-3.0000
G01 X41.4750
G01 X41.5500 Z-1.0000
G01 X47.7750
G00 Z5.0000
G00 X12.0000 Y12.0000
G00 X0.0000 Y0.0000

M05
M30
