(G-CODE GENERATED BY FLATCAM v8.993 - www.flatcam.org - Version Date: 2020/06/05)

(Name: Tapik.drl_cnc)
(Type: G-code from Excellon)
(Units: MM)

(Created on Saturday, 21 August 2021 at 03:57)

(This preprocessor is the default preprocessor used by FlatCAM.)
(It is made to work with MACH3 compatible motion controllers.)


(TOOLS DIAMETER: )
(Tool: 1 -> Dia: 0.72)
(Tool: 2 -> Dia: 0.8)
(Tool: 3 -> Dia: 1.0)
(Tool: 4 -> Dia: 3.5)

(FEEDRATE Z: )
(Tool: 1 -> Feedrate: 70.0)
(Tool: 2 -> Feedrate: 70.0)
(Tool: 3 -> Feedrate: 70.0)
(Tool: 4 -> Feedrate: 70.0)

(FEEDRATE RAPIDS: )
(Tool: 1 -> Feedrate Rapids: 1500)
(Tool: 2 -> Feedrate Rapids: 1500)
(Tool: 3 -> Feedrate Rapids: 1500)
(Tool: 4 -> Feedrate Rapids: 1500)

(Z_CUT: )
(Tool: 1 -> Z_Cut: -1.8)
(Tool: 2 -> Z_Cut: -1.8)
(Tool: 3 -> Z_Cut: -1.8)
(Tool: 4 -> Z_Cut: -1.8)

(Tools Offset: )
(Tool: 1 -> Offset Z: -0.0)
(Tool: 2 -> Offset Z: -0.0)
(Tool: 3 -> Offset Z: -0.0)

(Z_MOVE: )
(Tool: 1 -> Z_Move: 2)
(Tool: 2 -> Z_Move: 2)
(Tool: 3 -> Z_Move: 2)
(Tool: 4 -> Z_Move: 2)

(Z Toolchange: 25.0 mm)
(X,Y Toolchange: 0.00, 0.00 mm)
(Z Start: None mm)
(Z End: 2.0 mm)
(Steps per circle: 128)
(Preprocessor Excellon: default)

(X range:  -78.1900 ...   -2.6200  mm)
(Y range:  -24.2100 ...   -2.3000  mm)

(Spindle Speed: 10000.0 RPM)
G21
G90
G94



G01 F70.00

M5
G00 Z25.0000
T1
G00 X0.0000 Y0.0000                
M6
(MSG, Change to Tool Dia = 0.72 ||| Total drills for tool T1 = 4)
M0
G00 Z25.0000

M03 S10000
G00 X-64.2900 Y-22.2200
G01 Z-1.8000
G01 Z0
G00 Z2.0000
G00 X-67.4700 Y-22.2200
G01 Z-1.8000
G01 Z0
G00 Z2.0000
G00 X-67.4700 Y-14.6000
G01 Z-1.8000
G01 Z0
G00 Z2.0000
G00 X-64.2900 Y-14.6000
G01 Z-1.8000
G01 Z0
G00 Z2.0000
G01 F70.00

M5
G00 Z25.0000
T2
G00 X0.0000 Y0.0000                
M6
(MSG, Change to Tool Dia = 0.80 ||| Total drills for tool T2 = 16)
M0
G00 Z25.0000

M03 S10000
G00 X-3.0200 Y-23.0200
G01 Z-1.8000
G01 Z0
G00 Z2.0000
G00 X-6.1900 Y-23.0200
G01 Z-1.8000
G01 Z0
G00 Z2.0000
G00 X-15.0800 Y-21.5900
G01 Z-1.8000
G01 Z0
G00 Z2.0000
G00 X-22.0700 Y-21.5900
G01 Z-1.8000
G01 Z0
G00 Z2.0000
G00 X-73.6600 Y-23.8100
G01 Z-1.8000
G01 Z0
G00 Z2.0000
G00 X-77.7900 Y-23.8100
G01 Z-1.8000
G01 Z0
G00 Z2.0000
G00 X-77.6300 Y-4.1300
G01 Z-1.8000
G01 Z0
G00 Z2.0000
G00 X-74.1200 Y-4.1300
G01 Z-1.8000
G01 Z0
G00 Z2.0000
G00 X-6.1900 Y-2.7000
G01 Z-1.8000
G01 Z0
G00 Z2.0000
G00 X-3.0200 Y-2.7000
G01 Z-1.8000
G01 Z0
G00 Z2.0000
G00 X-6.1900 Y-7.9400
G01 Z-1.8000
G01 Z0
G00 Z2.0000
G00 X-3.0200 Y-7.9400
G01 Z-1.8000
G01 Z0
G00 Z2.0000
G00 X-3.0200 Y-12.8600
G01 Z-1.8000
G01 Z0
G00 Z2.0000
G00 X-6.1900 Y-12.8600
G01 Z-1.8000
G01 Z0
G00 Z2.0000
G00 X-6.1900 Y-17.9400
G01 Z-1.8000
G01 Z0
G00 Z2.0000
G00 X-3.0200 Y-17.9400
G01 Z-1.8000
G01 Z0
G00 Z2.0000
G01 F70.00

M5
G00 Z25.0000
T3
G00 X0.0000 Y0.0000                
M6
(MSG, Change to Tool Dia = 1.00 ||| Total drills for tool T3 = 4)
M0
G00 Z25.0000

M03 S10000
G00 X-55.2400 Y-15.8800
G01 Z-1.8000
G01 Z0
G00 Z2.0000
G00 X-59.6900 Y-15.8800
G01 Z-1.8000
G01 Z0
G00 Z2.0000
G00 X-59.6900 Y-10.1600
G01 Z-1.8000
G01 Z0
G00 Z2.0000
G00 X-55.2400 Y-10.1600
G01 Z-1.8000
G01 Z0
G00 Z2.0000
M05
G00 Z2.00

