(G-CODE GENERATED BY FLATCAM v8.993 - www.flatcam.org - Version Date: 2020/06/05)

(Name: Tapik_Ф2_низ.gbr_iso_combined_cnc)
(Type: G-code from Geometry)
(Units: MM)

(Created on Saturday, 21 August 2021 at 02:41)

(This preprocessor is the default preprocessor used by FlatCAM.)
(It is made to work with MACH3 compatible motion controllers.)

(TOOL DIAMETER: 0.16 mm)
(Feedrate_XY: 120.0 mm/min)
(Feedrate_Z: 70.0 mm/min)
(Feedrate rapids 1500.0 mm/min)

(Z_Cut: -0.07 mm)
(Z_Move: 2.0 mm)
(Z Start: None mm)
(Z End: 25.0 mm)
(Steps per circle: 128)
(Preprocessor Geometry: default)

(X range:  -80.2800 ...    0.2800  mm)
(Y range:  -26.2800 ...    0.2800  mm)

(Spindle Speed: 10000 RPM)
G21
G90
G94



G01 F120.00
G00 Z2.0000

M03 S10000
G00 X-0.0000 Y0.0700
G01 F70.00
G01 Z-0.0700
G01 F120.00
G01 X-80.0000 Y0.0700
G01 X-80.0111 Y0.0691
G01 X-80.0220 Y0.0665
G01 X-80.0322 Y0.0621
G01 X-80.0417 Y0.0562
G01 X-80.0495 Y0.0495
G01 X-80.0567 Y0.0410
G01 X-80.0621 Y0.0322
G01 X-80.0665 Y0.0220
G01 X-80.0691 Y0.0111
G01 X-80.0700 Y-0.0000
G01 X-80.0700 Y-26.0000
G01 X-80.0691 Y-26.0111
G01 X-80.0665 Y-26.0220
G01 X-80.0621 Y-26.0322
G01 X-80.0567 Y-26.0410
G01 X-80.0495 Y-26.0495
G01 X-80.0410 Y-26.0567
G01 X-80.0322 Y-26.0621
G01 X-80.0220 Y-26.0665
G01 X-80.0111 Y-26.0691
G01 X-80.0000 Y-26.0700
G01 X-0.0000 Y-26.0700
G01 X0.0111 Y-26.0691
G01 X0.0220 Y-26.0665
G01 X0.0322 Y-26.0621
G01 X0.0417 Y-26.0562
G01 X0.0501 Y-26.0489
G01 X0.0567 Y-26.0410
G01 X0.0625 Y-26.0315
G01 X0.0667 Y-26.0211
G01 X0.0691 Y-26.0111
G01 X0.0700 Y-26.0000
G01 X0.0700 Y-0.0000
G01 X0.0687 Y0.0137
G01 X0.0647 Y0.0268
G01 X0.0582 Y0.0389
G01 X0.0495 Y0.0495
G01 X0.0389 Y0.0582
G01 X0.0268 Y0.0647
G01 X0.0137 Y0.0687
G01 X-0.0000 Y0.0700
G00 Z2.0000
G00 X-0.0000 Y0.1400
G01 F70.00
G01 Z-0.0700
G01 F120.00
G01 X-80.0000 Y0.1400
G01 X-80.0222 Y0.1382
G01 X-80.0439 Y0.1329
G01 X-80.0629 Y0.1251
G01 X-80.0820 Y0.1135
G01 X-80.0990 Y0.0990
G01 X-80.1135 Y0.0820
G01 X-80.1251 Y0.0629
G01 X-80.1335 Y0.0423
G01 X-80.1385 Y0.0205
G01 X-80.1400 Y-0.0000
G01 X-80.1400 Y-26.0000
G01 X-80.1382 Y-26.0222
G01 X-80.1329 Y-26.0439
G01 X-80.1251 Y-26.0629
G01 X-80.1135 Y-26.0820
G01 X-80.0990 Y-26.0990
G01 X-80.0820 Y-26.1135
G01 X-80.0629 Y-26.1251
G01 X-80.0423 Y-26.1335
G01 X-80.0222 Y-26.1382
G01 X-80.0000 Y-26.1400
G01 X-0.0000 Y-26.1400
G01 X0.0222 Y-26.1382
G01 X0.0439 Y-26.1329
G01 X0.0629 Y-26.1251
G01 X0.0820 Y-26.1135
G01 X0.0990 Y-26.0990
G01 X0.1135 Y-26.0820
G01 X0.1251 Y-26.0629
G01 X0.1335 Y-26.0423
G01 X0.1385 Y-26.0205
G01 X0.1400 Y-26.0000
G01 X0.1400 Y-0.0000
G01 X0.1393 Y0.0137
G01 X0.1373 Y0.0273
G01 X0.1340 Y0.0406
G01 X0.1293 Y0.0536
G01 X0.1235 Y0.0660
G01 X0.1164 Y0.0778
G01 X0.1082 Y0.0888
G01 X0.0990 Y0.0990
G01 X0.0888 Y0.1082
G01 X0.0778 Y0.1164
G01 X0.0660 Y0.1235
G01 X0.0536 Y0.1293
G01 X0.0406 Y0.1340
G01 X0.0273 Y0.1373
G01 X0.0137 Y0.1393
G01 X-0.0000 Y0.1400
G00 Z2.0000
G00 X-0.0000 Y0.2100
G01 F70.00
G01 Z-0.0700
G01 F120.00
G01 X-80.0000 Y0.2100
G01 X-80.0154 Y0.2094
G01 X-80.0334 Y0.2073
G01 X-80.0510 Y0.2037
G01 X-80.0659 Y0.1994
G01 X-80.0804 Y0.1940
G01 X-80.0967 Y0.1864
G01 X-80.1102 Y0.1788
G01 X-80.1251 Y0.1687
G01 X-80.1372 Y0.1590
G01 X-80.1485 Y0.1485
G01 X-80.1607 Y0.1352
G01 X-80.1702 Y0.1230
G01 X-80.1788 Y0.1102
G01 X-80.1876 Y0.0944
G01 X-80.1950 Y0.0780
G01 X-80.2002 Y0.0634
G01 X-80.2049 Y0.0460
G01 X-80.2077 Y0.0308
G01 X-80.2094 Y0.0154
G01 X-80.2100 Y-0.0000
G01 X-80.2100 Y-26.0000
G01 X-80.2092 Y-26.0180
G01 X-80.2073 Y-26.0334
G01 X-80.2037 Y-26.0510
G01 X-80.1994 Y-26.0659
G01 X-80.1940 Y-26.0804
G01 X-80.1864 Y-26.0967
G01 X-80.1788 Y-26.1102
G01 X-80.1702 Y-26.1230
G01 X-80.1607 Y-26.1352
G01 X-80.1485 Y-26.1485
G01 X-80.1372 Y-26.1590
G01 X-80.1230 Y-26.1702
G01 X-80.1102 Y-26.1788
G01 X-80.0944 Y-26.1876
G01 X-80.0804 Y-26.1940
G01 X-80.0634 Y-26.2002
G01 X-80.0485 Y-26.2043
G01 X-80.0334 Y-26.2073
G01 X-80.0154 Y-26.2094
G01 X-80.0000 Y-26.2100
G01 X-0.0000 Y-26.2100
G01 X0.0154 Y-26.2094
G01 X0.0334 Y-26.2073
G01 X0.0510 Y-26.2037
G01 X0.0659 Y-26.1994
G01 X0.0827 Y-26.1930
G01 X0.0967 Y-26.1864
G01 X0.1102 Y-26.1788
G01 X0.1251 Y-26.1687
G01 X0.1372 Y-26.1590
G01 X0.1503 Y-26.1467
G01 X0.1607 Y-26.1352
G01 X0.1702 Y-26.1230
G01 X0.1801 Y-26.1080
G01 X0.1876 Y-26.0944
G01 X0.1940 Y-26.0804
G01 X0.1994 Y-26.0659
G01 X0.2037 Y-26.0510
G01 X0.2073 Y-26.0334
G01 X0.2092 Y-26.0180
G01 X0.2100 Y-26.0000
G01 X0.2100 Y-0.0000
G01 X0.2090 Y0.0206
G01 X0.2060 Y0.0410
G01 X0.2010 Y0.0610
G01 X0.1940 Y0.0804
G01 X0.1852 Y0.0990
G01 X0.1746 Y0.1167
G01 X0.1623 Y0.1332
G01 X0.1485 Y0.1485
G01 X0.1332 Y0.1623
G01 X0.1167 Y0.1746
G01 X0.0990 Y0.1852
G01 X0.0804 Y0.1940
G01 X0.0610 Y0.2010
G01 X0.0410 Y0.2060
G01 X0.0206 Y0.2090
G01 X-0.0000 Y0.2100
G00 Z2.0000
G00 X-0.0000 Y0.2800
G01 F70.00
G01 Z-0.0700
G01 F120.00
G01 X-80.0000 Y0.2800
G01 X-80.0240 Y0.2790
G01 X-80.0445 Y0.2764
G01 X-80.0647 Y0.2724
G01 X-80.0878 Y0.2659
G01 X-80.1072 Y0.2587
G01 X-80.1259 Y0.2501
G01 X-80.1469 Y0.2384
G01 X-80.1640 Y0.2269
G01 X-80.1803 Y0.2142
G01 X-80.1980 Y0.1980
G01 X-80.2142 Y0.1803
G01 X-80.2269 Y0.1640
G01 X-80.2384 Y0.1469
G01 X-80.2501 Y0.1259
G01 X-80.2587 Y0.1072
G01 X-80.2659 Y0.0878
G01 X-80.2716 Y0.0680
G01 X-80.2759 Y0.0479
G01 X-80.2787 Y0.0274
G01 X-80.2800 Y0.0034
G01 X-80.2800 Y-26.0000
G01 X-80.2790 Y-26.0240
G01 X-80.2764 Y-26.0445
G01 X-80.2716 Y-26.0680
G01 X-80.2659 Y-26.0878
G01 X-80.2587 Y-26.1072
G01 X-80.2501 Y-26.1259
G01 X-80.2384 Y-26.1469
G01 X-80.2269 Y-26.1640
G01 X-80.2142 Y-26.1803
G01 X-80.1980 Y-26.1980
G01 X-80.1803 Y-26.2142
G01 X-80.1640 Y-26.2269
G01 X-80.1469 Y-26.2384
G01 X-80.1259 Y-26.2501
G01 X-80.1072 Y-26.2587
G01 X-80.0878 Y-26.2659
G01 X-80.0647 Y-26.2724
G01 X-80.0445 Y-26.2764
G01 X-80.0240 Y-26.2790
G01 X-80.0000 Y-26.2800
G01 X-0.0000 Y-26.2800
G01 X0.0240 Y-26.2790
G01 X0.0445 Y-26.2764
G01 X0.0647 Y-26.2724
G01 X0.0878 Y-26.2659
G01 X0.1072 Y-26.2587
G01 X0.1290 Y-26.2485
G01 X0.1469 Y-26.2384
G01 X0.1640 Y-26.2269
G01 X0.1803 Y-26.2142
G01 X0.1980 Y-26.1980
G01 X0.2120 Y-26.1829
G01 X0.2249 Y-26.1668
G01 X0.2366 Y-26.1498
G01 X0.2485 Y-26.1290
G01 X0.2574 Y-26.1103
G01 X0.2648 Y-26.0911
G01 X0.2716 Y-26.0680
G01 X0.2759 Y-26.0479
G01 X0.2790 Y-26.0240
G01 X0.2800 Y-26.0034
G01 X0.2800 Y-0.0000
G01 X0.2787 Y0.0274
G01 X0.2746 Y0.0546
G01 X0.2679 Y0.0813
G01 X0.2587 Y0.1072
G01 X0.2469 Y0.1320
G01 X0.2328 Y0.1556
G01 X0.2164 Y0.1776
G01 X0.1980 Y0.1980
G01 X0.1776 Y0.2164
G01 X0.1556 Y0.2328
G01 X0.1320 Y0.2469
G01 X0.1072 Y0.2587
G01 X0.0813 Y0.2679
G01 X0.0546 Y0.2746
G01 X0.0274 Y0.2787
G01 X-0.0000 Y0.2800
G00 Z2.0000
G00 X-1.4138 Y-1.1094
G01 F70.00
G01 Z-0.0700
G01 F120.00
G01 X-1.4138 Y-1.0088
G01 X-1.5144 Y-1.0088
G01 X-1.4981 Y-1.0174
G01 X-1.4829 Y-1.0271
G01 X-1.4686 Y-1.0381
G01 X-1.4553 Y-1.0503
G01 X-1.4431 Y-1.0636
G01 X-1.4321 Y-1.0779
G01 X-1.4224 Y-1.0931
G01 X-1.4138 Y-1.1094
G00 Z2.0000
G00 X-1.5144 Y-4.3888
G01 F70.00
G01 Z-0.0700
G01 F120.00
G01 X-1.4138 Y-4.3888
G01 X-1.4138 Y-4.2882
G01 X-1.4224 Y-4.3045
G01 X-1.4321 Y-4.3197
G01 X-1.4431 Y-4.3340
G01 X-1.4553 Y-4.3473
G01 X-1.4686 Y-4.3595
G01 X-1.4829 Y-4.3705
G01 X-1.4981 Y-4.3802
G01 X-1.5144 Y-4.3888
G00 Z2.0000
G00 X-1.4138 Y-6.1894
G01 F70.00
G01 Z-0.0700
G01 F120.00
G01 X-1.4138 Y-6.0888
G01 X-1.5144 Y-6.0888
G01 X-1.4981 Y-6.0974
G01 X-1.4829 Y-6.1071
G01 X-1.4686 Y-6.1181
G01 X-1.4553 Y-6.1303
G01 X-1.4431 Y-6.1436
G01 X-1.4321 Y-6.1579
G01 X-1.4224 Y-6.1731
G01 X-1.4138 Y-6.1894
G00 Z2.0000
G00 X-1.5144 Y-9.4688
G01 F70.00
G01 Z-0.0700
G01 F120.00
G01 X-1.4138 Y-9.4688
G01 X-1.4138 Y-9.3682
G01 X-1.4224 Y-9.3845
G01 X-1.4321 Y-9.3997
G01 X-1.4431 Y-9.4140
G01 X-1.4553 Y-9.4273
G01 X-1.4686 Y-9.4395
G01 X-1.4829 Y-9.4505
G01 X-1.4981 Y-9.4602
G01 X-1.5144 Y-9.4688
G00 Z2.0000
G00 X-1.5144 Y-11.1688
G01 F70.00
G01 Z-0.0700
G01 F120.00
G01 X-1.4981 Y-11.1774
G01 X-1.4829 Y-11.1871
G01 X-1.4686 Y-11.1981
G01 X-1.4553 Y-11.2103
G01 X-1.4431 Y-11.2236
G01 X-1.4321 Y-11.2379
G01 X-1.4224 Y-11.2531
G01 X-1.4138 Y-11.2694
G01 X-1.4138 Y-11.1688
G01 X-1.5144 Y-11.1688
G00 Z2.0000
G00 X-1.4138 Y-14.4482
G01 F70.00
G01 Z-0.0700
G01 F120.00
G01 X-1.4224 Y-14.4645
G01 X-1.4321 Y-14.4797
G01 X-1.4431 Y-14.4940
G01 X-1.4553 Y-14.5073
G01 X-1.4686 Y-14.5195
G01 X-1.4829 Y-14.5305
G01 X-1.4981 Y-14.5402
G01 X-1.5144 Y-14.5488
G01 X-1.4138 Y-14.5488
G01 X-1.4138 Y-14.4482
G00 Z2.0000
G00 X-1.5144 Y-16.2488
G01 F70.00
G01 Z-0.0700
G01 F120.00
G01 X-1.4981 Y-16.2574
G01 X-1.4829 Y-16.2671
G01 X-1.4686 Y-16.2781
G01 X-1.4553 Y-16.2903
G01 X-1.4431 Y-16.3036
G01 X-1.4321 Y-16.3179
G01 X-1.4224 Y-16.3331
G01 X-1.4138 Y-16.3494
G01 X-1.4138 Y-16.2488
G01 X-1.5144 Y-16.2488
G00 Z2.0000
G00 X-1.3438 Y-17.2988
G01 F70.00
G01 Z-0.0700
G01 F120.00
G01 X-1.3438 Y-16.1788
G01 X-3.9638 Y-16.1788
G01 X-3.9638 Y-16.2988
G01 X-1.6038 Y-16.2988
G01 X-1.5901 Y-16.2995
G01 X-1.5765 Y-16.3015
G01 X-1.5615 Y-16.3053
G01 X-1.5486 Y-16.3101
G01 X-1.5318 Y-16.3187
G01 X-1.5163 Y-16.3295
G01 X-1.5024 Y-16.3423
G01 X-1.4903 Y-16.3568
G01 X-1.4803 Y-16.3728
G01 X-1.4726 Y-16.3900
G01 X-1.4672 Y-16.4081
G01 X-1.4643 Y-16.4268
G01 X-1.4638 Y-16.4388
G01 X-1.4638 Y-17.2988
G01 X-1.3438 Y-17.2988
G00 Z2.0000
G00 X-1.2738 Y-17.3688
G01 F70.00
G01 Z-0.0700
G01 F120.00
G01 X-1.2738 Y-16.1088
G01 X-4.0338 Y-16.1088
G01 X-4.0338 Y-16.3688
G01 X-1.6038 Y-16.3688
G01 X-1.5893 Y-16.3703
G01 X-1.5747 Y-16.3752
G01 X-1.5664 Y-16.3797
G01 X-1.5587 Y-16.3852
G01 X-1.5514 Y-16.3924
G01 X-1.5456 Y-16.3999
G01 X-1.5409 Y-16.4081
G01 X-1.5373 Y-16.4168
G01 X-1.5348 Y-16.4268
G01 X-1.5338 Y-16.4362
G01 X-1.5338 Y-17.3688
G01 X-1.2738 Y-17.3688
G00 Z2.0000
G00 X-1.5144 Y-19.6288
G01 F70.00
G01 Z-0.0700
G01 F120.00
G01 X-1.4138 Y-19.6288
G01 X-1.4138 Y-19.5282
G01 X-1.4224 Y-19.5445
G01 X-1.4321 Y-19.5597
G01 X-1.4431 Y-19.5740
G01 X-1.4553 Y-19.5873
G01 X-1.4686 Y-19.5995
G01 X-1.4829 Y-19.6105
G01 X-1.4981 Y-19.6202
G01 X-1.5144 Y-19.6288
G00 Z2.0000
G00 X-1.3438 Y-19.6988
G01 F70.00
G01 Z-0.0700
G01 F120.00
G01 X-1.3438 Y-18.5788
G01 X-1.4638 Y-18.5788
G01 X-1.4638 Y-19.4388
G01 X-1.4643 Y-19.4508
G01 X-1.4672 Y-19.4695
G01 X-1.4726 Y-19.4876
G01 X-1.4803 Y-19.5048
G01 X-1.4914 Y-19.5222
G01 X-1.5048 Y-19.5378
G01 X-1.5190 Y-19.5502
G01 X-1.5363 Y-19.5614
G01 X-1.5534 Y-19.5694
G01 X-1.5665 Y-19.5737
G01 X-1.5782 Y-19.5764
G01 X-1.5901 Y-19.5781
G01 X-1.6038 Y-19.5788
G01 X-3.9638 Y-19.5788
G01 X-3.9638 Y-19.6988
G01 X-1.3438 Y-19.6988
G00 Z2.0000
G00 X-1.2738 Y-19.7688
G01 F70.00
G01 Z-0.0700
G01 F120.00
G01 X-1.2738 Y-18.5088
G01 X-1.5338 Y-18.5088
G01 X-1.5339 Y-19.4422
G01 X-1.5351 Y-19.4525
G01 X-1.5379 Y-19.4624
G01 X-1.5421 Y-19.4718
G01 X-1.5476 Y-19.4805
G01 X-1.5543 Y-19.4883
G01 X-1.5621 Y-19.4950
G01 X-1.5708 Y-19.5005
G01 X-1.5802 Y-19.5047
G01 X-1.5918 Y-19.5078
G01 X-1.6038 Y-19.5088
G01 X-4.0338 Y-19.5088
G01 X-4.0338 Y-19.7688
G01 X-1.2738 Y-19.7688
G00 Z2.0000
G00 X-1.5144 Y-21.3288
G01 F70.00
G01 Z-0.0700
G01 F120.00
G01 X-1.4981 Y-21.3374
G01 X-1.4829 Y-21.3471
G01 X-1.4686 Y-21.3581
G01 X-1.4553 Y-21.3703
G01 X-1.4431 Y-21.3836
G01 X-1.4321 Y-21.3979
G01 X-1.4224 Y-21.4131
G01 X-1.4138 Y-21.4294
G01 X-1.4138 Y-21.3288
G01 X-1.5144 Y-21.3288
G00 Z2.0000
G00 X-1.4138 Y-24.6082
G01 F70.00
G01 Z-0.0700
G01 F120.00
G01 X-1.4224 Y-24.6245
G01 X-1.4321 Y-24.6397
G01 X-1.4431 Y-24.6540
G01 X-1.4553 Y-24.6673
G01 X-1.4686 Y-24.6795
G01 X-1.4829 Y-24.6905
G01 X-1.4981 Y-24.7002
G01 X-1.5144 Y-24.7088
G01 X-1.4138 Y-24.7088
G01 X-1.4138 Y-24.6082
G00 Z2.0000
G00 X-7.6932 Y-24.7088
G01 F70.00
G01 Z-0.0700
G01 F120.00
G01 X-7.7140 Y-24.6976
G01 X-7.7317 Y-24.6854
G01 X-7.8630 Y-24.7088
G01 X-7.6932 Y-24.7088
G00 Z2.0000
G00 X-7.8827 Y-23.7775
G01 F70.00
G01 Z-0.0700
G01 F120.00
G01 X-7.8138 Y-23.7652
G01 X-7.8138 Y-23.6954
G01 X-7.8262 Y-23.7179
G01 X-7.8428 Y-23.7407
G01 X-7.8623 Y-23.7611
G01 X-7.8827 Y-23.7775
G00 Z2.0000
G00 X-8.6493 Y-22.9176
G01 F70.00
G01 Z-0.0700
G01 F120.00
G01 X-8.8231 Y-22.6277
G01 X-8.8269 Y-22.6200
G01 X-8.8299 Y-22.6111
G01 X-8.8316 Y-22.6027
G01 X-8.8322 Y-22.5933
G01 X-8.8309 Y-22.5797
G01 X-8.8270 Y-22.5666
G01 X-8.8206 Y-22.5545
G01 X-8.8114 Y-22.5433
G01 X-8.8022 Y-22.5356
G01 X-8.6512 Y-22.4307
G01 X-8.6485 Y-22.4275
G01 X-8.6475 Y-22.4235
G01 X-8.6483 Y-22.4194
G01 X-8.6507 Y-22.4160
G01 X-8.6535 Y-22.4143
G01 X-8.6567 Y-22.4137
G01 X-8.6599 Y-22.4141
G01 X-8.6631 Y-22.4159
G01 X-8.9375 Y-22.6064
G01 X-8.9503 Y-22.6135
G01 X-8.9626 Y-22.6173
G01 X-8.9763 Y-22.6189
G01 X-8.9900 Y-22.6178
G01 X-9.0024 Y-22.6143
G01 X-9.0148 Y-22.6082
G01 X-9.0250 Y-22.6003
G01 X-9.0341 Y-22.5900
G01 X-9.0411 Y-22.5781
G01 X-9.0458 Y-22.5643
G01 X-9.0475 Y-22.5498
G01 X-9.0475 Y-22.0338
G01 X-9.0488 Y-22.0294
G01 X-9.0521 Y-22.0261
G01 X-9.0565 Y-22.0248
G01 X-9.0611 Y-22.0257
G01 X-9.0652 Y-22.0294
G01 X-9.0665 Y-22.0352
G01 X-9.0665 Y-22.9223
G01 X-9.0656 Y-22.9273
G01 X-9.0615 Y-22.9316
G01 X-9.0556 Y-22.9326
G01 X-9.0503 Y-22.9299
G01 X-9.0484 Y-22.9273
G01 X-9.0475 Y-22.9241
G01 X-9.0474 Y-22.7400
G01 X-9.0450 Y-22.7240
G01 X-9.0389 Y-22.7090
G01 X-9.0307 Y-22.6971
G01 X-9.0201 Y-22.6871
G01 X-8.9317 Y-22.6256
G01 X-8.9235 Y-22.6210
G01 X-8.9138 Y-22.6172
G01 X-8.9046 Y-22.6150
G01 X-8.8952 Y-22.6141
G01 X-8.8798 Y-22.6154
G01 X-8.8642 Y-22.6204
G01 X-8.8502 Y-22.6288
G01 X-8.8386 Y-22.6403
G01 X-8.8332 Y-22.6481
G01 X-8.6646 Y-22.9289
G01 X-8.6619 Y-22.9314
G01 X-8.6584 Y-22.9326
G01 X-8.6547 Y-22.9324
G01 X-8.6513 Y-22.9308
G01 X-8.6488 Y-22.9281
G01 X-8.6476 Y-22.9246
G01 X-8.6478 Y-22.9209
G01 X-8.6493 Y-22.9176
G00 Z2.0000
G00 X-9.7585 Y-23.1445
G01 F70.00
G01 Z-0.0700
G01 F120.00
G01 X-9.7580 Y-22.9760
G01 X-9.7554 Y-22.9634
G01 X-9.7505 Y-22.9515
G01 X-9.7436 Y-22.9406
G01 X-9.7347 Y-22.9312
G01 X-9.7257 Y-22.9245
G01 X-9.7158 Y-22.9193
G01 X-9.7044 Y-22.9156
G01 X-9.6933 Y-22.9140
G01 X-9.6778 Y-22.9146
G01 X-9.5678 Y-22.9327
G01 X-9.4314 Y-22.9099
G01 X-9.4283 Y-22.9080
G01 X-9.4261 Y-22.9052
G01 X-9.3594 Y-22.7939
G01 X-9.3585 Y-22.7889
G01 X-9.3587 Y-22.5657
G01 X-9.3603 Y-22.5620
G01 X-9.4261 Y-22.4523
G01 X-9.4280 Y-22.4498
G01 X-9.4306 Y-22.4479
G01 X-9.5671 Y-22.4137
G01 X-9.5711 Y-22.4142
G01 X-9.6884 Y-22.4434
G01 X-9.7028 Y-22.4453
G01 X-9.7114 Y-22.4450
G01 X-9.7199 Y-22.4436
G01 X-9.7281 Y-22.4412
G01 X-9.7360 Y-22.4378
G01 X-9.7489 Y-22.4294
G01 X-9.7552 Y-22.4236
G01 X-9.7613 Y-22.4165
G01 X-9.7648 Y-22.4142
G01 X-9.7685 Y-22.4137
G01 X-9.7716 Y-22.4144
G01 X-9.7747 Y-22.4165
G01 X-9.7766 Y-22.4191
G01 X-9.7775 Y-22.4241
G01 X-9.7775 Y-23.1463
G01 X-9.7764 Y-23.1499
G01 X-9.7740 Y-23.1528
G01 X-9.7708 Y-23.1545
G01 X-9.7671 Y-23.1549
G01 X-9.7635 Y-23.1538
G01 X-9.7606 Y-23.1514
G01 X-9.7589 Y-23.1482
G01 X-9.7585 Y-23.1445
G00 Z2.0000
G00 X-9.7585 Y-22.6086
G01 F70.00
G01 Z-0.0700
G01 F120.00
G01 X-9.7585 Y-22.7399
G01 X-9.7563 Y-22.7562
G01 X-9.7524 Y-22.7676
G01 X-9.7088 Y-22.8619
G01 X-9.7007 Y-22.8741
G01 X-9.6903 Y-22.8843
G01 X-9.6771 Y-22.8925
G01 X-9.6625 Y-22.8977
G01 X-9.5787 Y-22.9118
G01 X-9.5650 Y-22.9125
G01 X-9.5565 Y-22.9116
G01 X-9.4642 Y-22.8957
G01 X-9.4546 Y-22.8921
G01 X-9.4450 Y-22.8867
G01 X-9.4363 Y-22.8798
G01 X-9.4293 Y-22.8723
G01 X-9.4244 Y-22.8653
G01 X-9.3862 Y-22.8015
G01 X-9.3816 Y-22.7914
G01 X-9.3787 Y-22.7806
G01 X-9.3775 Y-22.7678
G01 X-9.3776 Y-22.5871
G01 X-9.3801 Y-22.5709
G01 X-9.3862 Y-22.5558
G01 X-9.4273 Y-22.4875
G01 X-9.4341 Y-22.4786
G01 X-9.4422 Y-22.4710
G01 X-9.4537 Y-22.4635
G01 X-9.4665 Y-22.4584
G01 X-9.5519 Y-22.4371
G01 X-9.5646 Y-22.4353
G01 X-9.5740 Y-22.4354
G01 X-9.5833 Y-22.4369
G01 X-9.6644 Y-22.4571
G01 X-9.6742 Y-22.4605
G01 X-9.6841 Y-22.4657
G01 X-9.6930 Y-22.4724
G01 X-9.7014 Y-22.4812
G01 X-9.7076 Y-22.4905
G01 X-9.7529 Y-22.5812
G01 X-9.7570 Y-22.5942
G01 X-9.7585 Y-22.6086
G00 Z2.0000
G00 X-10.5180 Y-22.8689
G01 F70.00
G01 Z-0.0700
G01 F120.00
G01 X-10.5264 Y-22.8647
G01 X-10.5342 Y-22.8594
G01 X-10.5412 Y-22.8531
G01 X-10.5473 Y-22.8459
G01 X-10.6050 Y-22.7505
G01 X-10.6079 Y-22.7481
G01 X-10.6115 Y-22.7470
G01 X-10.6152 Y-22.7474
G01 X-10.6184 Y-22.7491
G01 X-10.6206 Y-22.7516
G01 X-10.6217 Y-22.7546
G01 X-10.6218 Y-22.7579
G01 X-10.6208 Y-22.7610
G01 X-10.5522 Y-22.8746
G01 X-10.5487 Y-22.8767
G01 X-10.4169 Y-22.9317
G01 X-10.4115 Y-22.9327
G01 X-10.2772 Y-22.9325
G01 X-10.1413 Y-22.8760
G01 X-10.1372 Y-22.8718
G01 X-10.0700 Y-22.7593
G01 X-10.0700 Y-22.6426
G01 X-10.1372 Y-22.5301
G01 X-10.1398 Y-22.5269
G01 X-10.2768 Y-22.4695
G01 X-10.3974 Y-22.4692
G01 X-10.4094 Y-22.4680
G01 X-10.4226 Y-22.4641
G01 X-10.5211 Y-22.4231
G01 X-10.5293 Y-22.4185
G01 X-10.5368 Y-22.4128
G01 X-10.5435 Y-22.4062
G01 X-10.5488 Y-22.3994
G01 X-10.5938 Y-22.3246
G01 X-10.5975 Y-22.3169
G01 X-10.6003 Y-22.3088
G01 X-10.6022 Y-22.2995
G01 X-10.6029 Y-22.2901
G01 X-10.6028 Y-22.2213
G01 X-10.6006 Y-22.2052
G01 X-10.5979 Y-22.1970
G01 X-10.5938 Y-22.1885
G01 X-10.5478 Y-22.1122
G01 X-10.5424 Y-22.1056
G01 X-10.5362 Y-22.0996
G01 X-10.5293 Y-22.0945
G01 X-10.5218 Y-22.0903
G01 X-10.4226 Y-22.0489
G01 X-10.4094 Y-22.0450
G01 X-10.3974 Y-22.0438
G01 X-10.2950 Y-22.0438
G01 X-10.2821 Y-22.0450
G01 X-10.2689 Y-22.0489
G01 X-10.1705 Y-22.0899
G01 X-10.1630 Y-22.0941
G01 X-10.1554 Y-22.0996
G01 X-10.1492 Y-22.1055
G01 X-10.1438 Y-22.1122
G01 X-10.0865 Y-22.2070
G01 X-10.0832 Y-22.2096
G01 X-10.0791 Y-22.2105
G01 X-10.0755 Y-22.2098
G01 X-10.0720 Y-22.2074
G01 X-10.0696 Y-22.2019
G01 X-10.0707 Y-22.1965
G01 X-10.1394 Y-22.0828
G01 X-10.1429 Y-22.0807
G01 X-10.2763 Y-22.0252
G01 X-10.4143 Y-22.0250
G01 X-10.5518 Y-22.0824
G01 X-10.5544 Y-22.0856
G01 X-10.6215 Y-22.1982
G01 X-10.6216 Y-22.3144
G01 X-10.5544 Y-22.4274
G01 X-10.5525 Y-22.4299
G01 X-10.5499 Y-22.4318
G01 X-10.4143 Y-22.4880
G01 X-10.2933 Y-22.4883
G01 X-10.2847 Y-22.4890
G01 X-10.2762 Y-22.4908
G01 X-10.1720 Y-22.5337
G01 X-10.1637 Y-22.5381
G01 X-10.1561 Y-22.5436
G01 X-10.1481 Y-22.5513
G01 X-10.1410 Y-22.5609
G01 X-10.0978 Y-22.6329
G01 X-10.0917 Y-22.6471
G01 X-10.0894 Y-22.6572
G01 X-10.0886 Y-22.6674
G01 X-10.0887 Y-22.7370
G01 X-10.0895 Y-22.7456
G01 X-10.0914 Y-22.7540
G01 X-10.0978 Y-22.7690
G01 X-10.1410 Y-22.8410
G01 X-10.1475 Y-22.8500
G01 X-10.1554 Y-22.8578
G01 X-10.1637 Y-22.8638
G01 X-10.1720 Y-22.8682
G01 X-10.2681 Y-22.9083
G01 X-10.2771 Y-22.9113
G01 X-10.2855 Y-22.9130
G01 X-10.2942 Y-22.9137
G01 X-10.3974 Y-22.9137
G01 X-10.4085 Y-22.9126
G01 X-10.4226 Y-22.9086
G01 X-10.5180 Y-22.8689
G00 Z2.0000
G00 X-10.7038 Y-25.2671
G01 F70.00
G01 Z-0.0700
G01 F120.00
G01 X-7.9816 Y-24.7810
G01 X-7.9641 Y-24.7790
G01 X-1.3438 Y-24.7788
G01 X-1.3438 Y-21.2588
G01 X-7.8638 Y-21.2588
G01 X-7.8638 Y-23.6076
G01 X-7.8646 Y-23.6213
G01 X-7.8668 Y-23.6348
G01 X-7.8703 Y-23.6481
G01 X-7.8750 Y-23.6609
G01 X-7.8810 Y-23.6732
G01 X-7.8882 Y-23.6849
G01 X-7.8954 Y-23.6945
G01 X-7.9045 Y-23.7046
G01 X-7.9214 Y-23.7191
G01 X-7.9388 Y-23.7299
G01 X-7.9577 Y-23.7381
G01 X-7.9775 Y-23.7434
G01 X-10.8280 Y-24.2525
G01 X-10.8473 Y-24.2546
G01 X-71.4586 Y-24.2546
G01 X-71.4723 Y-24.2534
G01 X-71.4842 Y-24.2512
G01 X-71.4976 Y-24.2475
G01 X-71.5089 Y-24.2432
G01 X-71.8303 Y-24.0948
G01 X-71.8479 Y-24.0842
G01 X-71.8638 Y-24.0711
G01 X-71.8775 Y-24.0559
G01 X-71.8889 Y-24.0387
G01 X-71.8964 Y-24.0233
G01 X-71.9015 Y-24.0088
G01 X-71.9050 Y-23.9938
G01 X-71.9068 Y-23.9785
G01 X-71.9068 Y-23.9613
G01 X-71.9022 Y-23.8989
G01 X-71.9000 Y-23.8125
G01 X-71.9022 Y-23.7261
G01 X-71.9085 Y-23.6400
G01 X-71.9191 Y-23.5543
G01 X-71.9339 Y-23.4691
G01 X-71.9528 Y-23.3849
G01 X-71.9758 Y-23.3016
G01 X-72.0029 Y-23.2196
G01 X-72.0340 Y-23.1390
G01 X-72.0690 Y-23.0600
G01 X-72.1079 Y-22.9829
G01 X-72.1504 Y-22.9077
G01 X-72.1966 Y-22.8347
G01 X-72.2464 Y-22.7641
G01 X-72.2995 Y-22.6960
G01 X-72.3560 Y-22.6306
G01 X-72.4155 Y-22.5680
G01 X-72.4781 Y-22.5085
G01 X-72.5435 Y-22.4520
G01 X-72.6116 Y-22.3989
G01 X-72.6822 Y-22.3491
G01 X-72.7552 Y-22.3029
G01 X-72.8304 Y-22.2604
G01 X-72.9075 Y-22.2215
G01 X-72.9865 Y-22.1865
G01 X-73.0671 Y-22.1554
G01 X-73.1491 Y-22.1283
G01 X-73.2324 Y-22.1053
G01 X-73.3166 Y-22.0864
G01 X-73.4018 Y-22.0716
G01 X-73.4875 Y-22.0610
G01 X-73.5736 Y-22.0547
G01 X-73.6600 Y-22.0525
G01 X-73.7464 Y-22.0547
G01 X-73.8325 Y-22.0610
G01 X-73.9182 Y-22.0716
G01 X-74.0034 Y-22.0864
G01 X-74.0876 Y-22.1053
G01 X-74.1709 Y-22.1283
G01 X-74.2529 Y-22.1554
G01 X-74.3335 Y-22.1865
G01 X-74.4125 Y-22.2215
G01 X-74.4896 Y-22.2604
G01 X-74.5648 Y-22.3029
G01 X-74.6378 Y-22.3491
G01 X-74.7084 Y-22.3989
G01 X-74.7765 Y-22.4520
G01 X-74.8419 Y-22.5085
G01 X-74.9045 Y-22.5680
G01 X-74.9640 Y-22.6306
G01 X-75.0205 Y-22.6960
G01 X-75.0736 Y-22.7641
G01 X-75.1234 Y-22.8347
G01 X-75.1696 Y-22.9077
G01 X-75.2121 Y-22.9829
G01 X-75.2510 Y-23.0600
G01 X-75.2860 Y-23.1390
G01 X-75.3171 Y-23.2196
G01 X-75.3442 Y-23.3016
G01 X-75.3672 Y-23.3849
G01 X-75.3861 Y-23.4691
G01 X-75.4009 Y-23.5543
G01 X-75.4115 Y-23.6400
G01 X-75.4178 Y-23.7261
G01 X-75.4200 Y-23.8125
G01 X-75.4178 Y-23.8989
G01 X-75.4115 Y-23.9850
G01 X-75.4009 Y-24.0707
G01 X-75.3861 Y-24.1559
G01 X-75.3672 Y-24.2401
G01 X-75.3442 Y-24.3234
G01 X-75.3171 Y-24.4054
G01 X-75.2860 Y-24.4860
G01 X-75.2510 Y-24.5650
G01 X-75.2121 Y-24.6421
G01 X-75.1696 Y-24.7173
G01 X-75.1234 Y-24.7903
G01 X-75.0736 Y-24.8609
G01 X-75.0205 Y-24.9290
G01 X-74.9640 Y-24.9944
G01 X-74.9045 Y-25.0570
G01 X-74.8419 Y-25.1165
G01 X-74.7765 Y-25.1730
G01 X-74.7084 Y-25.2261
G01 X-74.6378 Y-25.2759
G01 X-74.5648 Y-25.3221
G01 X-74.4896 Y-25.3646
G01 X-74.4125 Y-25.4035
G01 X-74.3335 Y-25.4385
G01 X-74.2529 Y-25.4696
G01 X-74.1709 Y-25.4967
G01 X-74.0876 Y-25.5197
G01 X-74.0034 Y-25.5386
G01 X-73.9182 Y-25.5534
G01 X-73.8325 Y-25.5640
G01 X-73.7464 Y-25.5703
G01 X-73.6600 Y-25.5725
G01 X-73.5736 Y-25.5703
G01 X-73.4875 Y-25.5640
G01 X-73.4018 Y-25.5534
G01 X-73.3166 Y-25.5386
G01 X-73.2324 Y-25.5197
G01 X-73.1491 Y-25.4967
G01 X-73.0671 Y-25.4696
G01 X-72.9865 Y-25.4385
G01 X-72.9075 Y-25.4035
G01 X-72.8304 Y-25.3646
G01 X-72.7552 Y-25.3221
G01 X-72.6822 Y-25.2759
G01 X-72.6116 Y-25.2261
G01 X-72.5435 Y-25.1730
G01 X-72.4781 Y-25.1165
G01 X-72.4070 Y-25.0484
G01 X-72.3937 Y-25.0375
G01 X-72.3746 Y-25.0259
G01 X-72.3555 Y-25.0180
G01 X-72.3338 Y-25.0127
G01 X-72.3132 Y-25.0110
G01 X-72.2994 Y-25.0115
G01 X-72.2841 Y-25.0138
G01 X-72.2691 Y-25.0177
G01 X-72.2562 Y-25.0225
G01 X-71.8116 Y-25.2277
G01 X-71.7875 Y-25.2381
G01 X-71.7646 Y-25.2467
G01 X-71.7413 Y-25.2542
G01 X-71.7176 Y-25.2606
G01 X-71.6937 Y-25.2659
G01 X-71.6695 Y-25.2700
G01 X-71.6452 Y-25.2729
G01 X-71.6207 Y-25.2747
G01 X-71.5945 Y-25.2753
G01 X-10.7965 Y-25.2753
G01 X-10.7725 Y-25.2748
G01 X-10.7500 Y-25.2733
G01 X-10.7276 Y-25.2708
G01 X-10.7038 Y-25.2671
G00 Z2.0000
G00 X-10.6922 Y-25.3362
G01 F70.00
G01 Z-0.0700
G01 F120.00
G01 X-7.9693 Y-24.8499
G01 X-7.9606 Y-24.8489
G01 X-1.2738 Y-24.8488
G01 X-1.2738 Y-21.1888
G01 X-7.9338 Y-21.1888
G01 X-7.9338 Y-23.6068
G01 X-7.9351 Y-23.6195
G01 X-7.9391 Y-23.6326
G01 X-7.9455 Y-23.6447
G01 X-7.9536 Y-23.6547
G01 X-7.9619 Y-23.6620
G01 X-7.9713 Y-23.6679
G01 X-7.9816 Y-23.6723
G01 X-7.9915 Y-23.6748
G01 X-10.8403 Y-24.1836
G01 X-10.8500 Y-24.1846
G01 X-71.4560 Y-24.1846
G01 X-71.4688 Y-24.1830
G01 X-71.4819 Y-24.1786
G01 X-71.7979 Y-24.0327
G01 X-71.8075 Y-24.0270
G01 X-71.8154 Y-24.0205
G01 X-71.8228 Y-24.0122
G01 X-71.8284 Y-24.0036
G01 X-71.8320 Y-23.9958
G01 X-71.8347 Y-23.9877
G01 X-71.8364 Y-23.9793
G01 X-71.8370 Y-23.9708
G01 X-71.8322 Y-23.9023
G01 X-71.8300 Y-23.8125
G01 X-71.8322 Y-23.7227
G01 X-71.8388 Y-23.6331
G01 X-71.8498 Y-23.5440
G01 X-71.8652 Y-23.4555
G01 X-71.8849 Y-23.3679
G01 X-71.9088 Y-23.2813
G01 X-71.9370 Y-23.1960
G01 X-71.9693 Y-23.1122
G01 X-72.0057 Y-23.0301
G01 X-72.0461 Y-22.9499
G01 X-72.0904 Y-22.8717
G01 X-72.1384 Y-22.7958
G01 X-72.1901 Y-22.7224
G01 X-72.2454 Y-22.6516
G01 X-72.3041 Y-22.5836
G01 X-72.3660 Y-22.5185
G01 X-72.4311 Y-22.4566
G01 X-72.4991 Y-22.3979
G01 X-72.5699 Y-22.3426
G01 X-72.6433 Y-22.2909
G01 X-72.7192 Y-22.2429
G01 X-72.7974 Y-22.1986
G01 X-72.8776 Y-22.1582
G01 X-72.9597 Y-22.1218
G01 X-73.0435 Y-22.0895
G01 X-73.1288 Y-22.0613
G01 X-73.2154 Y-22.0374
G01 X-73.3030 Y-22.0177
G01 X-73.3915 Y-22.0023
G01 X-73.4806 Y-21.9913
G01 X-73.5702 Y-21.9847
G01 X-73.6600 Y-21.9825
G01 X-73.7498 Y-21.9847
G01 X-73.8394 Y-21.9913
G01 X-73.9285 Y-22.0023
G01 X-74.0170 Y-22.0177
G01 X-74.1046 Y-22.0374
G01 X-74.1912 Y-22.0613
G01 X-74.2765 Y-22.0895
G01 X-74.3603 Y-22.1218
G01 X-74.4424 Y-22.1582
G01 X-74.5226 Y-22.1986
G01 X-74.6008 Y-22.2429
G01 X-74.6767 Y-22.2909
G01 X-74.7501 Y-22.3426
G01 X-74.8209 Y-22.3979
G01 X-74.8889 Y-22.4566
G01 X-74.9540 Y-22.5185
G01 X-75.0159 Y-22.5836
G01 X-75.0746 Y-22.6516
G01 X-75.1299 Y-22.7224
G01 X-75.1816 Y-22.7958
G01 X-75.2296 Y-22.8717
G01 X-75.2739 Y-22.9499
G01 X-75.3143 Y-23.0301
G01 X-75.3507 Y-23.1122
G01 X-75.3830 Y-23.1960
G01 X-75.4112 Y-23.2813
G01 X-75.4351 Y-23.3679
G01 X-75.4548 Y-23.4555
G01 X-75.4702 Y-23.5440
G01 X-75.4812 Y-23.6331
G01 X-75.4878 Y-23.7227
G01 X-75.4900 Y-23.8125
G01 X-75.4878 Y-23.9023
G01 X-75.4812 Y-23.9919
G01 X-75.4702 Y-24.0810
G01 X-75.4548 Y-24.1695
G01 X-75.4351 Y-24.2571
G01 X-75.4112 Y-24.3437
G01 X-75.3830 Y-24.4290
G01 X-75.3507 Y-24.5128
G01 X-75.3143 Y-24.5949
G01 X-75.2739 Y-24.6751
G01 X-75.2296 Y-24.7533
G01 X-75.1816 Y-24.8292
G01 X-75.1299 Y-24.9026
G01 X-75.0746 Y-24.9734
G01 X-75.0159 Y-25.0414
G01 X-74.9540 Y-25.1065
G01 X-74.8889 Y-25.1684
G01 X-74.8209 Y-25.2271
G01 X-74.7501 Y-25.2824
G01 X-74.6767 Y-25.3341
G01 X-74.6008 Y-25.3821
G01 X-74.5226 Y-25.4264
G01 X-74.4424 Y-25.4668
G01 X-74.3603 Y-25.5032
G01 X-74.2765 Y-25.5355
G01 X-74.1912 Y-25.5637
G01 X-74.1046 Y-25.5876
G01 X-74.0170 Y-25.6073
G01 X-73.9285 Y-25.6227
G01 X-73.8394 Y-25.6337
G01 X-73.7498 Y-25.6403
G01 X-73.6600 Y-25.6425
G01 X-73.5702 Y-25.6403
G01 X-73.4806 Y-25.6337
G01 X-73.3915 Y-25.6227
G01 X-73.3030 Y-25.6073
G01 X-73.2154 Y-25.5876
G01 X-73.1288 Y-25.5637
G01 X-73.0435 Y-25.5355
G01 X-72.9597 Y-25.5032
G01 X-72.8776 Y-25.4668
G01 X-72.7974 Y-25.4264
G01 X-72.7192 Y-25.3821
G01 X-72.6433 Y-25.3341
G01 X-72.5699 Y-25.2824
G01 X-72.4991 Y-25.2271
G01 X-72.4311 Y-25.1684
G01 X-72.3541 Y-25.0953
G01 X-72.3447 Y-25.0892
G01 X-72.3344 Y-25.0848
G01 X-72.3236 Y-25.0820
G01 X-72.3125 Y-25.0810
G01 X-72.2979 Y-25.0824
G01 X-72.2832 Y-25.0871
G01 X-71.8401 Y-25.2916
G01 X-71.8138 Y-25.3030
G01 X-71.7877 Y-25.3128
G01 X-71.7612 Y-25.3214
G01 X-71.7343 Y-25.3286
G01 X-71.7070 Y-25.3346
G01 X-71.6796 Y-25.3393
G01 X-71.6519 Y-25.3426
G01 X-71.6241 Y-25.3446
G01 X-71.5954 Y-25.3453
G01 X-10.7958 Y-25.3453
G01 X-10.7694 Y-25.3447
G01 X-10.7438 Y-25.3430
G01 X-10.7183 Y-25.3402
G01 X-10.6922 Y-25.3362
G00 Z2.0000
G00 X-14.4412 Y-23.2289
G01 F70.00
G01 Z-0.0700
G01 F120.00
G01 X-14.4077 Y-23.2160
G01 X-14.3287 Y-23.1810
G01 X-14.2516 Y-23.1421
G01 X-14.1764 Y-23.0996
G01 X-14.1034 Y-23.0534
G01 X-14.0328 Y-23.0036
G01 X-13.9647 Y-22.9505
G01 X-13.8993 Y-22.8940
G01 X-13.8367 Y-22.8345
G01 X-13.7772 Y-22.7719
G01 X-13.7207 Y-22.7065
G01 X-13.6676 Y-22.6384
G01 X-13.6178 Y-22.5678
G01 X-13.5716 Y-22.4948
G01 X-13.5291 Y-22.4196
G01 X-13.4902 Y-22.3425
G01 X-13.4552 Y-22.2635
G01 X-13.4423 Y-22.2300
G01 X-13.5715 Y-22.2300
G01 X-13.5987 Y-22.2912
G01 X-13.6348 Y-22.3631
G01 X-13.6745 Y-22.4331
G01 X-13.7176 Y-22.5011
G01 X-13.7639 Y-22.5669
G01 X-13.8135 Y-22.6304
G01 X-13.8660 Y-22.6914
G01 X-13.9215 Y-22.7497
G01 X-13.9798 Y-22.8052
G01 X-14.0408 Y-22.8577
G01 X-14.1043 Y-22.9073
G01 X-14.1701 Y-22.9536
G01 X-14.2381 Y-22.9967
G01 X-14.3081 Y-23.0364
G01 X-14.3800 Y-23.0725
G01 X-14.4412 Y-23.0997
G01 X-14.4412 Y-23.2289
G00 Z2.0000
G00 X-14.5112 Y-23.3284
G01 F70.00
G01 Z-0.0700
G01 F120.00
G01 X-14.4647 Y-23.3130
G01 X-14.3809 Y-23.2807
G01 X-14.2988 Y-23.2443
G01 X-14.2186 Y-23.2039
G01 X-14.1404 Y-23.1596
G01 X-14.0645 Y-23.1116
G01 X-13.9911 Y-23.0599
G01 X-13.9203 Y-23.0046
G01 X-13.8523 Y-22.9459
G01 X-13.7872 Y-22.8840
G01 X-13.7253 Y-22.8189
G01 X-13.6666 Y-22.7509
G01 X-13.6113 Y-22.6801
G01 X-13.5596 Y-22.6067
G01 X-13.5116 Y-22.5308
G01 X-13.4673 Y-22.4526
G01 X-13.4269 Y-22.3724
G01 X-13.3905 Y-22.2903
G01 X-13.3582 Y-22.2065
G01 X-13.3428 Y-22.1600
G01 X-13.6188 Y-22.1600
G01 X-13.6310 Y-22.1916
G01 X-13.6616 Y-22.2605
G01 X-13.6962 Y-22.3293
G01 X-13.7346 Y-22.3971
G01 X-13.7753 Y-22.4615
G01 X-13.8202 Y-22.5252
G01 X-13.8676 Y-22.5860
G01 X-13.9179 Y-22.6443
G01 X-13.9710 Y-22.7002
G01 X-14.0269 Y-22.7533
G01 X-14.0852 Y-22.8036
G01 X-14.1460 Y-22.8510
G01 X-14.2097 Y-22.8959
G01 X-14.2741 Y-22.9366
G01 X-14.3419 Y-22.9750
G01 X-14.4107 Y-23.0096
G01 X-14.4796 Y-23.0402
G01 X-14.5112 Y-23.0524
G01 X-14.5112 Y-23.3284
G00 Z2.0000
G00 X-16.7201 Y-22.2300
G01 F70.00
G01 Z-0.0700
G01 F120.00
G01 X-16.7072 Y-22.2635
G01 X-16.6722 Y-22.3425
G01 X-16.6333 Y-22.4196
G01 X-16.5908 Y-22.4948
G01 X-16.5446 Y-22.5678
G01 X-16.4948 Y-22.6384
G01 X-16.4417 Y-22.7065
G01 X-16.3852 Y-22.7719
G01 X-16.3257 Y-22.8345
G01 X-16.2631 Y-22.8940
G01 X-16.1977 Y-22.9505
G01 X-16.1296 Y-23.0036
G01 X-16.0590 Y-23.0534
G01 X-15.9860 Y-23.0996
G01 X-15.9108 Y-23.1421
G01 X-15.8337 Y-23.1810
G01 X-15.7547 Y-23.2160
G01 X-15.7212 Y-23.2289
G01 X-15.7212 Y-23.0997
G01 X-15.7824 Y-23.0725
G01 X-15.8543 Y-23.0364
G01 X-15.9243 Y-22.9967
G01 X-15.9923 Y-22.9536
G01 X-16.0581 Y-22.9073
G01 X-16.1216 Y-22.8577
G01 X-16.1826 Y-22.8052
G01 X-16.2409 Y-22.7497
G01 X-16.2964 Y-22.6914
G01 X-16.3489 Y-22.6304
G01 X-16.3985 Y-22.5669
G01 X-16.4448 Y-22.5011
G01 X-16.4879 Y-22.4331
G01 X-16.5276 Y-22.3631
G01 X-16.5637 Y-22.2912
G01 X-16.5909 Y-22.2300
G01 X-16.7201 Y-22.2300
G00 Z2.0000
G00 X-16.8196 Y-22.1600
G01 F70.00
G01 Z-0.0700
G01 F120.00
G01 X-16.8042 Y-22.2065
G01 X-16.7719 Y-22.2903
G01 X-16.7355 Y-22.3724
G01 X-16.6951 Y-22.4526
G01 X-16.6508 Y-22.5308
G01 X-16.6028 Y-22.6067
G01 X-16.5511 Y-22.6801
G01 X-16.4958 Y-22.7509
G01 X-16.4371 Y-22.8189
G01 X-16.3752 Y-22.8840
G01 X-16.3101 Y-22.9459
G01 X-16.2421 Y-23.0046
G01 X-16.1713 Y-23.0599
G01 X-16.0979 Y-23.1116
G01 X-16.0220 Y-23.1596
G01 X-15.9438 Y-23.2039
G01 X-15.8636 Y-23.2443
G01 X-15.7815 Y-23.2807
G01 X-15.6977 Y-23.3130
G01 X-15.6512 Y-23.3284
G01 X-15.6512 Y-23.0524
G01 X-15.6828 Y-23.0402
G01 X-15.7517 Y-23.0096
G01 X-15.8205 Y-22.9750
G01 X-15.8883 Y-22.9366
G01 X-15.9527 Y-22.8959
G01 X-16.0164 Y-22.8510
G01 X-16.0772 Y-22.8036
G01 X-16.1355 Y-22.7533
G01 X-16.1914 Y-22.7002
G01 X-16.2445 Y-22.6443
G01 X-16.2948 Y-22.5860
G01 X-16.3422 Y-22.5252
G01 X-16.3871 Y-22.4615
G01 X-16.4278 Y-22.3971
G01 X-16.4662 Y-22.3293
G01 X-16.5008 Y-22.2605
G01 X-16.5314 Y-22.1916
G01 X-16.5436 Y-22.1600
G01 X-16.8196 Y-22.1600
G00 Z2.0000
G00 X-16.8196 Y-21.0200
G01 F70.00
G01 Z-0.0700
G01 F120.00
G01 X-16.5436 Y-21.0200
G01 X-16.5314 Y-20.9884
G01 X-16.5008 Y-20.9195
G01 X-16.4662 Y-20.8507
G01 X-16.4278 Y-20.7829
G01 X-16.3871 Y-20.7185
G01 X-16.3422 Y-20.6548
G01 X-16.2948 Y-20.5940
G01 X-16.2445 Y-20.5357
G01 X-16.1914 Y-20.4798
G01 X-16.1355 Y-20.4267
G01 X-16.0772 Y-20.3764
G01 X-16.0164 Y-20.3290
G01 X-15.9527 Y-20.2841
G01 X-15.8883 Y-20.2434
G01 X-15.8205 Y-20.2050
G01 X-15.7517 Y-20.1704
G01 X-15.6828 Y-20.1398
G01 X-15.6512 Y-20.1276
G01 X-15.6512 Y-19.8516
G01 X-15.6977 Y-19.8670
G01 X-15.7815 Y-19.8993
G01 X-15.8636 Y-19.9357
G01 X-15.9438 Y-19.9761
G01 X-16.0220 Y-20.0204
G01 X-16.0979 Y-20.0684
G01 X-16.1713 Y-20.1201
G01 X-16.2421 Y-20.1754
G01 X-16.3101 Y-20.2341
G01 X-16.3752 Y-20.2960
G01 X-16.4371 Y-20.3611
G01 X-16.4958 Y-20.4291
G01 X-16.5511 Y-20.4999
G01 X-16.6028 Y-20.5733
G01 X-16.6508 Y-20.6492
G01 X-16.6951 Y-20.7274
G01 X-16.7355 Y-20.8076
G01 X-16.7719 Y-20.8897
G01 X-16.8042 Y-20.9735
G01 X-16.8196 Y-21.0200
G00 Z2.0000
G00 X-16.7201 Y-20.9500
G01 F70.00
G01 Z-0.0700
G01 F120.00
G01 X-16.5909 Y-20.9500
G01 X-16.5637 Y-20.8888
G01 X-16.5276 Y-20.8169
G01 X-16.4879 Y-20.7469
G01 X-16.4448 Y-20.6789
G01 X-16.3985 Y-20.6131
G01 X-16.3489 Y-20.5496
G01 X-16.2964 Y-20.4886
G01 X-16.2409 Y-20.4303
G01 X-16.1826 Y-20.3748
G01 X-16.1216 Y-20.3223
G01 X-16.0581 Y-20.2727
G01 X-15.9923 Y-20.2264
G01 X-15.9243 Y-20.1833
G01 X-15.8543 Y-20.1436
G01 X-15.7824 Y-20.1075
G01 X-15.7212 Y-20.0803
G01 X-15.7212 Y-19.9511
G01 X-15.7547 Y-19.9640
G01 X-15.8337 Y-19.9990
G01 X-15.9108 Y-20.0379
G01 X-15.9860 Y-20.0804
G01 X-16.0590 Y-20.1266
G01 X-16.1296 Y-20.1764
G01 X-16.1977 Y-20.2295
G01 X-16.2631 Y-20.2860
G01 X-16.3257 Y-20.3455
G01 X-16.3852 Y-20.4081
G01 X-16.4417 Y-20.4735
G01 X-16.4948 Y-20.5416
G01 X-16.5446 Y-20.6122
G01 X-16.5908 Y-20.6852
G01 X-16.6333 Y-20.7604
G01 X-16.6722 Y-20.8375
G01 X-16.7072 Y-20.9165
G01 X-16.7201 Y-20.9500
G00 Z2.0000
G00 X-14.5112 Y-20.1276
G01 F70.00
G01 Z-0.0700
G01 F120.00
G01 X-14.4796 Y-20.1398
G01 X-14.4107 Y-20.1704
G01 X-14.3419 Y-20.2050
G01 X-14.2741 Y-20.2434
G01 X-14.2097 Y-20.2841
G01 X-14.1460 Y-20.3290
G01 X-14.0852 Y-20.3764
G01 X-14.0269 Y-20.4267
G01 X-13.9710 Y-20.4798
G01 X-13.9179 Y-20.5357
G01 X-13.8676 Y-20.5940
G01 X-13.8202 Y-20.6548
G01 X-13.7753 Y-20.7185
G01 X-13.7346 Y-20.7829
G01 X-13.6962 Y-20.8507
G01 X-13.6616 Y-20.9195
G01 X-13.6310 Y-20.9884
G01 X-13.6188 Y-21.0200
G01 X-13.3428 Y-21.0200
G01 X-13.3582 Y-20.9735
G01 X-13.3905 Y-20.8897
G01 X-13.4269 Y-20.8076
G01 X-13.4673 Y-20.7274
G01 X-13.5116 Y-20.6492
G01 X-13.5596 Y-20.5733
G01 X-13.6113 Y-20.4999
G01 X-13.6666 Y-20.4291
G01 X-13.7253 Y-20.3611
G01 X-13.7872 Y-20.2960
G01 X-13.8523 Y-20.2341
G01 X-13.9203 Y-20.1754
G01 X-13.9911 Y-20.1201
G01 X-14.0645 Y-20.0684
G01 X-14.1404 Y-20.0204
G01 X-14.2186 Y-19.9761
G01 X-14.2988 Y-19.9357
G01 X-14.3809 Y-19.8993
G01 X-14.4647 Y-19.8670
G01 X-14.5112 Y-19.8516
G01 X-14.5112 Y-20.1276
G00 Z2.0000
G00 X-14.4412 Y-20.0803
G01 F70.00
G01 Z-0.0700
G01 F120.00
G01 X-14.3800 Y-20.1075
G01 X-14.3081 Y-20.1436
G01 X-14.2381 Y-20.1833
G01 X-14.1701 Y-20.2264
G01 X-14.1043 Y-20.2727
G01 X-14.0408 Y-20.3223
G01 X-13.9798 Y-20.3748
G01 X-13.9215 Y-20.4303
G01 X-13.8660 Y-20.4886
G01 X-13.8135 Y-20.5496
G01 X-13.7639 Y-20.6131
G01 X-13.7176 Y-20.6789
G01 X-13.6745 Y-20.7469
G01 X-13.6348 Y-20.8169
G01 X-13.5987 Y-20.8888
G01 X-13.5715 Y-20.9500
G01 X-13.4423 Y-20.9500
G01 X-13.4552 Y-20.9165
G01 X-13.4902 Y-20.8375
G01 X-13.5291 Y-20.7604
G01 X-13.5716 Y-20.6852
G01 X-13.6178 Y-20.6122
G01 X-13.6676 Y-20.5416
G01 X-13.7207 Y-20.4735
G01 X-13.7772 Y-20.4081
G01 X-13.8367 Y-20.3455
G01 X-13.8993 Y-20.2860
G01 X-13.9647 Y-20.2295
G01 X-14.0328 Y-20.1764
G01 X-14.1034 Y-20.1266
G01 X-14.1764 Y-20.0804
G01 X-14.2516 Y-20.0379
G01 X-14.3287 Y-19.9990
G01 X-14.4077 Y-19.9640
G01 X-14.4412 Y-19.9511
G01 X-14.4412 Y-20.0803
G00 Z2.0000
G00 X-10.1882 Y-18.0242
G01 F70.00
G01 Z-0.0700
G01 F120.00
G01 X-10.4544 Y-18.0242
G01 X-10.4599 Y-18.0263
G01 X-10.4621 Y-18.0288
G01 X-10.4632 Y-18.0318
G01 X-10.4631 Y-18.0360
G01 X-10.4613 Y-18.0397
G01 X-10.4580 Y-18.0423
G01 X-10.4544 Y-18.0432
G01 X-10.2668 Y-18.0432
G01 X-10.2540 Y-18.0444
G01 X-10.2393 Y-18.0489
G01 X-10.2251 Y-18.0570
G01 X-10.2138 Y-18.0675
G01 X-10.2051 Y-18.0802
G01 X-10.1992 Y-18.0954
G01 X-10.1969 Y-18.1107
G01 X-10.1968 Y-18.2895
G01 X-10.1979 Y-18.3015
G01 X-10.2012 Y-18.3139
G01 X-10.2064 Y-18.3247
G01 X-10.2500 Y-18.3974
G01 X-10.2556 Y-18.4049
G01 X-10.2629 Y-18.4122
G01 X-10.2711 Y-18.4183
G01 X-10.2802 Y-18.4232
G01 X-10.3771 Y-18.4636
G01 X-10.3903 Y-18.4675
G01 X-10.4032 Y-18.4687
G01 X-10.5055 Y-18.4687
G01 X-10.5201 Y-18.4669
G01 X-10.5308 Y-18.4636
G01 X-10.6269 Y-18.4235
G01 X-10.6360 Y-18.4188
G01 X-10.6436 Y-18.4133
G01 X-10.6516 Y-18.4056
G01 X-10.6578 Y-18.3975
G01 X-10.7024 Y-18.3233
G01 X-10.7060 Y-18.3155
G01 X-10.7087 Y-18.3073
G01 X-10.7104 Y-18.2989
G01 X-10.7111 Y-18.2903
G01 X-10.7108 Y-17.7720
G01 X-10.7083 Y-17.7585
G01 X-10.7032 Y-17.7458
G01 X-10.6564 Y-17.6679
G01 X-10.6505 Y-17.6605
G01 X-10.6443 Y-17.6546
G01 X-10.6374 Y-17.6495
G01 X-10.6300 Y-17.6453
G01 X-10.5316 Y-17.6042
G01 X-10.5218 Y-17.6010
G01 X-10.5056 Y-17.5988
G01 X-10.4023 Y-17.5988
G01 X-10.3903 Y-17.6000
G01 X-10.3771 Y-17.6039
G01 X-10.2818 Y-17.6435
G01 X-10.2676 Y-17.6515
G01 X-10.2579 Y-17.6599
G01 X-10.2504 Y-17.6693
G01 X-10.1947 Y-17.7620
G01 X-10.1896 Y-17.7652
G01 X-10.1841 Y-17.7650
G01 X-10.1794 Y-17.7613
G01 X-10.1778 Y-17.7560
G01 X-10.1796 Y-17.7504
G01 X-10.2453 Y-17.6406
G01 X-10.2479 Y-17.6374
G01 X-10.3850 Y-17.5801
G01 X-10.5225 Y-17.5800
G01 X-10.6599 Y-17.6374
G01 X-10.6625 Y-17.6406
G01 X-10.7283 Y-17.7504
G01 X-10.7297 Y-17.7532
G01 X-10.7301 Y-17.7569
G01 X-10.7301 Y-18.3124
G01 X-10.7283 Y-18.3171
G01 X-10.6613 Y-18.4286
G01 X-10.6568 Y-18.4317
G01 X-10.5251 Y-18.4867
G01 X-10.5197 Y-18.4877
G01 X-10.3854 Y-18.4875
G01 X-10.2479 Y-18.4300
G01 X-10.2453 Y-18.4268
G01 X-10.1796 Y-18.3171
G01 X-10.1779 Y-18.3129
G01 X-10.1778 Y-18.0332
G01 X-10.1787 Y-18.0296
G01 X-10.1809 Y-18.0266
G01 X-10.1841 Y-18.0247
G01 X-10.1882 Y-18.0242
G00 Z2.0000
G00 X-9.8857 Y-17.5902
G01 F70.00
G01 Z-0.0700
G01 F120.00
G01 X-9.8857 Y-18.4773
G01 X-9.8844 Y-18.4831
G01 X-9.8798 Y-18.4870
G01 X-9.8739 Y-18.4874
G01 X-9.8688 Y-18.4842
G01 X-9.8667 Y-18.4787
G01 X-9.8667 Y-17.8765
G01 X-9.8660 Y-17.8671
G01 X-9.8631 Y-17.8545
G01 X-9.8580 Y-17.8427
G01 X-9.8508 Y-17.8321
G01 X-9.8424 Y-17.8235
G01 X-9.8327 Y-17.8164
G01 X-9.8211 Y-17.8109
G01 X-9.8086 Y-17.8075
G01 X-9.7958 Y-17.8065
G01 X-9.7873 Y-17.8071
G01 X-9.7788 Y-17.8088
G01 X-9.7637 Y-17.8147
G01 X-9.7564 Y-17.8192
G01 X-9.7497 Y-17.8246
G01 X-9.7437 Y-17.8307
G01 X-9.7385 Y-17.8376
G01 X-9.3515 Y-18.4824
G01 X-9.3489 Y-18.4856
G01 X-9.3457 Y-18.4873
G01 X-9.3415 Y-18.4876
G01 X-9.3380 Y-18.4864
G01 X-9.3345 Y-18.4827
G01 X-9.3334 Y-18.4773
G01 X-9.3334 Y-17.5902
G01 X-9.3347 Y-17.5844
G01 X-9.3393 Y-17.5805
G01 X-9.3452 Y-17.5801
G01 X-9.3503 Y-17.5833
G01 X-9.3524 Y-17.5888
G01 X-9.3524 Y-18.1910
G01 X-9.3530 Y-18.1996
G01 X-9.3557 Y-18.2122
G01 X-9.3603 Y-18.2233
G01 X-9.3667 Y-18.2334
G01 X-9.3754 Y-18.2429
G01 X-9.3857 Y-18.2506
G01 X-9.3964 Y-18.2560
G01 X-9.4088 Y-18.2597
G01 X-9.4216 Y-18.2610
G01 X-9.4301 Y-18.2606
G01 X-9.4386 Y-18.2591
G01 X-9.4468 Y-18.2566
G01 X-9.4547 Y-18.2532
G01 X-9.4620 Y-18.2488
G01 X-9.4688 Y-18.2435
G01 X-9.4749 Y-18.2374
G01 X-9.4801 Y-18.2306
G01 X-9.8676 Y-17.5851
G01 X-9.8698 Y-17.5822
G01 X-9.8726 Y-17.5805
G01 X-9.8757 Y-17.5798
G01 X-9.8790 Y-17.5802
G01 X-9.8819 Y-17.5817
G01 X-9.8841 Y-17.5840
G01 X-9.8854 Y-17.5870
G01 X-9.8857 Y-17.5902
G00 Z2.0000
G00 X-9.0413 Y-18.4773
G01 F70.00
G01 Z-0.0700
G01 F120.00
G01 X-9.0408 Y-18.4814
G01 X-9.0389 Y-18.4846
G01 X-9.0359 Y-18.4868
G01 X-9.0323 Y-18.4877
G01 X-8.6957 Y-18.4873
G01 X-8.5591 Y-18.4300
G01 X-8.5565 Y-18.4268
G01 X-8.4908 Y-18.3171
G01 X-8.4894 Y-18.3143
G01 X-8.4890 Y-18.3106
G01 X-8.4890 Y-17.7551
G01 X-8.4908 Y-17.7504
G01 X-8.5565 Y-17.6406
G01 X-8.5602 Y-17.6366
G01 X-8.6976 Y-17.5798
G01 X-9.0309 Y-17.5798
G01 X-9.0363 Y-17.5809
G01 X-9.0400 Y-17.5844
G01 X-9.0413 Y-17.5902
G01 X-9.0413 Y-18.4773
G00 Z2.0000
G00 X-8.9523 Y-18.4687
G01 F70.00
G01 Z-0.0700
G01 F120.00
G01 X-8.7135 Y-18.4687
G01 X-8.7015 Y-18.4675
G01 X-8.6907 Y-18.4645
G01 X-8.5914 Y-18.4232
G01 X-8.5823 Y-18.4183
G01 X-8.5741 Y-18.4122
G01 X-8.5668 Y-18.4049
G01 X-8.5603 Y-18.3960
G01 X-8.5171 Y-18.3240
G01 X-8.5111 Y-18.3098
G01 X-8.5088 Y-18.2998
G01 X-8.5080 Y-18.2895
G01 X-8.5080 Y-17.7780
G01 X-8.5086 Y-17.7694
G01 X-8.5103 Y-17.7602
G01 X-8.5130 Y-17.7520
G01 X-8.5171 Y-17.7435
G01 X-8.5603 Y-17.6715
G01 X-8.5663 Y-17.6631
G01 X-8.5741 Y-17.6552
G01 X-8.5823 Y-17.6491
G01 X-8.5914 Y-17.6442
G01 X-8.6948 Y-17.6016
G01 X-8.7041 Y-17.5996
G01 X-8.7135 Y-17.5988
G01 X-8.9523 Y-17.5988
G01 X-8.9625 Y-17.5996
G01 X-8.9718 Y-17.6016
G01 X-8.9814 Y-17.6052
G01 X-8.9904 Y-17.6102
G01 X-8.9980 Y-17.6158
G01 X-9.0053 Y-17.6231
G01 X-9.0109 Y-17.6307
G01 X-9.0155 Y-17.6389
G01 X-9.0192 Y-17.6485
G01 X-9.0215 Y-17.6586
G01 X-9.0223 Y-17.6688
G01 X-9.0220 Y-18.4047
G01 X-9.0197 Y-18.4173
G01 X-9.0152 Y-18.4294
G01 X-9.0085 Y-18.4404
G01 X-8.9999 Y-18.4499
G01 X-8.9897 Y-18.4578
G01 X-8.9783 Y-18.4637
G01 X-8.9651 Y-18.4675
G01 X-8.9523 Y-18.4687
G00 Z2.0000
G00 X-7.9338 Y-18.5088
G01 F70.00
G01 Z-0.0700
G01 F120.00
G01 X-7.9338 Y-19.7688
G01 X-5.1738 Y-19.7688
G01 X-5.1738 Y-19.5088
G01 X-7.6038 Y-19.5088
G01 X-7.6183 Y-19.5073
G01 X-7.6329 Y-19.5024
G01 X-7.6412 Y-19.4979
G01 X-7.6489 Y-19.4924
G01 X-7.6562 Y-19.4852
G01 X-7.6620 Y-19.4777
G01 X-7.6667 Y-19.4695
G01 X-7.6703 Y-19.4608
G01 X-7.6728 Y-19.4508
G01 X-7.6738 Y-19.4414
G01 X-7.6738 Y-18.5088
G01 X-7.9338 Y-18.5088
G00 Z2.0000
G00 X-7.8638 Y-18.5788
G01 F70.00
G01 Z-0.0700
G01 F120.00
G01 X-7.8638 Y-19.6988
G01 X-5.2438 Y-19.6988
G01 X-5.2438 Y-19.5788
G01 X-7.6038 Y-19.5788
G01 X-7.6175 Y-19.5781
G01 X-7.6311 Y-19.5761
G01 X-7.6461 Y-19.5723
G01 X-7.6590 Y-19.5675
G01 X-7.6758 Y-19.5589
G01 X-7.6913 Y-19.5481
G01 X-7.7052 Y-19.5353
G01 X-7.7173 Y-19.5208
G01 X-7.7273 Y-19.5048
G01 X-7.7350 Y-19.4876
G01 X-7.7404 Y-19.4695
G01 X-7.7433 Y-19.4508
G01 X-7.7438 Y-19.4388
G01 X-7.7438 Y-18.5788
G01 X-7.8638 Y-18.5788
G00 Z2.0000
G00 X-7.7938 Y-19.5282
G01 F70.00
G01 Z-0.0700
G01 F120.00
G01 X-7.7938 Y-19.6288
G01 X-7.6932 Y-19.6288
G01 X-7.7095 Y-19.6202
G01 X-7.7247 Y-19.6105
G01 X-7.7390 Y-19.5995
G01 X-7.7523 Y-19.5873
G01 X-7.7645 Y-19.5740
G01 X-7.7755 Y-19.5597
G01 X-7.7852 Y-19.5445
G01 X-7.7938 Y-19.5282
G00 Z2.0000
G00 X-7.7938 Y-21.4294
G01 F70.00
G01 Z-0.0700
G01 F120.00
G01 X-7.7852 Y-21.4131
G01 X-7.7755 Y-21.3979
G01 X-7.7645 Y-21.3836
G01 X-7.7523 Y-21.3703
G01 X-7.7390 Y-21.3581
G01 X-7.7247 Y-21.3471
G01 X-7.7095 Y-21.3374
G01 X-7.6932 Y-21.3288
G01 X-7.7938 Y-21.3288
G01 X-7.7938 Y-21.4294
G00 Z2.0000
G00 X-7.7938 Y-16.3494
G01 F70.00
G01 Z-0.0700
G01 F120.00
G01 X-7.7852 Y-16.3331
G01 X-7.7755 Y-16.3179
G01 X-7.7645 Y-16.3036
G01 X-7.7523 Y-16.2903
G01 X-7.7390 Y-16.2781
G01 X-7.7247 Y-16.2671
G01 X-7.7095 Y-16.2574
G01 X-7.6932 Y-16.2488
G01 X-7.7938 Y-16.2488
G01 X-7.7938 Y-16.3494
G00 Z2.0000
G00 X-8.5465 Y-14.9343
G01 F70.00
G01 Z-0.0700
G01 F120.00
G01 X-8.4799 Y-14.8231
G01 X-8.4790 Y-14.8195
G01 X-8.4795 Y-14.8158
G01 X-8.4814 Y-14.8126
G01 X-8.4844 Y-14.8104
G01 X-8.4876 Y-14.8095
G01 X-8.4908 Y-14.8098
G01 X-8.4938 Y-14.8111
G01 X-8.4961 Y-14.8133
G01 X-8.5512 Y-14.9049
G01 X-8.5580 Y-14.9137
G01 X-8.5661 Y-14.9214
G01 X-8.5738 Y-14.9267
G01 X-8.5821 Y-14.9310
G01 X-8.6783 Y-14.9711
G01 X-8.6907 Y-14.9748
G01 X-8.7035 Y-14.9762
G01 X-8.8059 Y-14.9762
G01 X-8.8145 Y-14.9756
G01 X-8.8230 Y-14.9740
G01 X-8.8328 Y-14.9708
G01 X-8.9312 Y-14.9296
G01 X-8.9386 Y-14.9254
G01 X-8.9461 Y-14.9197
G01 X-8.9522 Y-14.9137
G01 X-8.9576 Y-14.9071
G01 X-9.0044 Y-14.8292
G01 X-9.0095 Y-14.8165
G01 X-9.0120 Y-14.8030
G01 X-9.0119 Y-14.2787
G01 X-9.0090 Y-14.2644
G01 X-9.0032 Y-14.2510
G01 X-8.9590 Y-14.1775
G01 X-8.9528 Y-14.1693
G01 X-8.9455 Y-14.1621
G01 X-8.9372 Y-14.1561
G01 X-8.9288 Y-14.1517
G01 X-8.8320 Y-14.1114
G01 X-8.8205 Y-14.1079
G01 X-8.8085 Y-14.1064
G01 X-8.7035 Y-14.1063
G01 X-8.6907 Y-14.1077
G01 X-8.6783 Y-14.1114
G01 X-8.5806 Y-14.1521
G01 X-8.5731 Y-14.1561
G01 X-8.5654 Y-14.1616
G01 X-8.5591 Y-14.1674
G01 X-8.5531 Y-14.1747
G01 X-8.4956 Y-14.2699
G01 X-8.4926 Y-14.2721
G01 X-8.4894 Y-14.2730
G01 X-8.4857 Y-14.2726
G01 X-8.4828 Y-14.2711
G01 X-8.4806 Y-14.2688
G01 X-8.4793 Y-14.2658
G01 X-8.4791 Y-14.2621
G01 X-8.4801 Y-14.2590
G01 X-8.5465 Y-14.1481
G01 X-8.5491 Y-14.1449
G01 X-8.6862 Y-14.0876
G01 X-8.8237 Y-14.0875
G01 X-8.9596 Y-14.1439
G01 X-8.9637 Y-14.1481
G01 X-9.0295 Y-14.2579
G01 X-9.0313 Y-14.2626
G01 X-9.0313 Y-14.8181
G01 X-9.0302 Y-14.8235
G01 X-8.9637 Y-14.9343
G01 X-8.9611 Y-14.9375
G01 X-8.8241 Y-14.9949
G01 X-8.6866 Y-14.9950
G01 X-8.5522 Y-14.9392
G01 X-8.5487 Y-14.9371
G01 X-8.5465 Y-14.9343
G00 Z2.0000
G00 X-9.3338 Y-14.9762
G01 F70.00
G01 Z-0.0700
G01 F120.00
G01 X-9.5208 Y-14.9762
G01 X-9.5336 Y-14.9748
G01 X-9.5427 Y-14.9724
G01 X-9.5514 Y-14.9687
G01 X-9.5596 Y-14.9639
G01 X-9.5670 Y-14.9580
G01 X-9.5735 Y-14.9512
G01 X-9.5791 Y-14.9436
G01 X-9.5836 Y-14.9353
G01 X-9.5867 Y-14.9273
G01 X-9.5891 Y-14.9173
G01 X-9.5900 Y-14.9062
G01 X-9.5900 Y-14.1755
G01 X-9.5889 Y-14.1644
G01 X-9.5862 Y-14.1536
G01 X-9.5821 Y-14.1441
G01 X-9.5762 Y-14.1346
G01 X-9.5695 Y-14.1268
G01 X-9.5610 Y-14.1196
G01 X-9.5514 Y-14.1138
G01 X-9.5411 Y-14.1096
G01 X-9.5311 Y-14.1072
G01 X-9.5208 Y-14.1063
G01 X-9.3320 Y-14.1063
G01 X-9.3276 Y-14.1047
G01 X-9.3245 Y-14.1013
G01 X-9.3234 Y-14.0968
G01 X-9.3247 Y-14.0919
G01 X-9.3284 Y-14.0884
G01 X-9.3338 Y-14.0873
G01 X-9.8653 Y-14.0873
G01 X-9.8711 Y-14.0886
G01 X-9.8750 Y-14.0932
G01 X-9.8754 Y-14.0991
G01 X-9.8722 Y-14.1042
G01 X-9.8671 Y-14.1063
G01 X-9.6782 Y-14.1063
G01 X-9.6696 Y-14.1070
G01 X-9.6612 Y-14.1087
G01 X-9.6523 Y-14.1117
G01 X-9.6445 Y-14.1154
G01 X-9.6373 Y-14.1201
G01 X-9.6308 Y-14.1256
G01 X-9.6249 Y-14.1319
G01 X-9.6199 Y-14.1389
G01 X-9.6158 Y-14.1464
G01 X-9.6123 Y-14.1552
G01 X-9.6099 Y-14.1652
G01 X-9.6090 Y-14.1763
G01 X-9.6090 Y-14.9062
G01 X-9.6099 Y-14.9173
G01 X-9.6126 Y-14.9281
G01 X-9.6169 Y-14.9384
G01 X-9.6228 Y-14.9479
G01 X-9.6295 Y-14.9557
G01 X-9.6380 Y-14.9629
G01 X-9.6476 Y-14.9687
G01 X-9.6579 Y-14.9729
G01 X-9.6679 Y-14.9753
G01 X-9.6782 Y-14.9762
G01 X-9.8671 Y-14.9762
G01 X-9.8715 Y-14.9778
G01 X-9.8748 Y-14.9816
G01 X-9.8757 Y-14.9862
G01 X-9.8744 Y-14.9906
G01 X-9.8707 Y-14.9941
G01 X-9.8653 Y-14.9952
G01 X-9.3320 Y-14.9952
G01 X-9.3284 Y-14.9941
G01 X-9.3255 Y-14.9917
G01 X-9.3238 Y-14.9885
G01 X-9.3234 Y-14.9848
G01 X-9.3245 Y-14.9812
G01 X-9.3269 Y-14.9783
G01 X-9.3301 Y-14.9766
G01 X-9.3338 Y-14.9762
G00 Z2.0000
G00 X-7.6932 Y-14.5488
G01 F70.00
G01 Z-0.0700
G01 F120.00
G01 X-7.7095 Y-14.5402
G01 X-7.7247 Y-14.5305
G01 X-7.7390 Y-14.5195
G01 X-7.7523 Y-14.5073
G01 X-7.7645 Y-14.4940
G01 X-7.7755 Y-14.4797
G01 X-7.7852 Y-14.4645
G01 X-7.7938 Y-14.4482
G01 X-7.7938 Y-14.5488
G01 X-7.6932 Y-14.5488
G00 Z2.0000
G00 X-7.8138 Y-12.1497
G01 F70.00
G01 Z-0.0700
G01 F120.00
G01 X-7.8138 Y-12.0489
G01 X-7.9148 Y-12.0489
G01 X-7.8981 Y-12.0577
G01 X-7.8829 Y-12.0674
G01 X-7.8686 Y-12.0784
G01 X-7.8553 Y-12.0906
G01 X-7.8431 Y-12.1039
G01 X-7.8321 Y-12.1182
G01 X-7.8224 Y-12.1334
G01 X-7.8138 Y-12.1497
G00 Z2.0000
G00 X-7.7938 Y-9.3682
G01 F70.00
G01 Z-0.0700
G01 F120.00
G01 X-7.7938 Y-9.4688
G01 X-7.6932 Y-9.4688
G01 X-7.7095 Y-9.4602
G01 X-7.7247 Y-9.4505
G01 X-7.7390 Y-9.4395
G01 X-7.7523 Y-9.4273
G01 X-7.7645 Y-9.4140
G01 X-7.7755 Y-9.3997
G01 X-7.7852 Y-9.3845
G01 X-7.7938 Y-9.3682
G00 Z2.0000
G00 X-8.4850 Y-8.3118
G01 F70.00
G01 Z-0.0700
G01 F120.00
G01 X-8.7830 Y-7.9144
G01 X-8.7888 Y-7.9048
G01 X-8.7929 Y-7.8945
G01 X-8.7952 Y-7.8844
G01 X-8.7960 Y-7.8733
G01 X-8.7951 Y-7.8622
G01 X-8.7926 Y-7.8522
G01 X-8.7888 Y-7.8427
G01 X-8.7835 Y-7.8338
G01 X-8.4850 Y-7.4357
G01 X-8.4833 Y-7.4330
G01 X-8.4826 Y-7.4298
G01 X-8.4830 Y-7.4266
G01 X-8.4844 Y-7.4237
G01 X-8.4880 Y-7.4207
G01 X-8.4920 Y-7.4198
G01 X-8.4961 Y-7.4207
G01 X-8.4994 Y-7.4232
G01 X-8.7727 Y-7.7872
G01 X-8.7841 Y-7.7976
G01 X-8.7967 Y-7.8050
G01 X-8.8105 Y-7.8096
G01 X-8.8259 Y-7.8112
G01 X-8.8412 Y-7.8094
G01 X-8.8550 Y-7.8046
G01 X-8.8675 Y-7.7971
G01 X-8.8782 Y-7.7872
G01 X-9.1507 Y-7.4243
G01 X-9.1536 Y-7.4214
G01 X-9.1570 Y-7.4200
G01 X-9.1612 Y-7.4201
G01 X-9.1645 Y-7.4217
G01 X-9.1670 Y-7.4245
G01 X-9.1683 Y-7.4284
G01 X-9.1679 Y-7.4321
G01 X-9.1659 Y-7.4357
G01 X-8.8669 Y-7.8345
G01 X-8.8618 Y-7.8435
G01 X-8.8580 Y-7.8530
G01 X-8.8556 Y-7.8639
G01 X-8.8549 Y-7.8742
G01 X-8.8557 Y-7.8844
G01 X-8.8580 Y-7.8945
G01 X-8.8621 Y-7.9048
G01 X-8.8674 Y-7.9137
G01 X-9.1659 Y-8.3118
G01 X-9.1676 Y-8.3145
G01 X-9.1683 Y-8.3177
G01 X-9.1679 Y-8.3209
G01 X-9.1665 Y-8.3238
G01 X-9.1633 Y-8.3266
G01 X-9.1589 Y-8.3277
G01 X-9.1548 Y-8.3268
G01 X-9.1515 Y-8.3243
G01 X-8.8782 Y-7.9603
G01 X-8.8675 Y-7.9504
G01 X-8.8550 Y-7.9429
G01 X-8.8412 Y-7.9381
G01 X-8.8267 Y-7.9363
G01 X-8.8122 Y-7.9376
G01 X-8.7982 Y-7.9418
G01 X-8.7855 Y-7.9489
G01 X-8.7738 Y-7.9590
G01 X-8.4991 Y-8.3246
G01 X-8.4961 Y-8.3268
G01 X-8.4925 Y-8.3277
G01 X-8.4888 Y-8.3271
G01 X-8.4857 Y-8.3252
G01 X-8.4835 Y-8.3222
G01 X-8.4826 Y-8.3186
G01 X-8.4832 Y-8.3149
G01 X-8.4850 Y-8.3118
G00 Z2.0000
G00 X-9.5326 Y-7.9761
G01 F70.00
G01 Z-0.0700
G01 F120.00
G01 X-9.5669 Y-7.9564
G01 X-9.5765 Y-7.9479
G01 X-9.5844 Y-7.9379
G01 X-9.5910 Y-7.9249
G01 X-9.5948 Y-7.9108
G01 X-9.5956 Y-7.8963
G01 X-9.5933 Y-7.8819
G01 X-9.5900 Y-7.8722
G01 X-9.5853 Y-7.8631
G01 X-9.5792 Y-7.8548
G01 X-9.5727 Y-7.8480
G01 X-9.5595 Y-7.8386
G01 X-9.5324 Y-7.8268
G01 X-9.5289 Y-7.8239
G01 X-9.4622 Y-7.7127
G01 X-9.4608 Y-7.7099
G01 X-9.4604 Y-7.7062
G01 X-9.4608 Y-7.5932
G01 X-9.5291 Y-7.4788
G01 X-9.5336 Y-7.4757
G01 X-9.6690 Y-7.4198
G01 X-10.0023 Y-7.4198
G01 X-10.0060 Y-7.4202
G01 X-10.0092 Y-7.4219
G01 X-10.0120 Y-7.4257
G01 X-10.0127 Y-7.4302
G01 X-10.0127 Y-8.3173
G01 X-10.0123 Y-8.3210
G01 X-10.0106 Y-8.3242
G01 X-10.0055 Y-8.3274
G01 X-10.0000 Y-8.3272
G01 X-9.9956 Y-8.3239
G01 X-9.9937 Y-8.3187
G01 X-9.9936 Y-7.9515
G01 X-9.9929 Y-7.9430
G01 X-9.9909 Y-7.9337
G01 X-9.9880 Y-7.9257
G01 X-9.9841 Y-7.9180
G01 X-9.9744 Y-7.9050
G01 X-9.9626 Y-7.8950
G01 X-9.9489 Y-7.8879
G01 X-9.9339 Y-7.8840
G01 X-9.9237 Y-7.8832
G01 X-9.7571 Y-7.8832
G01 X-9.7476 Y-7.8839
G01 X-9.7391 Y-7.8856
G01 X-9.7309 Y-7.8883
G01 X-9.7231 Y-7.8920
G01 X-9.5576 Y-7.9841
G01 X-9.5454 Y-7.9934
G01 X-9.5355 Y-8.0051
G01 X-9.4881 Y-8.0843
G01 X-9.4838 Y-8.0936
G01 X-9.4811 Y-8.1027
G01 X-9.4794 Y-8.1171
G01 X-9.4794 Y-8.3191
G01 X-9.4778 Y-8.3235
G01 X-9.4740 Y-8.3268
G01 X-9.4690 Y-8.3277
G01 X-9.4642 Y-8.3258
G01 X-9.4613 Y-8.3223
G01 X-9.4604 Y-8.3173
G01 X-9.4606 Y-8.0941
G01 X-9.4622 Y-8.0904
G01 X-9.5279 Y-7.9806
G01 X-9.5300 Y-7.9778
G01 X-9.5326 Y-7.9761
G00 Z2.0000
G00 X-9.9237 Y-7.8642
G01 F70.00
G01 Z-0.0700
G01 F120.00
G01 X-9.6858 Y-7.8642
G01 X-9.6755 Y-7.8634
G01 X-9.6597 Y-7.8591
G01 X-9.5636 Y-7.8191
G01 X-9.5523 Y-7.8130
G01 X-9.5429 Y-7.8055
G01 X-9.5371 Y-7.7992
G01 X-9.5321 Y-7.7923
G01 X-9.4877 Y-7.7181
G01 X-9.4841 Y-7.7103
G01 X-9.4815 Y-7.7021
G01 X-9.4794 Y-7.6859
G01 X-9.4795 Y-7.6154
G01 X-9.4806 Y-7.6052
G01 X-9.4830 Y-7.5961
G01 X-9.4894 Y-7.5820
G01 X-9.5317 Y-7.5115
G01 X-9.5405 Y-7.4999
G01 X-9.5509 Y-7.4910
G01 X-9.5628 Y-7.4842
G01 X-9.6605 Y-7.4436
G01 X-9.6695 Y-7.4407
G01 X-9.6789 Y-7.4392
G01 X-9.9280 Y-7.4390
G01 X-9.9398 Y-7.4407
G01 X-9.9512 Y-7.4445
G01 X-9.9618 Y-7.4502
G01 X-9.9719 Y-7.4581
G01 X-9.9804 Y-7.4678
G01 X-9.9873 Y-7.4797
G01 X-9.9916 Y-7.4918
G01 X-9.9935 Y-7.5045
G01 X-9.9937 Y-7.7942
G01 X-9.9931 Y-7.8027
G01 X-9.9904 Y-7.8153
G01 X-9.9858 Y-7.8264
G01 X-9.9788 Y-7.8372
G01 X-9.9700 Y-7.8466
G01 X-9.9596 Y-7.8542
G01 X-9.9480 Y-7.8598
G01 X-9.9356 Y-7.8631
G01 X-9.9237 Y-7.8642
G00 Z2.0000
G00 X-7.8405 Y-6.7137
G01 F70.00
G01 Z-0.0700
G01 F120.00
G01 X-7.8264 Y-6.7333
G01 X-7.8138 Y-6.7563
G01 X-7.8138 Y-6.7267
G01 X-7.8405 Y-6.7137
G00 Z2.0000
G00 X-7.7938 Y-4.2882
G01 F70.00
G01 Z-0.0700
G01 F120.00
G01 X-7.7938 Y-4.3888
G01 X-7.6932 Y-4.3888
G01 X-7.7095 Y-4.3802
G01 X-7.7247 Y-4.3705
G01 X-7.7390 Y-4.3595
G01 X-7.7523 Y-4.3473
G01 X-7.7645 Y-4.3340
G01 X-7.7755 Y-4.3197
G01 X-7.7852 Y-4.3045
G01 X-7.7938 Y-4.2882
G00 Z2.0000
G00 X-8.5109 Y-2.9793
G01 F70.00
G01 Z-0.0700
G01 F120.00
G01 X-8.7828 Y-3.3415
G01 X-8.7941 Y-3.3521
G01 X-8.8074 Y-3.3600
G01 X-8.8212 Y-3.3646
G01 X-8.8366 Y-3.3662
G01 X-8.8519 Y-3.3644
G01 X-8.8657 Y-3.3596
G01 X-8.8782 Y-3.3521
G01 X-8.8889 Y-3.3422
G01 X-9.1622 Y-2.9782
G01 X-9.1655 Y-2.9757
G01 X-9.1696 Y-2.9748
G01 X-9.1740 Y-2.9759
G01 X-9.1772 Y-2.9787
G01 X-9.1786 Y-2.9816
G01 X-9.1790 Y-2.9848
G01 X-9.1783 Y-2.9880
G01 X-9.1766 Y-2.9907
G01 X-8.8781 Y-3.3888
G01 X-8.8728 Y-3.3977
G01 X-8.8687 Y-3.4080
G01 X-8.8664 Y-3.4181
G01 X-8.8656 Y-3.4283
G01 X-8.8663 Y-3.4386
G01 X-8.8687 Y-3.4495
G01 X-8.8725 Y-3.4590
G01 X-8.8776 Y-3.4680
G01 X-9.1766 Y-3.8668
G01 X-9.1786 Y-3.8704
G01 X-9.1790 Y-3.8741
G01 X-9.1777 Y-3.8780
G01 X-9.1752 Y-3.8808
G01 X-9.1714 Y-3.8825
G01 X-9.1677 Y-3.8825
G01 X-9.1643 Y-3.8811
G01 X-9.1614 Y-3.8782
G01 X-8.8889 Y-3.5153
G01 X-8.8782 Y-3.5054
G01 X-8.8657 Y-3.4979
G01 X-8.8511 Y-3.4929
G01 X-8.8366 Y-3.4913
G01 X-8.8212 Y-3.4929
G01 X-8.8074 Y-3.4975
G01 X-8.7941 Y-3.5054
G01 X-8.7834 Y-3.5153
G01 X-8.5101 Y-3.8793
G01 X-8.5068 Y-3.8818
G01 X-8.5027 Y-3.8827
G01 X-8.4983 Y-3.8816
G01 X-8.4951 Y-3.8788
G01 X-8.4937 Y-3.8759
G01 X-8.4933 Y-3.8727
G01 X-8.4940 Y-3.8695
G01 X-8.4957 Y-3.8668
G01 X-8.7942 Y-3.4687
G01 X-8.7995 Y-3.4598
G01 X-8.8033 Y-3.4503
G01 X-8.8058 Y-3.4403
G01 X-8.8067 Y-3.4300
G01 X-8.8060 Y-3.4189
G01 X-8.8036 Y-3.4080
G01 X-8.7995 Y-3.3977
G01 X-8.7937 Y-3.3881
G01 X-8.4947 Y-2.9892
G01 X-8.4934 Y-2.9857
G01 X-8.4936 Y-2.9820
G01 X-8.4951 Y-2.9787
G01 X-8.4979 Y-2.9762
G01 X-8.5014 Y-2.9749
G01 X-8.5051 Y-2.9751
G01 X-8.5084 Y-2.9766
G01 X-8.5109 Y-2.9793
G00 Z2.0000
G00 X-7.8726 Y-2.3831
G01 F70.00
G01 Z-0.0700
G01 F120.00
G01 X-7.8550 Y-2.3989
G01 X-7.8396 Y-2.4162
G01 X-7.8248 Y-2.4372
G01 X-7.8138 Y-2.4576
G01 X-7.8138 Y-2.3973
G01 X-7.8726 Y-2.3831
G00 Z2.0000
G00 X-7.8138 Y-1.2985
G01 F70.00
G01 Z-0.0700
G01 F120.00
G01 X-7.8251 Y-1.3194
G01 X-7.8400 Y-1.3405
G01 X-7.8555 Y-1.3578
G01 X-7.8749 Y-1.3749
G01 X-7.8962 Y-1.3894
G01 X-7.9168 Y-1.4002
G01 X-7.9384 Y-1.4086
G01 X-7.9619 Y-1.4148
G01 X-7.8138 Y-1.4506
G01 X-7.8138 Y-1.2985
G00 Z2.0000
G00 X-7.6932 Y-1.0088
G01 F70.00
G01 Z-0.0700
G01 F120.00
G01 X-7.7938 Y-1.0088
G01 X-7.7938 Y-1.1094
G01 X-7.7852 Y-1.0931
G01 X-7.7755 Y-1.0779
G01 X-7.7645 Y-1.0636
G01 X-7.7523 Y-1.0503
G01 X-7.7390 Y-1.0381
G01 X-7.7247 Y-1.0271
G01 X-7.7095 Y-1.0174
G01 X-7.6932 Y-1.0088
G00 Z2.0000
G00 X-9.7377 Y-3.0638
G01 F70.00
G01 Z-0.0700
G01 F120.00
G01 X-9.7368 Y-3.0527
G01 X-9.7341 Y-3.0419
G01 X-9.7298 Y-3.0316
G01 X-9.7239 Y-3.0221
G01 X-9.7165 Y-3.0137
G01 X-9.7080 Y-3.0066
G01 X-9.6984 Y-3.0009
G01 X-9.6880 Y-2.9969
G01 X-9.6779 Y-2.9946
G01 X-9.6685 Y-2.9938
G01 X-9.4801 Y-2.9938
G01 X-9.4761 Y-2.9927
G01 X-9.4730 Y-2.9900
G01 X-9.4713 Y-2.9862
G01 X-9.4715 Y-2.9815
G01 X-9.4730 Y-2.9786
G01 X-9.4753 Y-2.9764
G01 X-9.4783 Y-2.9751
G01 X-9.4815 Y-2.9748
G01 X-10.0130 Y-2.9748
G01 X-10.0162 Y-2.9751
G01 X-10.0192 Y-2.9764
G01 X-10.0215 Y-2.9786
G01 X-10.0230 Y-2.9815
G01 X-10.0232 Y-2.9862
G01 X-10.0215 Y-2.9900
G01 X-10.0184 Y-2.9927
G01 X-10.0144 Y-2.9938
G01 X-9.8259 Y-2.9938
G01 X-9.8106 Y-2.9957
G01 X-9.8024 Y-2.9982
G01 X-9.7937 Y-3.0021
G01 X-9.7857 Y-3.0071
G01 X-9.7785 Y-3.0131
G01 X-9.7721 Y-3.0201
G01 X-9.7671 Y-3.0271
G01 X-9.7631 Y-3.0347
G01 X-9.7598 Y-3.0435
G01 X-9.7575 Y-3.0536
G01 X-9.7567 Y-3.0638
G01 X-9.7567 Y-3.8723
G01 X-9.7562 Y-3.8764
G01 X-9.7543 Y-3.8796
G01 X-9.7513 Y-3.8818
G01 X-9.7472 Y-3.8827
G01 X-9.7436 Y-3.8820
G01 X-9.7401 Y-3.8796
G01 X-9.7382 Y-3.8764
G01 X-9.7377 Y-3.8723
G01 X-9.7377 Y-3.0638
G00 Z2.0000
G00 X-10.8535 Y-14.0977
G01 F70.00
G01 Z-0.0700
G01 F120.00
G01 X-10.8535 Y-14.9848
G01 X-10.8531 Y-14.9885
G01 X-10.8516 Y-14.9914
G01 X-10.8472 Y-14.9947
G01 X-10.8412 Y-14.9948
G01 X-10.8366 Y-14.9917
G01 X-10.8345 Y-14.9862
G01 X-10.8344 Y-14.3822
G01 X-10.8331 Y-14.3703
G01 X-10.8298 Y-14.3588
G01 X-10.8241 Y-14.3472
G01 X-10.8169 Y-14.3376
G01 X-10.8062 Y-14.3277
G01 X-10.7936 Y-14.3203
G01 X-10.7807 Y-14.3159
G01 X-10.7662 Y-14.3140
G01 X-10.7517 Y-14.3151
G01 X-10.7377 Y-14.3193
G01 X-10.7249 Y-14.3262
G01 X-10.7138 Y-14.3357
G01 X-10.7044 Y-14.3479
G01 X-10.5193 Y-14.6565
G01 X-10.5156 Y-14.6605
G01 X-10.5102 Y-14.6618
G01 X-10.5054 Y-14.6602
G01 X-10.5021 Y-14.6565
G01 X-10.3135 Y-14.3429
G01 X-10.3025 Y-14.3309
G01 X-10.2957 Y-14.3257
G01 X-10.2883 Y-14.3214
G01 X-10.2730 Y-14.3158
G01 X-10.2568 Y-14.3139
G01 X-10.2440 Y-14.3151
G01 X-10.2316 Y-14.3186
G01 X-10.2208 Y-14.3239
G01 X-10.2105 Y-14.3315
G01 X-10.2016 Y-14.3408
G01 X-10.1947 Y-14.3517
G01 X-10.1901 Y-14.3628
G01 X-10.1874 Y-14.3753
G01 X-10.1868 Y-14.3839
G01 X-10.1868 Y-14.9862
G01 X-10.1852 Y-14.9910
G01 X-10.1814 Y-14.9943
G01 X-10.1764 Y-14.9952
G01 X-10.1716 Y-14.9933
G01 X-10.1687 Y-14.9898
G01 X-10.1678 Y-14.9848
G01 X-10.1678 Y-14.0977
G01 X-10.1682 Y-14.0940
G01 X-10.1697 Y-14.0911
G01 X-10.1728 Y-14.0884
G01 X-10.1773 Y-14.0873
G01 X-10.1818 Y-14.0884
G01 X-10.1852 Y-14.0915
G01 X-10.4535 Y-14.5381
G01 X-10.4588 Y-14.5448
G01 X-10.4650 Y-14.5507
G01 X-10.4785 Y-14.5599
G01 X-10.4937 Y-14.5656
G01 X-10.5098 Y-14.5677
G01 X-10.5184 Y-14.5673
G01 X-10.5269 Y-14.5658
G01 X-10.5422 Y-14.5603
G01 X-10.5557 Y-14.5513
G01 X-10.5620 Y-14.5454
G01 X-10.5674 Y-14.5387
G01 X-10.8361 Y-14.0915
G01 X-10.8408 Y-14.0878
G01 X-10.8440 Y-14.0873
G01 X-10.8472 Y-14.0878
G01 X-10.8519 Y-14.0915
G01 X-10.8532 Y-14.0945
G01 X-10.8535 Y-14.0977
G00 Z2.0000
G00 X-5.2438 Y-16.1788
G01 F70.00
G01 Z-0.0700
G01 F120.00
G01 X-7.8638 Y-16.1788
G01 X-7.8638 Y-17.2988
G01 X-7.7438 Y-17.2988
G01 X-7.7438 Y-16.4388
G01 X-7.7433 Y-16.4268
G01 X-7.7404 Y-16.4081
G01 X-7.7350 Y-16.3900
G01 X-7.7273 Y-16.3728
G01 X-7.7173 Y-16.3568
G01 X-7.7052 Y-16.3423
G01 X-7.6913 Y-16.3295
G01 X-7.6758 Y-16.3187
G01 X-7.6590 Y-16.3101
G01 X-7.6461 Y-16.3053
G01 X-7.6328 Y-16.3018
G01 X-7.6175 Y-16.2995
G01 X-7.6038 Y-16.2988
G01 X-5.2438 Y-16.2988
G01 X-5.2438 Y-16.1788
G00 Z2.0000
G00 X-5.1738 Y-16.1088
G01 F70.00
G01 Z-0.0700
G01 F120.00
G01 X-7.9338 Y-16.1088
G01 X-7.9338 Y-17.3688
G01 X-7.6738 Y-17.3688
G01 X-7.6738 Y-16.4362
G01 X-7.6728 Y-16.4268
G01 X-7.6703 Y-16.4168
G01 X-7.6667 Y-16.4081
G01 X-7.6620 Y-16.3999
G01 X-7.6562 Y-16.3924
G01 X-7.6495 Y-16.3858
G01 X-7.6412 Y-16.3797
G01 X-7.6329 Y-16.3752
G01 X-7.6191 Y-16.3705
G01 X-7.6038 Y-16.3688
G01 X-5.1738 Y-16.3688
G01 X-5.1738 Y-16.1088
G00 Z2.0000
G00 X-19.9862 Y-13.0175
G01 F70.00
G01 Z-0.0700
G01 F120.00
G01 X-19.9887 Y-12.9154
G01 X-19.9962 Y-12.8136
G01 X-20.0087 Y-12.7123
G01 X-20.0262 Y-12.6117
G01 X-20.0486 Y-12.5121
G01 X-20.0758 Y-12.4137
G01 X-20.1078 Y-12.3168
G01 X-20.1445 Y-12.2215
G01 X-20.1859 Y-12.1282
G01 X-20.2318 Y-12.0370
G01 X-20.2821 Y-11.9482
G01 X-20.3368 Y-11.8619
G01 X-20.3955 Y-11.7785
G01 X-20.4584 Y-11.6980
G01 X-20.5250 Y-11.6207
G01 X-20.5954 Y-11.5467
G01 X-20.6694 Y-11.4763
G01 X-20.7467 Y-11.4097
G01 X-20.8272 Y-11.3468
G01 X-20.9106 Y-11.2881
G01 X-20.9969 Y-11.2334
G01 X-21.0857 Y-11.1831
G01 X-21.1769 Y-11.1372
G01 X-21.2702 Y-11.0958
G01 X-21.3655 Y-11.0591
G01 X-21.4624 Y-11.0271
G01 X-21.5608 Y-10.9999
G01 X-21.6604 Y-10.9775
G01 X-21.7610 Y-10.9600
G01 X-21.8623 Y-10.9475
G01 X-21.9641 Y-10.9400
G01 X-22.0662 Y-10.9375
G01 X-22.1683 Y-10.9400
G01 X-22.2701 Y-10.9475
G01 X-22.3714 Y-10.9600
G01 X-22.4720 Y-10.9775
G01 X-22.5716 Y-10.9999
G01 X-22.6700 Y-11.0271
G01 X-22.7669 Y-11.0591
G01 X-22.8622 Y-11.0958
G01 X-22.9555 Y-11.1372
G01 X-23.0467 Y-11.1831
G01 X-23.1355 Y-11.2334
G01 X-23.2218 Y-11.2881
G01 X-23.3052 Y-11.3468
G01 X-23.3857 Y-11.4097
G01 X-23.4630 Y-11.4763
G01 X-23.5370 Y-11.5467
G01 X-23.6074 Y-11.6207
G01 X-23.6740 Y-11.6980
G01 X-23.7369 Y-11.7785
G01 X-23.7956 Y-11.8619
G01 X-23.8503 Y-11.9482
G01 X-23.9006 Y-12.0370
G01 X-23.9465 Y-12.1282
G01 X-23.9879 Y-12.2215
G01 X-24.0246 Y-12.3168
G01 X-24.0566 Y-12.4137
G01 X-24.0838 Y-12.5121
G01 X-24.1062 Y-12.6117
G01 X-24.1237 Y-12.7123
G01 X-24.1362 Y-12.8136
G01 X-24.1437 Y-12.9154
G01 X-24.1462 Y-13.0175
G01 X-24.1437 Y-13.1196
G01 X-24.1362 Y-13.2214
G01 X-24.1237 Y-13.3227
G01 X-24.1062 Y-13.4233
G01 X-24.0838 Y-13.5229
G01 X-24.0566 Y-13.6213
G01 X-24.0246 Y-13.7182
G01 X-23.9879 Y-13.8135
G01 X-23.9465 Y-13.9068
G01 X-23.9006 Y-13.9980
G01 X-23.8503 Y-14.0868
G01 X-23.7956 Y-14.1731
G01 X-23.7369 Y-14.2565
G01 X-23.6740 Y-14.3370
G01 X-23.6074 Y-14.4143
G01 X-23.5370 Y-14.4883
G01 X-23.4630 Y-14.5587
G01 X-23.3857 Y-14.6253
G01 X-23.3052 Y-14.6882
G01 X-23.2218 Y-14.7469
G01 X-23.1355 Y-14.8016
G01 X-23.0467 Y-14.8519
G01 X-22.9555 Y-14.8978
G01 X-22.8622 Y-14.9392
G01 X-22.7669 Y-14.9759
G01 X-22.6700 Y-15.0079
G01 X-22.5716 Y-15.0351
G01 X-22.4720 Y-15.0575
G01 X-22.3714 Y-15.0750
G01 X-22.2701 Y-15.0875
G01 X-22.1683 Y-15.0950
G01 X-22.0662 Y-15.0975
G01 X-21.9641 Y-15.0950
G01 X-21.8623 Y-15.0875
G01 X-21.7610 Y-15.0750
G01 X-21.6604 Y-15.0575
G01 X-21.5608 Y-15.0351
G01 X-21.4624 Y-15.0079
G01 X-21.3655 Y-14.9759
G01 X-21.2702 Y-14.9392
G01 X-21.1769 Y-14.8978
G01 X-21.0857 Y-14.8519
G01 X-20.9969 Y-14.8016
G01 X-20.9106 Y-14.7469
G01 X-20.8272 Y-14.6882
G01 X-20.7467 Y-14.6253
G01 X-20.6694 Y-14.5587
G01 X-20.5954 Y-14.4883
G01 X-20.5250 Y-14.4143
G01 X-20.4584 Y-14.3370
G01 X-20.3955 Y-14.2565
G01 X-20.3368 Y-14.1731
G01 X-20.2821 Y-14.0868
G01 X-20.2318 Y-13.9980
G01 X-20.1859 Y-13.9068
G01 X-20.1445 Y-13.8135
G01 X-20.1078 Y-13.7182
G01 X-20.0758 Y-13.6213
G01 X-20.0486 Y-13.5229
G01 X-20.0262 Y-13.4233
G01 X-20.0087 Y-13.3227
G01 X-19.9962 Y-13.2214
G01 X-19.9887 Y-13.1196
G01 X-19.9862 Y-13.0175
G00 Z2.0000
G00 X-20.0562 Y-13.0175
G01 F70.00
G01 Z-0.0700
G01 F120.00
G01 X-20.0587 Y-12.9189
G01 X-20.0659 Y-12.8205
G01 X-20.0780 Y-12.7226
G01 X-20.0949 Y-12.6254
G01 X-20.1165 Y-12.5291
G01 X-20.1428 Y-12.4340
G01 X-20.1737 Y-12.3404
G01 X-20.2092 Y-12.2483
G01 X-20.2492 Y-12.1581
G01 X-20.2936 Y-12.0700
G01 X-20.3422 Y-11.9842
G01 X-20.3950 Y-11.9008
G01 X-20.4518 Y-11.8202
G01 X-20.5125 Y-11.7424
G01 X-20.5769 Y-11.6677
G01 X-20.6449 Y-11.5962
G01 X-20.7164 Y-11.5282
G01 X-20.7911 Y-11.4638
G01 X-20.8689 Y-11.4031
G01 X-20.9495 Y-11.3463
G01 X-21.0329 Y-11.2935
G01 X-21.1187 Y-11.2449
G01 X-21.2068 Y-11.2005
G01 X-21.2970 Y-11.1605
G01 X-21.3891 Y-11.1250
G01 X-21.4827 Y-11.0941
G01 X-21.5778 Y-11.0678
G01 X-21.6741 Y-11.0462
G01 X-21.7713 Y-11.0293
G01 X-21.8692 Y-11.0172
G01 X-21.9676 Y-11.0100
G01 X-22.0662 Y-11.0075
G01 X-22.1648 Y-11.0100
G01 X-22.2632 Y-11.0172
G01 X-22.3611 Y-11.0293
G01 X-22.4583 Y-11.0462
G01 X-22.5546 Y-11.0678
G01 X-22.6497 Y-11.0941
G01 X-22.7433 Y-11.1250
G01 X-22.8354 Y-11.1605
G01 X-22.9256 Y-11.2005
G01 X-23.0137 Y-11.2449
G01 X-23.0995 Y-11.2935
G01 X-23.1829 Y-11.3463
G01 X-23.2635 Y-11.4031
G01 X-23.3413 Y-11.4638
G01 X-23.4160 Y-11.5282
G01 X-23.4875 Y-11.5962
G01 X-23.5555 Y-11.6677
G01 X-23.6199 Y-11.7424
G01 X-23.6806 Y-11.8202
G01 X-23.7374 Y-11.9008
G01 X-23.7902 Y-11.9842
G01 X-23.8388 Y-12.0700
G01 X-23.8832 Y-12.1581
G01 X-23.9232 Y-12.2483
G01 X-23.9587 Y-12.3404
G01 X-23.9896 Y-12.4340
G01 X-24.0159 Y-12.5291
G01 X-24.0375 Y-12.6254
G01 X-24.0544 Y-12.7226
G01 X-24.0665 Y-12.8205
G01 X-24.0737 Y-12.9189
G01 X-24.0762 Y-13.0175
G01 X-24.0737 Y-13.1161
G01 X-24.0665 Y-13.2145
G01 X-24.0544 Y-13.3124
G01 X-24.0375 Y-13.4096
G01 X-24.0159 Y-13.5059
G01 X-23.9896 Y-13.6010
G01 X-23.9587 Y-13.6946
G01 X-23.9232 Y-13.7867
G01 X-23.8832 Y-13.8769
G01 X-23.8388 Y-13.9650
G01 X-23.7902 Y-14.0508
G01 X-23.7374 Y-14.1342
G01 X-23.6806 Y-14.2148
G01 X-23.6199 Y-14.2926
G01 X-23.5555 Y-14.3673
G01 X-23.4875 Y-14.4388
G01 X-23.4160 Y-14.5068
G01 X-23.3413 Y-14.5712
G01 X-23.2635 Y-14.6319
G01 X-23.1829 Y-14.6887
G01 X-23.0995 Y-14.7415
G01 X-23.0137 Y-14.7901
G01 X-22.9256 Y-14.8345
G01 X-22.8354 Y-14.8745
G01 X-22.7433 Y-14.9100
G01 X-22.6497 Y-14.9409
G01 X-22.5546 Y-14.9672
G01 X-22.4583 Y-14.9888
G01 X-22.3611 Y-15.0057
G01 X-22.2632 Y-15.0178
G01 X-22.1648 Y-15.0250
G01 X-22.0662 Y-15.0275
G01 X-21.9676 Y-15.0250
G01 X-21.8692 Y-15.0178
G01 X-21.7713 Y-15.0057
G01 X-21.6741 Y-14.9888
G01 X-21.5778 Y-14.9672
G01 X-21.4827 Y-14.9409
G01 X-21.3891 Y-14.9100
G01 X-21.2970 Y-14.8745
G01 X-21.2068 Y-14.8345
G01 X-21.1187 Y-14.7901
G01 X-21.0329 Y-14.7415
G01 X-20.9495 Y-14.6887
G01 X-20.8689 Y-14.6319
G01 X-20.7911 Y-14.5712
G01 X-20.7164 Y-14.5068
G01 X-20.6449 Y-14.4388
G01 X-20.5769 Y-14.3673
G01 X-20.5125 Y-14.2926
G01 X-20.4518 Y-14.2148
G01 X-20.3950 Y-14.1342
G01 X-20.3422 Y-14.0508
G01 X-20.2936 Y-13.9650
G01 X-20.2492 Y-13.8769
G01 X-20.2092 Y-13.7867
G01 X-20.1737 Y-13.6946
G01 X-20.1428 Y-13.6010
G01 X-20.1165 Y-13.5059
G01 X-20.0949 Y-13.4096
G01 X-20.0780 Y-13.3124
G01 X-20.0659 Y-13.2145
G01 X-20.0587 Y-13.1161
G01 X-20.0562 Y-13.0175
G00 Z2.0000
G00 X-20.1263 Y-13.0175
G01 F70.00
G01 Z-0.0700
G01 F120.00
G01 X-20.1286 Y-12.9223
G01 X-20.1356 Y-12.8274
G01 X-20.1473 Y-12.7329
G01 X-20.1635 Y-12.6390
G01 X-20.1844 Y-12.5461
G01 X-20.2098 Y-12.4544
G01 X-20.2397 Y-12.3640
G01 X-20.2739 Y-12.2751
G01 X-20.3125 Y-12.1881
G01 X-20.3553 Y-12.1030
G01 X-20.4023 Y-12.0202
G01 X-20.4532 Y-11.9397
G01 X-20.5080 Y-11.8619
G01 X-20.5666 Y-11.7868
G01 X-20.6288 Y-11.7147
G01 X-20.6945 Y-11.6458
G01 X-20.7634 Y-11.5801
G01 X-20.8355 Y-11.5179
G01 X-20.9106 Y-11.4593
G01 X-20.9884 Y-11.4045
G01 X-21.0689 Y-11.3536
G01 X-21.1517 Y-11.3066
G01 X-21.2368 Y-11.2638
G01 X-21.3238 Y-11.2252
G01 X-21.4127 Y-11.1910
G01 X-21.5031 Y-11.1611
G01 X-21.5948 Y-11.1357
G01 X-21.6877 Y-11.1148
G01 X-21.7816 Y-11.0986
G01 X-21.8761 Y-11.0869
G01 X-21.9710 Y-11.0799
G01 X-22.0662 Y-11.0776
G01 X-22.1614 Y-11.0799
G01 X-22.2563 Y-11.0869
G01 X-22.3508 Y-11.0986
G01 X-22.4447 Y-11.1148
G01 X-22.5376 Y-11.1357
G01 X-22.6293 Y-11.1611
G01 X-22.7197 Y-11.1910
G01 X-22.8086 Y-11.2252
G01 X-22.8956 Y-11.2638
G01 X-22.9807 Y-11.3066
G01 X-23.0635 Y-11.3536
G01 X-23.1440 Y-11.4045
G01 X-23.2218 Y-11.4593
G01 X-23.2969 Y-11.5179
G01 X-23.3690 Y-11.5801
G01 X-23.4379 Y-11.6458
G01 X-23.5036 Y-11.7147
G01 X-23.5658 Y-11.7868
G01 X-23.6244 Y-11.8619
G01 X-23.6792 Y-11.9397
G01 X-23.7301 Y-12.0202
G01 X-23.7771 Y-12.1030
G01 X-23.8199 Y-12.1881
G01 X-23.8585 Y-12.2751
G01 X-23.8927 Y-12.3640
G01 X-23.9226 Y-12.4544
G01 X-23.9480 Y-12.5461
G01 X-23.9689 Y-12.6390
G01 X-23.9851 Y-12.7329
G01 X-23.9968 Y-12.8274
G01 X-24.0038 Y-12.9223
G01 X-24.0061 Y-13.0175
G01 X-24.0038 Y-13.1127
G01 X-23.9968 Y-13.2076
G01 X-23.9851 Y-13.3021
G01 X-23.9689 Y-13.3960
G01 X-23.9480 Y-13.4889
G01 X-23.9226 Y-13.5806
G01 X-23.8927 Y-13.6710
G01 X-23.8585 Y-13.7599
G01 X-23.8199 Y-13.8469
G01 X-23.7771 Y-13.9320
G01 X-23.7301 Y-14.0148
G01 X-23.6792 Y-14.0953
G01 X-23.6244 Y-14.1731
G01 X-23.5658 Y-14.2482
G01 X-23.5036 Y-14.3203
G01 X-23.4379 Y-14.3892
G01 X-23.3690 Y-14.4549
G01 X-23.2969 Y-14.5171
G01 X-23.2218 Y-14.5757
G01 X-23.1440 Y-14.6305
G01 X-23.0635 Y-14.6814
G01 X-22.9807 Y-14.7284
G01 X-22.8956 Y-14.7712
G01 X-22.8086 Y-14.8098
G01 X-22.7197 Y-14.8440
G01 X-22.6293 Y-14.8739
G01 X-22.5376 Y-14.8993
G01 X-22.4447 Y-14.9202
G01 X-22.3508 Y-14.9364
G01 X-22.2563 Y-14.9481
G01 X-22.1614 Y-14.9551
G01 X-22.0662 Y-14.9574
G01 X-21.9710 Y-14.9551
G01 X-21.8761 Y-14.9481
G01 X-21.7816 Y-14.9364
G01 X-21.6877 Y-14.9202
G01 X-21.5948 Y-14.8993
G01 X-21.5031 Y-14.8739
G01 X-21.4127 Y-14.8440
G01 X-21.3238 Y-14.8098
G01 X-21.2368 Y-14.7712
G01 X-21.1517 Y-14.7284
G01 X-21.0689 Y-14.6814
G01 X-20.9884 Y-14.6305
G01 X-20.9106 Y-14.5757
G01 X-20.8355 Y-14.5171
G01 X-20.7634 Y-14.4549
G01 X-20.6945 Y-14.3892
G01 X-20.6288 Y-14.3203
G01 X-20.5666 Y-14.2482
G01 X-20.5080 Y-14.1731
G01 X-20.4532 Y-14.0953
G01 X-20.4023 Y-14.0148
G01 X-20.3553 Y-13.9320
G01 X-20.3125 Y-13.8469
G01 X-20.2739 Y-13.7599
G01 X-20.2397 Y-13.6710
G01 X-20.2098 Y-13.5806
G01 X-20.1844 Y-13.4889
G01 X-20.1635 Y-13.3960
G01 X-20.1473 Y-13.3021
G01 X-20.1356 Y-13.2076
G01 X-20.1286 Y-13.1127
G01 X-20.1263 Y-13.0175
G00 Z2.0000
G00 X-20.1963 Y-13.0175
G01 F70.00
G01 Z-0.0700
G01 F120.00
G01 X-20.1985 Y-12.9257
G01 X-20.2053 Y-12.8342
G01 X-20.2165 Y-12.7431
G01 X-20.2322 Y-12.6527
G01 X-20.2523 Y-12.5631
G01 X-20.2768 Y-12.4747
G01 X-20.3056 Y-12.3875
G01 X-20.3386 Y-12.3019
G01 X-20.3758 Y-12.2180
G01 X-20.4171 Y-12.1360
G01 X-20.4623 Y-12.0562
G01 X-20.5114 Y-11.9786
G01 X-20.5643 Y-11.9036
G01 X-20.6207 Y-11.8312
G01 X-20.6807 Y-11.7617
G01 X-20.7440 Y-11.6953
G01 X-20.8104 Y-11.6320
G01 X-20.8799 Y-11.5720
G01 X-20.9523 Y-11.5156
G01 X-21.0273 Y-11.4627
G01 X-21.1049 Y-11.4136
G01 X-21.1847 Y-11.3684
G01 X-21.2667 Y-11.3271
G01 X-21.3506 Y-11.2899
G01 X-21.4362 Y-11.2569
G01 X-21.5234 Y-11.2281
G01 X-21.6118 Y-11.2036
G01 X-21.7014 Y-11.1835
G01 X-21.7918 Y-11.1678
G01 X-21.8829 Y-11.1566
G01 X-21.9744 Y-11.1498
G01 X-22.0662 Y-11.1476
G01 X-22.1580 Y-11.1498
G01 X-22.2495 Y-11.1566
G01 X-22.3406 Y-11.1678
G01 X-22.4310 Y-11.1835
G01 X-22.5206 Y-11.2036
G01 X-22.6090 Y-11.2281
G01 X-22.6962 Y-11.2569
G01 X-22.7818 Y-11.2899
G01 X-22.8657 Y-11.3271
G01 X-22.9477 Y-11.3684
G01 X-23.0275 Y-11.4136
G01 X-23.1051 Y-11.4627
G01 X-23.1801 Y-11.5156
G01 X-23.2525 Y-11.5720
G01 X-23.3220 Y-11.6320
G01 X-23.3884 Y-11.6953
G01 X-23.4517 Y-11.7617
G01 X-23.5117 Y-11.8312
G01 X-23.5681 Y-11.9036
G01 X-23.6210 Y-11.9786
G01 X-23.6701 Y-12.0562
G01 X-23.7153 Y-12.1360
G01 X-23.7566 Y-12.2180
G01 X-23.7938 Y-12.3019
G01 X-23.8268 Y-12.3875
G01 X-23.8556 Y-12.4747
G01 X-23.8801 Y-12.5631
G01 X-23.9002 Y-12.6527
G01 X-23.9159 Y-12.7431
G01 X-23.9271 Y-12.8342
G01 X-23.9339 Y-12.9257
G01 X-23.9361 Y-13.0175
G01 X-23.9339 Y-13.1093
G01 X-23.9271 Y-13.2008
G01 X-23.9159 Y-13.2919
G01 X-23.9002 Y-13.3823
G01 X-23.8801 Y-13.4719
G01 X-23.8556 Y-13.5603
G01 X-23.8268 Y-13.6475
G01 X-23.7938 Y-13.7331
G01 X-23.7566 Y-13.8170
G01 X-23.7153 Y-13.8990
G01 X-23.6701 Y-13.9788
G01 X-23.6210 Y-14.0564
G01 X-23.5681 Y-14.1314
G01 X-23.5117 Y-14.2038
G01 X-23.4517 Y-14.2733
G01 X-23.3884 Y-14.3397
G01 X-23.3220 Y-14.4030
G01 X-23.2525 Y-14.4630
G01 X-23.1801 Y-14.5194
G01 X-23.1051 Y-14.5723
G01 X-23.0275 Y-14.6214
G01 X-22.9477 Y-14.6666
G01 X-22.8657 Y-14.7079
G01 X-22.7818 Y-14.7451
G01 X-22.6962 Y-14.7781
G01 X-22.6090 Y-14.8069
G01 X-22.5206 Y-14.8314
G01 X-22.4310 Y-14.8515
G01 X-22.3406 Y-14.8672
G01 X-22.2495 Y-14.8784
G01 X-22.1580 Y-14.8852
G01 X-22.0662 Y-14.8874
G01 X-21.9744 Y-14.8852
G01 X-21.8829 Y-14.8784
G01 X-21.7918 Y-14.8672
G01 X-21.7014 Y-14.8515
G01 X-21.6118 Y-14.8314
G01 X-21.5234 Y-14.8069
G01 X-21.4362 Y-14.7781
G01 X-21.3506 Y-14.7451
G01 X-21.2667 Y-14.7079
G01 X-21.1847 Y-14.6666
G01 X-21.1049 Y-14.6214
G01 X-21.0273 Y-14.5723
G01 X-20.9523 Y-14.5194
G01 X-20.8799 Y-14.4630
G01 X-20.8104 Y-14.4030
G01 X-20.7440 Y-14.3397
G01 X-20.6807 Y-14.2733
G01 X-20.6207 Y-14.2038
G01 X-20.5643 Y-14.1314
G01 X-20.5114 Y-14.0564
G01 X-20.4623 Y-13.9788
G01 X-20.4171 Y-13.8990
G01 X-20.3758 Y-13.8170
G01 X-20.3386 Y-13.7331
G01 X-20.3056 Y-13.6475
G01 X-20.2768 Y-13.5603
G01 X-20.2523 Y-13.4719
G01 X-20.2322 Y-13.3823
G01 X-20.2165 Y-13.2919
G01 X-20.2053 Y-13.2008
G01 X-20.1985 Y-13.1093
G01 X-20.1963 Y-13.0175
G00 Z2.0000
G00 X-23.7622 Y-21.1299
G01 F70.00
G01 Z-0.0700
G01 F120.00
G01 X-23.7127 Y-21.1299
G01 X-23.6999 Y-21.0853
G01 X-23.7140 Y-21.0987
G01 X-23.7282 Y-21.1099
G01 X-23.7454 Y-21.1211
G01 X-23.7622 Y-21.1299
G00 Z2.0000
G00 X-23.6999 Y-22.0947
G01 F70.00
G01 Z-0.0700
G01 F120.00
G01 X-23.7127 Y-22.0501
G01 X-23.7622 Y-22.0501
G01 X-23.7454 Y-22.0589
G01 X-23.7282 Y-22.0701
G01 X-23.7140 Y-22.0813
G01 X-23.6999 Y-22.0947
G00 Z2.0000
G00 X-35.7165 Y-22.0501
G01 F70.00
G01 Z-0.0700
G01 F120.00
G01 X-35.8175 Y-22.0501
G01 X-35.8175 Y-22.1509
G01 X-35.8089 Y-22.1346
G01 X-35.7992 Y-22.1194
G01 X-35.7882 Y-22.1051
G01 X-35.7760 Y-22.0918
G01 X-35.7627 Y-22.0796
G01 X-35.7484 Y-22.0686
G01 X-35.7332 Y-22.0589
G01 X-35.7165 Y-22.0501
G00 Z2.0000
G00 X-35.8375 Y-22.3269
G01 F70.00
G01 Z-0.0700
G01 F120.00
G01 X-35.8461 Y-22.3432
G01 X-35.8558 Y-22.3584
G01 X-35.8668 Y-22.3727
G01 X-35.8790 Y-22.3860
G01 X-35.8923 Y-22.3982
G01 X-35.9066 Y-22.4092
G01 X-35.9218 Y-22.4189
G01 X-35.9381 Y-22.4275
G01 X-35.8375 Y-22.4275
G01 X-35.8375 Y-22.3269
G00 Z2.0000
G00 X-35.8175 Y-21.0291
G01 F70.00
G01 Z-0.0700
G01 F120.00
G01 X-35.8175 Y-21.1299
G01 X-35.7165 Y-21.1299
G01 X-35.7332 Y-21.1211
G01 X-35.7484 Y-21.1114
G01 X-35.7627 Y-21.1004
G01 X-35.7760 Y-21.0882
G01 X-35.7882 Y-21.0749
G01 X-35.7992 Y-21.0606
G01 X-35.8089 Y-21.0454
G01 X-35.8175 Y-21.0291
G00 Z2.0000
G00 X-35.6975 Y-19.4008
G01 F70.00
G01 Z-0.0700
G01 F120.00
G01 X-35.6975 Y-18.7075
G01 X-36.5408 Y-18.7075
G01 X-36.5408 Y-18.9675
G01 X-36.0266 Y-18.9675
G01 X-36.0105 Y-18.9696
G01 X-35.9953 Y-18.9754
G01 X-35.9872 Y-18.9803
G01 X-35.9805 Y-18.9856
G01 X-35.9745 Y-18.9918
G01 X-35.9693 Y-18.9986
G01 X-35.9650 Y-19.0060
G01 X-35.9616 Y-19.0139
G01 X-35.9590 Y-19.0230
G01 X-35.9578 Y-19.0315
G01 X-35.9575 Y-19.4008
G01 X-35.6975 Y-19.4008
G00 Z2.0000
G00 X-35.7675 Y-19.3308
G01 F70.00
G01 Z-0.0700
G01 F120.00
G01 X-35.7675 Y-18.7775
G01 X-36.4708 Y-18.7775
G01 X-36.4708 Y-18.8975
G01 X-36.0189 Y-18.8978
G01 X-35.9985 Y-18.9005
G01 X-35.9771 Y-18.9069
G01 X-35.9585 Y-18.9157
G01 X-35.9414 Y-18.9271
G01 X-35.9310 Y-18.9361
G01 X-35.9215 Y-18.9461
G01 X-35.9130 Y-18.9569
G01 X-35.9065 Y-18.9670
G01 X-35.9002 Y-18.9792
G01 X-35.8951 Y-18.9920
G01 X-35.8913 Y-19.0052
G01 X-35.8888 Y-19.0187
G01 X-35.8875 Y-19.0375
G01 X-35.8875 Y-19.3308
G01 X-35.7675 Y-19.3308
G00 Z2.0000
G00 X-35.9381 Y-18.8475
G01 F70.00
G01 Z-0.0700
G01 F120.00
G01 X-35.9218 Y-18.8561
G01 X-35.9066 Y-18.8658
G01 X-35.8923 Y-18.8768
G01 X-35.8790 Y-18.8890
G01 X-35.8668 Y-18.9023
G01 X-35.8558 Y-18.9166
G01 X-35.8461 Y-18.9318
G01 X-35.8375 Y-18.9481
G01 X-35.8375 Y-18.8475
G01 X-35.9381 Y-18.8475
G00 Z2.0000
G00 X-37.1142 Y-18.7075
G01 F70.00
G01 Z-0.0700
G01 F120.00
G01 X-37.9575 Y-18.7075
G01 X-37.9575 Y-19.4008
G01 X-37.6975 Y-19.4008
G01 X-37.6972 Y-19.0315
G01 X-37.6960 Y-19.0230
G01 X-37.6937 Y-19.0147
G01 X-37.6904 Y-19.0068
G01 X-37.6857 Y-18.9986
G01 X-37.6799 Y-18.9911
G01 X-37.6739 Y-18.9851
G01 X-37.6671 Y-18.9798
G01 X-37.6597 Y-18.9754
G01 X-37.6445 Y-18.9696
G01 X-37.6284 Y-18.9675
G01 X-37.1142 Y-18.9675
G01 X-37.1142 Y-18.7075
G00 Z2.0000
G00 X-37.1842 Y-18.7775
G01 F70.00
G01 Z-0.0700
G01 F120.00
G01 X-37.8875 Y-18.7775
G01 X-37.8875 Y-19.3308
G01 X-37.7675 Y-19.3308
G01 X-37.7675 Y-19.0375
G01 X-37.7662 Y-19.0187
G01 X-37.7637 Y-19.0052
G01 X-37.7599 Y-18.9920
G01 X-37.7555 Y-18.9808
G01 X-37.7493 Y-18.9685
G01 X-37.7420 Y-18.9569
G01 X-37.7335 Y-18.9461
G01 X-37.7240 Y-18.9361
G01 X-37.7136 Y-18.9271
G01 X-37.6950 Y-18.9149
G01 X-37.6763 Y-18.9063
G01 X-37.6565 Y-18.9005
G01 X-37.6361 Y-18.8978
G01 X-37.1842 Y-18.8975
G01 X-37.1842 Y-18.7775
G00 Z2.0000
G00 X-37.8175 Y-18.9481
G01 F70.00
G01 Z-0.0700
G01 F120.00
G01 X-37.8089 Y-18.9318
G01 X-37.7992 Y-18.9166
G01 X-37.7882 Y-18.9023
G01 X-37.7760 Y-18.8890
G01 X-37.7627 Y-18.8768
G01 X-37.7484 Y-18.8658
G01 X-37.7332 Y-18.8561
G01 X-37.7169 Y-18.8475
G01 X-37.8175 Y-18.8475
G01 X-37.8175 Y-18.9481
G00 Z2.0000
G00 X-37.7475 Y-20.6845
G01 F70.00
G01 Z-0.0700
G01 F120.00
G01 X-37.7218 Y-20.6739
G01 X-37.6922 Y-20.6651
G01 X-37.6618 Y-20.6596
G01 X-37.6309 Y-20.6575
G01 X-36.0275 Y-20.6575
G01 X-35.9966 Y-20.6592
G01 X-35.9662 Y-20.6643
G01 X-35.9364 Y-20.6727
G01 X-35.9075 Y-20.6845
G01 X-35.9075 Y-20.5905
G01 X-35.9364 Y-20.6023
G01 X-35.9662 Y-20.6107
G01 X-35.9966 Y-20.6158
G01 X-36.0275 Y-20.6175
G01 X-37.6309 Y-20.6175
G01 X-37.6618 Y-20.6154
G01 X-37.6922 Y-20.6099
G01 X-37.7218 Y-20.6011
G01 X-37.7475 Y-20.5905
G01 X-37.7475 Y-20.6845
G00 Z2.0000
G00 X-37.8175 Y-20.8481
G01 F70.00
G01 Z-0.0700
G01 F120.00
G01 X-37.8049 Y-20.8252
G01 X-37.7882 Y-20.8023
G01 X-37.7685 Y-20.7819
G01 X-37.7463 Y-20.7643
G01 X-37.7219 Y-20.7499
G01 X-37.6958 Y-20.7389
G01 X-37.6685 Y-20.7315
G01 X-37.6404 Y-20.7279
G01 X-36.0275 Y-20.7275
G01 X-35.9992 Y-20.7294
G01 X-35.9840 Y-20.7321
G01 X-35.9690 Y-20.7358
G01 X-35.9424 Y-20.7455
G01 X-35.9285 Y-20.7523
G01 X-35.9152 Y-20.7601
G01 X-35.9024 Y-20.7688
G01 X-35.8903 Y-20.7785
G01 X-35.8702 Y-20.7984
G01 X-35.8604 Y-20.8103
G01 X-35.8515 Y-20.8230
G01 X-35.8375 Y-20.8481
G01 X-35.8375 Y-20.4269
G01 X-35.8515 Y-20.4520
G01 X-35.8604 Y-20.4647
G01 X-35.8702 Y-20.4766
G01 X-35.8808 Y-20.4878
G01 X-35.8923 Y-20.4982
G01 X-35.9152 Y-20.5149
G01 X-35.9285 Y-20.5227
G01 X-35.9424 Y-20.5295
G01 X-35.9690 Y-20.5392
G01 X-35.9840 Y-20.5429
G01 X-35.9992 Y-20.5456
G01 X-36.0275 Y-20.5475
G01 X-37.6404 Y-20.5471
G01 X-37.6685 Y-20.5435
G01 X-37.6958 Y-20.5361
G01 X-37.7219 Y-20.5251
G01 X-37.7463 Y-20.5107
G01 X-37.7685 Y-20.4931
G01 X-37.7882 Y-20.4727
G01 X-37.8049 Y-20.4498
G01 X-37.8175 Y-20.4269
G01 X-37.8175 Y-20.8481
G00 Z2.0000
G00 X-37.9385 Y-21.1299
G01 F70.00
G01 Z-0.0700
G01 F120.00
G01 X-37.8375 Y-21.1299
G01 X-37.8375 Y-21.0291
G01 X-37.8461 Y-21.0454
G01 X-37.8558 Y-21.0606
G01 X-37.8668 Y-21.0749
G01 X-37.8790 Y-21.0882
G01 X-37.8923 Y-21.1004
G01 X-37.9066 Y-21.1114
G01 X-37.9218 Y-21.1211
G01 X-37.9385 Y-21.1299
G00 Z2.0000
G00 X-38.6688 Y-21.0291
G01 F70.00
G01 Z-0.0700
G01 F120.00
G01 X-38.6688 Y-21.1299
G01 X-38.5678 Y-21.1299
G01 X-38.5845 Y-21.1211
G01 X-38.5997 Y-21.1114
G01 X-38.6140 Y-21.1004
G01 X-38.6273 Y-21.0882
G01 X-38.6395 Y-21.0749
G01 X-38.6505 Y-21.0606
G01 X-38.6602 Y-21.0454
G01 X-38.6688 Y-21.0291
G00 Z2.0000
G00 X-38.7894 Y-20.6000
G01 F70.00
G01 Z-0.0700
G01 F120.00
G01 X-38.7731 Y-20.6086
G01 X-38.7579 Y-20.6183
G01 X-38.7436 Y-20.6293
G01 X-38.7303 Y-20.6415
G01 X-38.7181 Y-20.6548
G01 X-38.7071 Y-20.6691
G01 X-38.6974 Y-20.6843
G01 X-38.6888 Y-20.7006
G01 X-38.6888 Y-20.6000
G01 X-38.7894 Y-20.6000
G00 Z2.0000
G00 X-38.5678 Y-22.0501
G01 F70.00
G01 Z-0.0700
G01 F120.00
G01 X-38.6688 Y-22.0501
G01 X-38.6688 Y-22.1509
G01 X-38.6602 Y-22.1346
G01 X-38.6505 Y-22.1194
G01 X-38.6395 Y-22.1051
G01 X-38.6273 Y-22.0918
G01 X-38.6140 Y-22.0796
G01 X-38.5997 Y-22.0686
G01 X-38.5845 Y-22.0589
G01 X-38.5678 Y-22.0501
G00 Z2.0000
G00 X-38.6888 Y-22.4794
G01 F70.00
G01 Z-0.0700
G01 F120.00
G01 X-38.6974 Y-22.4957
G01 X-38.7071 Y-22.5109
G01 X-38.7181 Y-22.5252
G01 X-38.7303 Y-22.5385
G01 X-38.7436 Y-22.5507
G01 X-38.7579 Y-22.5617
G01 X-38.7731 Y-22.5714
G01 X-38.7894 Y-22.5800
G01 X-38.6888 Y-22.5800
G01 X-38.6888 Y-22.4794
G00 Z2.0000
G00 X-37.8375 Y-22.1509
G01 F70.00
G01 Z-0.0700
G01 F120.00
G01 X-37.8375 Y-22.0501
G01 X-37.9385 Y-22.0501
G01 X-37.9218 Y-22.0589
G01 X-37.9066 Y-22.0686
G01 X-37.8923 Y-22.0796
G01 X-37.8790 Y-22.0918
G01 X-37.8668 Y-22.1051
G01 X-37.8558 Y-22.1194
G01 X-37.8461 Y-22.1346
G01 X-37.8375 Y-22.1509
G00 Z2.0000
G00 X-37.7169 Y-22.4275
G01 F70.00
G01 Z-0.0700
G01 F120.00
G01 X-37.7332 Y-22.4189
G01 X-37.7484 Y-22.4092
G01 X-37.7627 Y-22.3982
G01 X-37.7760 Y-22.3860
G01 X-37.7882 Y-22.3727
G01 X-37.7992 Y-22.3584
G01 X-37.8089 Y-22.3432
G01 X-37.8175 Y-22.3269
G01 X-37.8175 Y-22.4275
G01 X-37.7169 Y-22.4275
G00 Z2.0000
G00 X-40.1788 Y-22.4600
G01 F70.00
G01 Z-0.0700
G01 F120.00
G01 X-38.8788 Y-22.4600
G01 X-38.8660 Y-22.4588
G01 X-38.8528 Y-22.4550
G01 X-38.8443 Y-22.4509
G01 X-38.8364 Y-22.4457
G01 X-38.8293 Y-22.4395
G01 X-38.8226 Y-22.4317
G01 X-38.8175 Y-22.4238
G01 X-38.8135 Y-22.4152
G01 X-38.8107 Y-22.4062
G01 X-38.8091 Y-22.3960
G01 X-38.8088 Y-21.9101
G01 X-37.6975 Y-21.9101
G01 X-37.6975 Y-22.2375
G01 X-37.6965 Y-22.2495
G01 X-37.6934 Y-22.2611
G01 X-37.6884 Y-22.2720
G01 X-37.6811 Y-22.2826
G01 X-37.6726 Y-22.2911
G01 X-37.6627 Y-22.2980
G01 X-37.6519 Y-22.3031
G01 X-37.6403 Y-22.3063
G01 X-37.6275 Y-22.3075
G01 X-36.0275 Y-22.3075
G01 X-36.0113 Y-22.3056
G01 X-36.0015 Y-22.3025
G01 X-35.9923 Y-22.2980
G01 X-35.9838 Y-22.2922
G01 X-35.9756 Y-22.2845
G01 X-35.9693 Y-22.2764
G01 X-35.9642 Y-22.2674
G01 X-35.9605 Y-22.2578
G01 X-35.9581 Y-22.2469
G01 X-35.9575 Y-22.2375
G01 X-35.9575 Y-21.9101
G01 X-23.6029 Y-21.9101
G01 X-23.5891 Y-21.9715
G01 X-23.5686 Y-22.0457
G01 X-23.5444 Y-22.1189
G01 X-23.5167 Y-22.1908
G01 X-23.4855 Y-22.2613
G01 X-23.4508 Y-22.3301
G01 X-23.4128 Y-22.3971
G01 X-23.3725 Y-22.4608
G01 X-23.3262 Y-22.5266
G01 X-23.2798 Y-22.5860
G01 X-23.2283 Y-22.6456
G01 X-23.1764 Y-22.7002
G01 X-23.1205 Y-22.7533
G01 X-23.0622 Y-22.8036
G01 X-23.0028 Y-22.8500
G01 X-22.9370 Y-22.8963
G01 X-22.8733 Y-22.9366
G01 X-22.8048 Y-22.9754
G01 X-22.7375 Y-23.0093
G01 X-22.6670 Y-23.0405
G01 X-22.5951 Y-23.0682
G01 X-22.5219 Y-23.0924
G01 X-22.4477 Y-23.1129
G01 X-22.3742 Y-23.1295
G01 X-22.2949 Y-23.1432
G01 X-22.2201 Y-23.1524
G01 X-22.1432 Y-23.1581
G01 X-22.0662 Y-23.1600
G01 X-21.9892 Y-23.1581
G01 X-21.9123 Y-23.1524
G01 X-21.8358 Y-23.1430
G01 X-21.7599 Y-23.1298
G01 X-21.6847 Y-23.1129
G01 X-21.6105 Y-23.0924
G01 X-21.5373 Y-23.0682
G01 X-21.4654 Y-23.0405
G01 X-21.3949 Y-23.0093
G01 X-21.3261 Y-22.9746
G01 X-21.2591 Y-22.9366
G01 X-21.1940 Y-22.8954
G01 X-21.1310 Y-22.8510
G01 X-21.0702 Y-22.8036
G01 X-21.0119 Y-22.7533
G01 X-20.9560 Y-22.7002
G01 X-20.9029 Y-22.6443
G01 X-20.8526 Y-22.5860
G01 X-20.8052 Y-22.5252
G01 X-20.7608 Y-22.4622
G01 X-20.7196 Y-22.3971
G01 X-20.6816 Y-22.3301
G01 X-20.6469 Y-22.2613
G01 X-20.6157 Y-22.1908
G01 X-20.5880 Y-22.1189
G01 X-20.5638 Y-22.0457
G01 X-20.5433 Y-21.9715
G01 X-20.5264 Y-21.8963
G01 X-20.5132 Y-21.8204
G01 X-20.5038 Y-21.7439
G01 X-20.4981 Y-21.6670
G01 X-20.4962 Y-21.5900
G01 X-20.4981 Y-21.5130
G01 X-20.5038 Y-21.4361
G01 X-20.5132 Y-21.3596
G01 X-20.5264 Y-21.2837
G01 X-20.5433 Y-21.2085
G01 X-20.5638 Y-21.1343
G01 X-20.5880 Y-21.0611
G01 X-20.6157 Y-20.9892
G01 X-20.6462 Y-20.9203
G01 X-20.6824 Y-20.8484
G01 X-20.7196 Y-20.7829
G01 X-20.7618 Y-20.7163
G01 X-20.8052 Y-20.6548
G01 X-20.8526 Y-20.5940
G01 X-20.9029 Y-20.5357
G01 X-20.9560 Y-20.4798
G01 X-21.0119 Y-20.4267
G01 X-21.0702 Y-20.3764
G01 X-21.1310 Y-20.3290
G01 X-21.1940 Y-20.2846
G01 X-21.2591 Y-20.2434
G01 X-21.3261 Y-20.2054
G01 X-21.3949 Y-20.1707
G01 X-21.4638 Y-20.1402
G01 X-21.5389 Y-20.1112
G01 X-21.6105 Y-20.0876
G01 X-21.6864 Y-20.0667
G01 X-21.7599 Y-20.0502
G01 X-21.8358 Y-20.0370
G01 X-21.9123 Y-20.0276
G01 X-21.9900 Y-20.0219
G01 X-22.0662 Y-20.0200
G01 X-22.1432 Y-20.0219
G01 X-22.2201 Y-20.0276
G01 X-22.2949 Y-20.0368
G01 X-22.3742 Y-20.0505
G01 X-22.4477 Y-20.0671
G01 X-22.5219 Y-20.0876
G01 X-22.5951 Y-20.1118
G01 X-22.6670 Y-20.1395
G01 X-22.7375 Y-20.1707
G01 X-22.8048 Y-20.2046
G01 X-22.8733 Y-20.2434
G01 X-22.9370 Y-20.2837
G01 X-23.0028 Y-20.3300
G01 X-23.0622 Y-20.3764
G01 X-23.1205 Y-20.4267
G01 X-23.1764 Y-20.4798
G01 X-23.2283 Y-20.5344
G01 X-23.2798 Y-20.5940
G01 X-23.3262 Y-20.6534
G01 X-23.3725 Y-20.7192
G01 X-23.4128 Y-20.7829
G01 X-23.4508 Y-20.8499
G01 X-23.4855 Y-20.9187
G01 X-23.5167 Y-20.9892
G01 X-23.5444 Y-21.0611
G01 X-23.5686 Y-21.1343
G01 X-23.5891 Y-21.2085
G01 X-23.6029 Y-21.2699
G01 X-35.9575 Y-21.2699
G01 X-35.9575 Y-20.9375
G01 X-35.9585 Y-20.9255
G01 X-35.9616 Y-20.9139
G01 X-35.9666 Y-20.9030
G01 X-35.9739 Y-20.8924
G01 X-35.9824 Y-20.8839
G01 X-35.9923 Y-20.8770
G01 X-36.0031 Y-20.8719
G01 X-36.0155 Y-20.8685
G01 X-36.0275 Y-20.8675
G01 X-37.6275 Y-20.8675
G01 X-37.6378 Y-20.8683
G01 X-37.6486 Y-20.8708
G01 X-37.6590 Y-20.8750
G01 X-37.6685 Y-20.8808
G01 X-37.6770 Y-20.8880
G01 X-37.6842 Y-20.8965
G01 X-37.6900 Y-20.9060
G01 X-37.6942 Y-20.9164
G01 X-37.6967 Y-20.9272
G01 X-37.6975 Y-20.9375
G01 X-37.6975 Y-21.2699
G01 X-38.8088 Y-21.2699
G01 X-38.8091 Y-20.7840
G01 X-38.8105 Y-20.7747
G01 X-38.8135 Y-20.7648
G01 X-38.8175 Y-20.7562
G01 X-38.8226 Y-20.7483
G01 X-38.8287 Y-20.7411
G01 X-38.8357 Y-20.7348
G01 X-38.8443 Y-20.7291
G01 X-38.8528 Y-20.7250
G01 X-38.8651 Y-20.7213
G01 X-38.8788 Y-20.7200
G01 X-40.1822 Y-20.7201
G01 X-40.1950 Y-20.7219
G01 X-40.2072 Y-20.7260
G01 X-40.2184 Y-20.7323
G01 X-40.2283 Y-20.7405
G01 X-40.2365 Y-20.7504
G01 X-40.2428 Y-20.7616
G01 X-40.2469 Y-20.7738
G01 X-40.2488 Y-20.7874
G01 X-40.2488 Y-22.3900
G01 X-40.2475 Y-22.4037
G01 X-40.2435 Y-22.4168
G01 X-40.2370 Y-22.4289
G01 X-40.2283 Y-22.4395
G01 X-40.2177 Y-22.4482
G01 X-40.2056 Y-22.4547
G01 X-40.1925 Y-22.4587
G01 X-40.1788 Y-22.4600
G00 Z2.0000
G00 X-40.1788 Y-22.5300
G01 F70.00
G01 Z-0.0700
G01 F120.00
G01 X-38.8771 Y-22.5300
G01 X-38.8651 Y-22.5293
G01 X-38.8532 Y-22.5276
G01 X-38.8398 Y-22.5245
G01 X-38.8284 Y-22.5206
G01 X-38.8113 Y-22.5126
G01 X-38.7968 Y-22.5035
G01 X-38.7823 Y-22.4914
G01 X-38.7706 Y-22.4788
G01 X-38.7605 Y-22.4649
G01 X-38.7515 Y-22.4483
G01 X-38.7448 Y-22.4306
G01 X-38.7406 Y-22.4122
G01 X-38.7388 Y-22.3900
G01 X-38.7388 Y-21.9801
G01 X-37.7675 Y-21.9801
G01 X-37.7675 Y-22.2409
G01 X-37.7651 Y-22.2631
G01 X-37.7593 Y-22.2847
G01 X-37.7510 Y-22.3035
G01 X-37.7389 Y-22.3223
G01 X-37.7253 Y-22.3377
G01 X-37.7081 Y-22.3520
G01 X-37.6904 Y-22.3626
G01 X-37.6698 Y-22.3710
G01 X-37.6497 Y-22.3757
G01 X-37.6275 Y-22.3775
G01 X-36.0275 Y-22.3775
G01 X-36.0121 Y-22.3766
G01 X-35.9968 Y-22.3741
G01 X-35.9787 Y-22.3687
G01 X-35.9615 Y-22.3610
G01 X-35.9455 Y-22.3510
G01 X-35.9310 Y-22.3389
G01 X-35.9182 Y-22.3250
G01 X-35.9074 Y-22.3095
G01 X-35.8988 Y-22.2927
G01 X-35.8926 Y-22.2748
G01 X-35.8890 Y-22.2580
G01 X-35.8875 Y-22.2392
G01 X-35.8875 Y-21.9801
G01 X-23.6590 Y-21.9801
G01 X-23.6345 Y-22.0693
G01 X-23.6103 Y-22.1425
G01 X-23.5800 Y-22.2208
G01 X-23.5487 Y-22.2912
G01 X-23.5126 Y-22.3631
G01 X-23.4729 Y-22.4331
G01 X-23.4298 Y-22.5011
G01 X-23.3835 Y-22.5669
G01 X-23.3361 Y-22.6277
G01 X-23.2790 Y-22.6939
G01 X-23.2259 Y-22.7497
G01 X-23.1676 Y-22.8052
G01 X-23.1066 Y-22.8577
G01 X-23.0431 Y-22.9073
G01 X-22.9773 Y-22.9536
G01 X-22.9093 Y-22.9967
G01 X-22.8393 Y-23.0364
G01 X-22.7705 Y-23.0710
G01 X-22.6906 Y-23.1064
G01 X-22.6187 Y-23.1341
G01 X-22.5423 Y-23.1594
G01 X-22.4647 Y-23.1809
G01 X-22.3895 Y-23.1978
G01 X-22.3034 Y-23.2127
G01 X-22.2269 Y-23.2221
G01 X-22.1467 Y-23.2280
G01 X-22.0662 Y-23.2300
G01 X-21.9857 Y-23.2280
G01 X-21.9055 Y-23.2221
G01 X-21.8256 Y-23.2122
G01 X-21.7463 Y-23.1985
G01 X-21.6677 Y-23.1809
G01 X-21.5901 Y-23.1594
G01 X-21.5137 Y-23.1341
G01 X-21.4386 Y-23.1052
G01 X-21.3650 Y-23.0725
G01 X-21.2931 Y-23.0364
G01 X-21.2231 Y-22.9967
G01 X-21.1551 Y-22.9536
G01 X-21.0893 Y-22.9073
G01 X-21.0258 Y-22.8577
G01 X-20.9648 Y-22.8052
G01 X-20.9065 Y-22.7497
G01 X-20.8510 Y-22.6914
G01 X-20.7985 Y-22.6304
G01 X-20.7489 Y-22.5669
G01 X-20.7026 Y-22.5011
G01 X-20.6595 Y-22.4331
G01 X-20.6198 Y-22.3631
G01 X-20.5837 Y-22.2912
G01 X-20.5510 Y-22.2176
G01 X-20.5221 Y-22.1425
G01 X-20.4968 Y-22.0661
G01 X-20.4753 Y-21.9885
G01 X-20.4577 Y-21.9099
G01 X-20.4440 Y-21.8306
G01 X-20.4341 Y-21.7507
G01 X-20.4282 Y-21.6705
G01 X-20.4262 Y-21.5900
G01 X-20.4282 Y-21.5095
G01 X-20.4341 Y-21.4293
G01 X-20.4440 Y-21.3494
G01 X-20.4577 Y-21.2701
G01 X-20.4753 Y-21.1915
G01 X-20.4968 Y-21.1139
G01 X-20.5221 Y-21.0375
G01 X-20.5510 Y-20.9624
G01 X-20.5822 Y-20.8919
G01 X-20.6215 Y-20.8139
G01 X-20.6595 Y-20.7469
G01 X-20.7045 Y-20.6760
G01 X-20.7489 Y-20.6131
G01 X-20.7985 Y-20.5496
G01 X-20.8510 Y-20.4886
G01 X-20.9065 Y-20.4303
G01 X-20.9648 Y-20.3748
G01 X-21.0258 Y-20.3223
G01 X-21.0893 Y-20.2727
G01 X-21.1551 Y-20.2264
G01 X-21.2231 Y-20.1833
G01 X-21.2931 Y-20.1436
G01 X-21.3650 Y-20.1075
G01 X-21.4354 Y-20.0762
G01 X-21.5169 Y-20.0448
G01 X-21.5901 Y-20.0206
G01 X-21.6711 Y-19.9984
G01 X-21.7463 Y-19.9815
G01 X-21.8256 Y-19.9678
G01 X-21.9055 Y-19.9579
G01 X-21.9857 Y-19.9520
G01 X-22.0662 Y-19.9500
G01 X-22.1467 Y-19.9520
G01 X-22.2269 Y-19.9579
G01 X-22.3034 Y-19.9673
G01 X-22.3895 Y-19.9822
G01 X-22.4647 Y-19.9991
G01 X-22.5423 Y-20.0206
G01 X-22.6187 Y-20.0459
G01 X-22.6938 Y-20.0748
G01 X-22.7674 Y-20.1075
G01 X-22.8362 Y-20.1421
G01 X-22.9123 Y-20.1851
G01 X-22.9773 Y-20.2264
G01 X-23.0431 Y-20.2727
G01 X-23.1066 Y-20.3223
G01 X-23.1650 Y-20.3726
G01 X-23.2283 Y-20.4328
G01 X-23.2814 Y-20.4886
G01 X-23.3339 Y-20.5496
G01 X-23.3835 Y-20.6131
G01 X-23.4298 Y-20.6789
G01 X-23.4729 Y-20.7469
G01 X-23.5126 Y-20.8169
G01 X-23.5487 Y-20.8888
G01 X-23.5800 Y-20.9592
G01 X-23.6103 Y-21.0375
G01 X-23.6345 Y-21.1107
G01 X-23.6590 Y-21.1999
G01 X-35.8875 Y-21.1999
G01 X-35.8875 Y-20.9341
G01 X-35.8899 Y-20.9119
G01 X-35.8951 Y-20.8920
G01 X-35.9032 Y-20.8730
G01 X-35.9151 Y-20.8541
G01 X-35.9285 Y-20.8385
G01 X-35.9455 Y-20.8240
G01 X-35.9646 Y-20.8124
G01 X-35.9852 Y-20.8040
G01 X-36.0053 Y-20.7993
G01 X-36.0275 Y-20.7975
G01 X-37.6275 Y-20.7975
G01 X-37.6480 Y-20.7990
G01 X-37.6681 Y-20.8035
G01 X-37.6858 Y-20.8102
G01 X-37.7038 Y-20.8201
G01 X-37.7189 Y-20.8315
G01 X-37.7324 Y-20.8448
G01 X-37.7449 Y-20.8612
G01 X-37.7541 Y-20.8776
G01 X-37.7615 Y-20.8969
G01 X-37.7657 Y-20.9153
G01 X-37.7675 Y-20.9341
G01 X-37.7675 Y-21.1999
G01 X-38.7388 Y-21.1999
G01 X-38.7388 Y-20.7900
G01 X-38.7406 Y-20.7678
G01 X-38.7443 Y-20.7510
G01 X-38.7508 Y-20.7333
G01 X-38.7596 Y-20.7166
G01 X-38.7695 Y-20.7025
G01 X-38.7823 Y-20.6886
G01 X-38.7968 Y-20.6765
G01 X-38.8113 Y-20.6674
G01 X-38.8284 Y-20.6594
G01 X-38.8398 Y-20.6555
G01 X-38.8515 Y-20.6527
G01 X-38.8634 Y-20.6509
G01 X-38.8771 Y-20.6500
G01 X-40.1857 Y-20.6502
G01 X-40.1993 Y-20.6515
G01 X-40.2111 Y-20.6538
G01 X-40.2227 Y-20.6571
G01 X-40.2340 Y-20.6613
G01 X-40.2463 Y-20.6674
G01 X-40.2566 Y-20.6736
G01 X-40.2676 Y-20.6818
G01 X-40.2766 Y-20.6898
G01 X-40.2859 Y-20.6999
G01 X-40.2933 Y-20.7094
G01 X-40.2998 Y-20.7195
G01 X-40.3061 Y-20.7317
G01 X-40.3112 Y-20.7445
G01 X-40.3146 Y-20.7560
G01 X-40.3170 Y-20.7678
G01 X-40.3184 Y-20.7797
G01 X-40.3188 Y-22.3900
G01 X-40.3181 Y-22.4037
G01 X-40.3161 Y-22.4173
G01 X-40.3128 Y-22.4306
G01 X-40.3081 Y-22.4436
G01 X-40.3023 Y-22.4560
G01 X-40.2952 Y-22.4678
G01 X-40.2870 Y-22.4788
G01 X-40.2778 Y-22.4890
G01 X-40.2676 Y-22.4982
G01 X-40.2566 Y-22.5064
G01 X-40.2448 Y-22.5135
G01 X-40.2324 Y-22.5193
G01 X-40.2194 Y-22.5240
G01 X-40.2061 Y-22.5273
G01 X-40.1925 Y-22.5293
G01 X-40.1788 Y-22.5300
G00 Z2.0000
G00 X-40.2682 Y-22.5800
G01 F70.00
G01 Z-0.0700
G01 F120.00
G01 X-40.2933 Y-22.5660
G01 X-40.3060 Y-22.5571
G01 X-40.3179 Y-22.5473
G01 X-40.3291 Y-22.5367
G01 X-40.3395 Y-22.5252
G01 X-40.3562 Y-22.5023
G01 X-40.3640 Y-22.4890
G01 X-40.3708 Y-22.4751
G01 X-40.3805 Y-22.4485
G01 X-40.3865 Y-22.4208
G01 X-40.3882 Y-22.4054
G01 X-40.3888 Y-22.3900
G01 X-40.3884 Y-20.7771
G01 X-40.3848 Y-20.7490
G01 X-40.3774 Y-20.7217
G01 X-40.3664 Y-20.6956
G01 X-40.3520 Y-20.6712
G01 X-40.3344 Y-20.6490
G01 X-40.3140 Y-20.6293
G01 X-40.2911 Y-20.6126
G01 X-40.2682 Y-20.6000
G01 X-40.6894 Y-20.6000
G01 X-40.6643 Y-20.6140
G01 X-40.6516 Y-20.6229
G01 X-40.6397 Y-20.6327
G01 X-40.6285 Y-20.6433
G01 X-40.6181 Y-20.6548
G01 X-40.6014 Y-20.6777
G01 X-40.5879 Y-20.7025
G01 X-40.5820 Y-20.7168
G01 X-40.5771 Y-20.7315
G01 X-40.5734 Y-20.7465
G01 X-40.5707 Y-20.7617
G01 X-40.5688 Y-20.7900
G01 X-40.5692 Y-22.4029
G01 X-40.5728 Y-22.4310
G01 X-40.5802 Y-22.4583
G01 X-40.5912 Y-22.4844
G01 X-40.6056 Y-22.5088
G01 X-40.6232 Y-22.5310
G01 X-40.6436 Y-22.5507
G01 X-40.6665 Y-22.5674
G01 X-40.6894 Y-22.5800
G01 X-40.2682 Y-22.5800
G00 Z2.0000
G00 X-40.4318 Y-22.5100
G01 F70.00
G01 Z-0.0700
G01 F120.00
G01 X-40.4436 Y-22.4811
G01 X-40.4520 Y-22.4513
G01 X-40.4571 Y-22.4209
G01 X-40.4588 Y-22.3900
G01 X-40.4588 Y-20.7866
G01 X-40.4567 Y-20.7557
G01 X-40.4512 Y-20.7253
G01 X-40.4424 Y-20.6957
G01 X-40.4318 Y-20.6700
G01 X-40.5258 Y-20.6700
G01 X-40.5140 Y-20.6989
G01 X-40.5056 Y-20.7287
G01 X-40.5005 Y-20.7591
G01 X-40.4988 Y-20.7900
G01 X-40.4988 Y-22.3934
G01 X-40.5009 Y-22.4243
G01 X-40.5064 Y-22.4547
G01 X-40.5152 Y-22.4843
G01 X-40.5258 Y-22.5100
G01 X-40.4318 Y-22.5100
G00 Z2.0000
G00 X-42.1682 Y-22.5800
G01 F70.00
G01 Z-0.0700
G01 F120.00
G01 X-42.1845 Y-22.5714
G01 X-42.1997 Y-22.5617
G01 X-42.2140 Y-22.5507
G01 X-42.2273 Y-22.5385
G01 X-42.2395 Y-22.5252
G01 X-42.2505 Y-22.5109
G01 X-42.2602 Y-22.4957
G01 X-42.2688 Y-22.4794
G01 X-42.2688 Y-22.5800
G01 X-42.1682 Y-22.5800
G00 Z2.0000
G00 X-42.2888 Y-22.1504
G01 F70.00
G01 Z-0.0700
G01 F120.00
G01 X-42.2888 Y-22.0497
G01 X-42.3897 Y-22.0496
G01 X-42.3730 Y-22.0584
G01 X-42.3578 Y-22.0681
G01 X-42.3435 Y-22.0791
G01 X-42.3303 Y-22.0913
G01 X-42.3181 Y-22.1046
G01 X-42.3071 Y-22.1189
G01 X-42.2973 Y-22.1341
G01 X-42.2888 Y-22.1504
G00 Z2.0000
G00 X-42.9651 Y-22.0493
G01 F70.00
G01 Z-0.0700
G01 F120.00
G01 X-43.0662 Y-22.0493
G01 X-43.0662 Y-22.1502
G01 X-43.0576 Y-22.1338
G01 X-43.0479 Y-22.1186
G01 X-43.0369 Y-22.1043
G01 X-43.0247 Y-22.0911
G01 X-43.0114 Y-22.0789
G01 X-42.9971 Y-22.0679
G01 X-42.9819 Y-22.0581
G01 X-42.9651 Y-22.0493
G00 Z2.0000
G00 X-43.0862 Y-22.3268
G01 F70.00
G01 Z-0.0700
G01 F120.00
G01 X-43.0948 Y-22.3431
G01 X-43.1045 Y-22.3583
G01 X-43.1155 Y-22.3726
G01 X-43.1277 Y-22.3859
G01 X-43.1410 Y-22.3981
G01 X-43.1553 Y-22.4091
G01 X-43.1705 Y-22.4188
G01 X-43.1868 Y-22.4274
G01 X-43.0862 Y-22.4274
G01 X-43.0862 Y-22.3268
G00 Z2.0000
G00 X-43.0662 Y-21.0284
G01 F70.00
G01 Z-0.0700
G01 F120.00
G01 X-43.0662 Y-21.1290
G01 X-42.9653 Y-21.1291
G01 X-42.9820 Y-21.1203
G01 X-42.9972 Y-21.1106
G01 X-43.0115 Y-21.0996
G01 X-43.0247 Y-21.0874
G01 X-43.0369 Y-21.0741
G01 X-43.0479 Y-21.0598
G01 X-43.0577 Y-21.0446
G01 X-43.0662 Y-21.0284
G00 Z2.0000
G00 X-42.3899 Y-21.1294
G01 F70.00
G01 Z-0.0700
G01 F120.00
G01 X-42.2888 Y-21.1294
G01 X-42.2888 Y-21.0286
G01 X-42.2974 Y-21.0449
G01 X-42.3071 Y-21.0601
G01 X-42.3181 Y-21.0744
G01 X-42.3303 Y-21.0877
G01 X-42.3436 Y-21.0999
G01 X-42.3579 Y-21.1109
G01 X-42.3731 Y-21.1206
G01 X-42.3899 Y-21.1294
G00 Z2.0000
G00 X-42.2688 Y-20.7006
G01 F70.00
G01 Z-0.0700
G01 F120.00
G01 X-42.2602 Y-20.6843
G01 X-42.2505 Y-20.6691
G01 X-42.2395 Y-20.6548
G01 X-42.2273 Y-20.6415
G01 X-42.2140 Y-20.6293
G01 X-42.1997 Y-20.6183
G01 X-42.1845 Y-20.6086
G01 X-42.1682 Y-20.6000
G01 X-42.2688 Y-20.6000
G01 X-42.2688 Y-20.7006
G00 Z2.0000
G00 X-42.9462 Y-19.4008
G01 F70.00
G01 Z-0.0700
G01 F120.00
G01 X-42.9462 Y-18.7074
G01 X-43.6895 Y-18.7074
G01 X-43.6895 Y-18.9674
G01 X-43.2745 Y-18.9674
G01 X-43.2659 Y-18.9682
G01 X-43.2567 Y-18.9702
G01 X-43.2486 Y-18.9731
G01 X-43.2410 Y-18.9769
G01 X-43.2338 Y-18.9817
G01 X-43.2273 Y-18.9873
G01 X-43.2171 Y-19.0000
G01 X-43.2100 Y-19.0146
G01 X-43.2077 Y-19.0229
G01 X-43.2065 Y-19.0314
G01 X-43.2062 Y-19.4008
G01 X-42.9462 Y-19.4008
G00 Z2.0000
G00 X-43.0162 Y-19.3308
G01 F70.00
G01 Z-0.0700
G01 F120.00
G01 X-43.0162 Y-18.7774
G01 X-43.6195 Y-18.7774
G01 X-43.6195 Y-18.8974
G01 X-43.2642 Y-18.8979
G01 X-43.2523 Y-18.8995
G01 X-43.2405 Y-18.9020
G01 X-43.2195 Y-18.9094
G01 X-43.1999 Y-18.9200
G01 X-43.1822 Y-18.9337
G01 X-43.1725 Y-18.9434
G01 X-43.1648 Y-18.9526
G01 X-43.1570 Y-18.9640
G01 X-43.1511 Y-18.9745
G01 X-43.1462 Y-18.9854
G01 X-43.1422 Y-18.9968
G01 X-43.1389 Y-19.0101
G01 X-43.1371 Y-19.0220
G01 X-43.1362 Y-19.0374
G01 X-43.1362 Y-19.3308
G01 X-43.0162 Y-19.3308
G00 Z2.0000
G00 X-43.1868 Y-18.8474
G01 F70.00
G01 Z-0.0700
G01 F120.00
G01 X-43.1705 Y-18.8560
G01 X-43.1553 Y-18.8657
G01 X-43.1410 Y-18.8767
G01 X-43.1277 Y-18.8889
G01 X-43.1155 Y-18.9022
G01 X-43.1045 Y-18.9165
G01 X-43.0948 Y-18.9317
G01 X-43.0862 Y-18.9480
G01 X-43.0862 Y-18.8474
G01 X-43.1868 Y-18.8474
G00 Z2.0000
G00 X-44.2628 Y-18.7074
G01 F70.00
G01 Z-0.0700
G01 F120.00
G01 X-45.0062 Y-18.7074
G01 X-45.0062 Y-19.4007
G01 X-44.7462 Y-19.4007
G01 X-44.7459 Y-19.0314
G01 X-44.7427 Y-19.0154
G01 X-44.7395 Y-19.0075
G01 X-44.7353 Y-19.0000
G01 X-44.7251 Y-18.9873
G01 X-44.7186 Y-18.9817
G01 X-44.7114 Y-18.9769
G01 X-44.7038 Y-18.9731
G01 X-44.6949 Y-18.9699
G01 X-44.6865 Y-18.9682
G01 X-44.6779 Y-18.9674
G01 X-44.2628 Y-18.9674
G01 X-44.2628 Y-18.7074
G00 Z2.0000
G00 X-44.3328 Y-18.7774
G01 F70.00
G01 Z-0.0700
G01 F120.00
G01 X-44.9362 Y-18.7774
G01 X-44.9362 Y-19.3307
G01 X-44.8162 Y-19.3307
G01 X-44.8162 Y-19.0374
G01 X-44.8153 Y-19.0220
G01 X-44.8132 Y-19.0084
G01 X-44.8102 Y-18.9968
G01 X-44.8062 Y-18.9854
G01 X-44.8013 Y-18.9745
G01 X-44.7954 Y-18.9640
G01 X-44.7876 Y-18.9526
G01 X-44.7799 Y-18.9434
G01 X-44.7702 Y-18.9337
G01 X-44.7525 Y-18.9200
G01 X-44.7422 Y-18.9139
G01 X-44.7314 Y-18.9087
G01 X-44.7102 Y-18.9016
G01 X-44.6882 Y-18.8979
G01 X-44.3328 Y-18.8974
G01 X-44.3328 Y-18.7774
G00 Z2.0000
G00 X-44.8662 Y-18.9480
G01 F70.00
G01 Z-0.0700
G01 F120.00
G01 X-44.8576 Y-18.9317
G01 X-44.8479 Y-18.9165
G01 X-44.8369 Y-18.9022
G01 X-44.8247 Y-18.8889
G01 X-44.8114 Y-18.8767
G01 X-44.7971 Y-18.8657
G01 X-44.7819 Y-18.8560
G01 X-44.7656 Y-18.8474
G01 X-44.8662 Y-18.8474
G01 X-44.8662 Y-18.9480
G00 Z2.0000
G00 X-44.7962 Y-20.6844
G01 F70.00
G01 Z-0.0700
G01 F120.00
G01 X-44.7705 Y-20.6738
G01 X-44.7409 Y-20.6650
G01 X-44.7105 Y-20.6595
G01 X-44.6796 Y-20.6574
G01 X-43.2762 Y-20.6574
G01 X-43.2453 Y-20.6591
G01 X-43.2149 Y-20.6642
G01 X-43.1851 Y-20.6726
G01 X-43.1562 Y-20.6844
G01 X-43.1562 Y-20.5904
G01 X-43.1851 Y-20.6022
G01 X-43.2149 Y-20.6106
G01 X-43.2453 Y-20.6157
G01 X-43.2762 Y-20.6174
G01 X-44.6796 Y-20.6174
G01 X-44.7105 Y-20.6153
G01 X-44.7409 Y-20.6098
G01 X-44.7705 Y-20.6010
G01 X-44.7962 Y-20.5904
G01 X-44.7962 Y-20.6844
G00 Z2.0000
G00 X-44.8662 Y-20.8480
G01 F70.00
G01 Z-0.0700
G01 F120.00
G01 X-44.8536 Y-20.8251
G01 X-44.8369 Y-20.8022
G01 X-44.8172 Y-20.7818
G01 X-44.7950 Y-20.7642
G01 X-44.7706 Y-20.7498
G01 X-44.7445 Y-20.7388
G01 X-44.7172 Y-20.7314
G01 X-44.6916 Y-20.7280
G01 X-44.6762 Y-20.7274
G01 X-43.2762 Y-20.7274
G01 X-43.2608 Y-20.7280
G01 X-43.2454 Y-20.7297
G01 X-43.2177 Y-20.7357
G01 X-43.2030 Y-20.7406
G01 X-43.1887 Y-20.7465
G01 X-43.1639 Y-20.7600
G01 X-43.1410 Y-20.7767
G01 X-43.1295 Y-20.7871
G01 X-43.1189 Y-20.7983
G01 X-43.1091 Y-20.8102
G01 X-43.1002 Y-20.8229
G01 X-43.0862 Y-20.8480
G01 X-43.0862 Y-20.4268
G01 X-43.1002 Y-20.4519
G01 X-43.1091 Y-20.4646
G01 X-43.1189 Y-20.4765
G01 X-43.1295 Y-20.4877
G01 X-43.1410 Y-20.4981
G01 X-43.1639 Y-20.5148
G01 X-43.1772 Y-20.5226
G01 X-43.1911 Y-20.5294
G01 X-43.2177 Y-20.5391
G01 X-43.2327 Y-20.5428
G01 X-43.2479 Y-20.5455
G01 X-43.2762 Y-20.5474
G01 X-44.6762 Y-20.5474
G01 X-44.6916 Y-20.5468
G01 X-44.7197 Y-20.5428
G01 X-44.7445 Y-20.5360
G01 X-44.7706 Y-20.5250
G01 X-44.7950 Y-20.5106
G01 X-44.8172 Y-20.4930
G01 X-44.8369 Y-20.4726
G01 X-44.8536 Y-20.4497
G01 X-44.8662 Y-20.4268
G01 X-44.8662 Y-20.8480
G00 Z2.0000
G00 X-44.9873 Y-21.1281
G01 F70.00
G01 Z-0.0700
G01 F120.00
G01 X-44.8862 Y-21.1281
G01 X-44.8862 Y-21.0272
G01 X-44.8948 Y-21.0436
G01 X-44.9045 Y-21.0588
G01 X-44.9155 Y-21.0731
G01 X-44.9277 Y-21.0863
G01 X-44.9410 Y-21.0985
G01 X-44.9553 Y-21.1095
G01 X-44.9705 Y-21.1193
G01 X-44.9873 Y-21.1281
G00 Z2.0000
G00 X-44.8862 Y-22.1490
G01 F70.00
G01 Z-0.0700
G01 F120.00
G01 X-44.8862 Y-22.0484
G01 X-44.9871 Y-22.0483
G01 X-44.9704 Y-22.0571
G01 X-44.9552 Y-22.0668
G01 X-44.9409 Y-22.0778
G01 X-44.9277 Y-22.0900
G01 X-44.9155 Y-22.1033
G01 X-44.9045 Y-22.1176
G01 X-44.8947 Y-22.1328
G01 X-44.8862 Y-22.1490
G00 Z2.0000
G00 X-44.7656 Y-22.4274
G01 F70.00
G01 Z-0.0700
G01 F120.00
G01 X-44.7819 Y-22.4188
G01 X-44.7971 Y-22.4091
G01 X-44.8114 Y-22.3981
G01 X-44.8247 Y-22.3859
G01 X-44.8369 Y-22.3726
G01 X-44.8479 Y-22.3583
G01 X-44.8576 Y-22.3431
G01 X-44.8662 Y-22.3268
G01 X-44.8662 Y-22.4274
G01 X-44.7656 Y-22.4274
G00 Z2.0000
G00 X-42.2626 Y-13.0175
G01 F70.00
G01 Z-0.0700
G01 F120.00
G01 X-42.2648 Y-12.9257
G01 X-42.2716 Y-12.8342
G01 X-42.2828 Y-12.7431
G01 X-42.2985 Y-12.6527
G01 X-42.3186 Y-12.5631
G01 X-42.3431 Y-12.4747
G01 X-42.3719 Y-12.3875
G01 X-42.4049 Y-12.3019
G01 X-42.4421 Y-12.2180
G01 X-42.4834 Y-12.1360
G01 X-42.5286 Y-12.0562
G01 X-42.5777 Y-11.9786
G01 X-42.6306 Y-11.9036
G01 X-42.6870 Y-11.8312
G01 X-42.7470 Y-11.7617
G01 X-42.8103 Y-11.6953
G01 X-42.8767 Y-11.6320
G01 X-42.9462 Y-11.5720
G01 X-43.0186 Y-11.5156
G01 X-43.0936 Y-11.4627
G01 X-43.1712 Y-11.4136
G01 X-43.2510 Y-11.3684
G01 X-43.3330 Y-11.3271
G01 X-43.4169 Y-11.2899
G01 X-43.5025 Y-11.2569
G01 X-43.5897 Y-11.2281
G01 X-43.6781 Y-11.2036
G01 X-43.7677 Y-11.1835
G01 X-43.8581 Y-11.1678
G01 X-43.9492 Y-11.1566
G01 X-44.0407 Y-11.1498
G01 X-44.1325 Y-11.1476
G01 X-44.2243 Y-11.1498
G01 X-44.3158 Y-11.1566
G01 X-44.4069 Y-11.1678
G01 X-44.4973 Y-11.1835
G01 X-44.5869 Y-11.2036
G01 X-44.6753 Y-11.2281
G01 X-44.7625 Y-11.2569
G01 X-44.8481 Y-11.2899
G01 X-44.9320 Y-11.3271
G01 X-45.0140 Y-11.3684
G01 X-45.0938 Y-11.4136
G01 X-45.1714 Y-11.4627
G01 X-45.2464 Y-11.5156
G01 X-45.3188 Y-11.5720
G01 X-45.3883 Y-11.6320
G01 X-45.4547 Y-11.6953
G01 X-45.5180 Y-11.7617
G01 X-45.5780 Y-11.8312
G01 X-45.6344 Y-11.9036
G01 X-45.6873 Y-11.9786
G01 X-45.7364 Y-12.0562
G01 X-45.7816 Y-12.1360
G01 X-45.8229 Y-12.2180
G01 X-45.8601 Y-12.3019
G01 X-45.8931 Y-12.3875
G01 X-45.9219 Y-12.4747
G01 X-45.9464 Y-12.5631
G01 X-45.9665 Y-12.6527
G01 X-45.9822 Y-12.7431
G01 X-45.9934 Y-12.8342
G01 X-46.0002 Y-12.9257
G01 X-46.0024 Y-13.0175
G01 X-46.0002 Y-13.1093
G01 X-45.9934 Y-13.2008
G01 X-45.9822 Y-13.2919
G01 X-45.9665 Y-13.3823
G01 X-45.9464 Y-13.4719
G01 X-45.9219 Y-13.5603
G01 X-45.8931 Y-13.6475
G01 X-45.8601 Y-13.7331
G01 X-45.8229 Y-13.8170
G01 X-45.7816 Y-13.8990
G01 X-45.7364 Y-13.9788
G01 X-45.6873 Y-14.0564
G01 X-45.6344 Y-14.1314
G01 X-45.5780 Y-14.2038
G01 X-45.5180 Y-14.2733
G01 X-45.4547 Y-14.3397
G01 X-45.3883 Y-14.4030
G01 X-45.3188 Y-14.4630
G01 X-45.2464 Y-14.5194
G01 X-45.1714 Y-14.5723
G01 X-45.0938 Y-14.6214
G01 X-45.0140 Y-14.6666
G01 X-44.9320 Y-14.7079
G01 X-44.8481 Y-14.7451
G01 X-44.7625 Y-14.7781
G01 X-44.6753 Y-14.8069
G01 X-44.5869 Y-14.8314
G01 X-44.4973 Y-14.8515
G01 X-44.4069 Y-14.8672
G01 X-44.3158 Y-14.8784
G01 X-44.2243 Y-14.8852
G01 X-44.1325 Y-14.8874
G01 X-44.0407 Y-14.8852
G01 X-43.9492 Y-14.8784
G01 X-43.8581 Y-14.8672
G01 X-43.7677 Y-14.8515
G01 X-43.6781 Y-14.8314
G01 X-43.5897 Y-14.8069
