(G-CODE GENERATED BY FLATCAM v8.992 - www.flatcam.org - Version Date: 2020/05/03)
(Name: test555_Ф1_верх.gbr_iso_cnc)
(Type: G-code from Geometry)
(Units: MM)
(Created on Friday, 25 March 2022 at 04:22)
(This preprocessor is the default preprocessor used by FlatCAM.)
(It is made to work with MACH3 compatible motion controllers.)
(TOOL DIAMETER: 0.14 mm)
(Feedrate_XY: 120.0 mm/min)
(Feedrate_Z: 60.0 mm/min)
(Feedrate rapids 1500.0 mm/min)
(Z_Cut: -0.0746 mm)
(Z_Move: 2.0 mm)
(Z Start: None mm)
(Z End: 15.0 mm)
(Steps per circle: 64)
(Preprocessor Geometry: default)
(X range:   -0.1750 ...   15.1750  mm)
(Y range:  -15.1750 ...    0.1750  mm)
(Spindle Speed: 10000 RPM)
G21
G90
G94
G01 F120.00
G00 Z2.0000
M03 S10000
G00 X-0.0700 Y-0.0000
G01 F60.00
G01 Z-0.0746
G01 F120.00
G01 X-0.0700 Y-15.0000
G01 X-0.0697 Y-15.0069
G01 X-0.0687 Y-15.0137
G01 X-0.0670 Y-15.0203
G01 X-0.0647 Y-15.0268
G01 X-0.0617 Y-15.0330
G01 X-0.0582 Y-15.0389
G01 X-0.0541 Y-15.0444
G01 X-0.0495 Y-15.0495
G01 X-0.0444 Y-15.0541
G01 X-0.0389 Y-15.0582
G01 X-0.0330 Y-15.0617
G01 X-0.0268 Y-15.0647
G01 X-0.0203 Y-15.0670
G01 X-0.0137 Y-15.0687
G01 X-0.0069 Y-15.0697
G01 X0.0000 Y-15.0700
G01 X15.0000 Y-15.0700
G01 X15.0069 Y-15.0697
G01 X15.0137 Y-15.0687
G01 X15.0203 Y-15.0670
G01 X15.0268 Y-15.0647
G01 X15.0330 Y-15.0617
G01 X15.0389 Y-15.0582
G01 X15.0444 Y-15.0541
G01 X15.0495 Y-15.0495
G01 X15.0541 Y-15.0444
G01 X15.0582 Y-15.0389
G01 X15.0617 Y-15.0330
G01 X15.0647 Y-15.0268
G01 X15.0670 Y-15.0203
G01 X15.0687 Y-15.0137
G01 X15.0697 Y-15.0069
G01 X15.0700 Y-15.0000
G01 X15.0700 Y-0.0000
G01 X15.0697 Y0.0069
G01 X15.0687 Y0.0137
G01 X15.0670 Y0.0203
G01 X15.0647 Y0.0268
G01 X15.0617 Y0.0330
G01 X15.0582 Y0.0389
G01 X15.0541 Y0.0444
G01 X15.0495 Y0.0495
G01 X15.0444 Y0.0541
G01 X15.0389 Y0.0582
G01 X15.0330 Y0.0617
G01 X15.0268 Y0.0647
G01 X15.0203 Y0.0670
G01 X15.0137 Y0.0687
G01 X15.0069 Y0.0697
G01 X15.0000 Y0.0700
G01 X0.0000 Y0.0700
G01 X-0.0069 Y0.0697
G01 X-0.0137 Y0.0687
G01 X-0.0203 Y0.0670
G01 X-0.0268 Y0.0647
G01 X-0.0330 Y0.0617
G01 X-0.0389 Y0.0582
G01 X-0.0444 Y0.0541
G01 X-0.0495 Y0.0495
G01 X-0.0541 Y0.0444
G01 X-0.0582 Y0.0389
G01 X-0.0617 Y0.0330
G01 X-0.0647 Y0.0268
G01 X-0.0670 Y0.0203
G01 X-0.0687 Y0.0137
G01 X-0.0697 Y0.0069
G01 X-0.0700 Y-0.0000
G00 Z2.0000
G00 X-0.1750 Y-0.0000
G01 F60.00
G01 Z-0.0746
G01 F120.00
G01 X-0.1750 Y-15.0000
G01 X-0.1742 Y-15.0172
G01 X-0.1716 Y-15.0341
G01 X-0.1675 Y-15.0508
G01 X-0.1617 Y-15.0670
G01 X-0.1543 Y-15.0825
G01 X-0.1455 Y-15.0972
G01 X-0.1353 Y-15.1110
G01 X-0.1237 Y-15.1237
G01 X-0.1110 Y-15.1353
G01 X-0.0972 Y-15.1455
G01 X-0.0825 Y-15.1543
G01 X-0.0670 Y-15.1617
G01 X-0.0508 Y-15.1675
G01 X-0.0341 Y-15.1716
G01 X-0.0172 Y-15.1742
G01 X0.0000 Y-15.1750
G01 X15.0000 Y-15.1750
G01 X15.0172 Y-15.1742
G01 X15.0341 Y-15.1716
G01 X15.0508 Y-15.1675
G01 X15.0670 Y-15.1617
G01 X15.0825 Y-15.1543
G01 X15.0972 Y-15.1455
G01 X15.1110 Y-15.1353
G01 X15.1237 Y-15.1237
G01 X15.1353 Y-15.1110
G01 X15.1455 Y-15.0972
G01 X15.1543 Y-15.0825
G01 X15.1617 Y-15.0670
G01 X15.1675 Y-15.0508
G01 X15.1716 Y-15.0341
G01 X15.1742 Y-15.0172
G01 X15.1750 Y-15.0000
G01 X15.1750 Y-0.0000
G01 X15.1742 Y0.0172
G01 X15.1716 Y0.0341
G01 X15.1675 Y0.0508
G01 X15.1617 Y0.0670
G01 X15.1543 Y0.0825
G01 X15.1455 Y0.0972
G01 X15.1353 Y0.1110
G01 X15.1237 Y0.1237
G01 X15.1110 Y0.1353
G01 X15.0972 Y0.1455
G01 X15.0825 Y0.1543
G01 X15.0670 Y0.1617
G01 X15.0508 Y0.1675
G01 X15.0341 Y0.1716
G01 X15.0172 Y0.1742
G01 X15.0000 Y0.1750
G01 X0.0000 Y0.1750
G01 X-0.0172 Y0.1742
G01 X-0.0341 Y0.1716
G01 X-0.0508 Y0.1675
G01 X-0.0670 Y0.1617
G01 X-0.0825 Y0.1543
G01 X-0.0972 Y0.1455
G01 X-0.1110 Y0.1353
G01 X-0.1237 Y0.1237
G01 X-0.1353 Y0.1110
G01 X-0.1455 Y0.0972
G01 X-0.1543 Y0.0825
G01 X-0.1617 Y0.0670
G01 X-0.1675 Y0.0508
G01 X-0.1716 Y0.0341
G01 X-0.1742 Y0.0172
G01 X-0.1750 Y-0.0000
G00 Z2.0000
G00 X3.9556 Y-2.9509
G01 F60.00
G01 Z-0.0746
G01 F120.00
G01 X5.2556 Y-2.9509
G01 X5.2642 Y-2.9504
G01 X5.2726 Y-2.9488
G01 X5.2824 Y-2.9456
G01 X5.2886 Y-2.9426
G01 X5.2930 Y-2.9400
G01 X5.3013 Y-2.9339
G01 X5.3086 Y-2.9266
G01 X5.3128 Y-2.9212
G01 X5.3156 Y-2.9169
G01 X5.3203 Y-2.9077
G01 X5.3226 Y-2.9012
G01 X5.3239 Y-2.8962
G01 X5.3254 Y-2.8860
G01 X5.3256 Y-2.3308
G01 X6.0175 Y-2.2408
G01 X6.0175 Y-2.3086
G01 X6.0180 Y-2.3155
G01 X6.0188 Y-2.3206
G01 X6.0205 Y-2.3272
G01 X6.0222 Y-2.3321
G01 X6.0266 Y-2.3414
G01 X6.0303 Y-2.3472
G01 X6.0334 Y-2.3513
G01 X6.0405 Y-2.3588
G01 X6.0486 Y-2.3651
G01 X6.0576 Y-2.3702
G01 X6.0672 Y-2.3739
G01 X6.0772 Y-2.3761
G01 X6.0875 Y-2.3769
G01 X6.1674 Y-2.3769
G01 X6.1674 Y-5.1469
G01 X6.0841 Y-5.1470
G01 X6.0772 Y-5.1477
G01 X6.0722 Y-5.1486
G01 X6.0672 Y-5.1499
G01 X6.0607 Y-5.1522
G01 X6.0530 Y-5.1560
G01 X6.0444 Y-5.1617
G01 X6.0380 Y-5.1674
G01 X6.0323 Y-5.1738
G01 X6.0275 Y-5.1809
G01 X6.0228 Y-5.1901
G01 X6.0200 Y-5.1982
G01 X6.0183 Y-5.2066
G01 X6.0175 Y-5.2169
G01 X6.0175 Y-6.1169
G01 X6.0178 Y-6.1238
G01 X6.0188 Y-6.1306
G01 X6.0200 Y-6.1356
G01 X6.0222 Y-6.1421
G01 X6.0250 Y-6.1484
G01 X6.0275 Y-6.1529
G01 X6.0313 Y-6.1586
G01 X6.0345 Y-6.1626
G01 X6.0418 Y-6.1699
G01 X6.0472 Y-6.1741
G01 X6.0515 Y-6.1769
G01 X6.0560 Y-6.1794
G01 X6.0623 Y-6.1822
G01 X6.0688 Y-6.1844
G01 X6.0738 Y-6.1856
G01 X6.0841 Y-6.1868
G01 X6.8892 Y-6.1869
G01 X6.8944 Y-6.1866
G01 X6.9012 Y-6.1856
G01 X6.9062 Y-6.1844
G01 X6.9127 Y-6.1822
G01 X6.9190 Y-6.1794
G01 X6.9249 Y-6.1760
G01 X6.9292 Y-6.1731
G01 X6.9345 Y-6.1688
G01 X6.9394 Y-6.1639
G01 X6.9437 Y-6.1586
G01 X6.9475 Y-6.1529
G01 X6.9508 Y-6.1468
G01 X6.9540 Y-6.1389
G01 X6.9558 Y-6.1322
G01 X6.9570 Y-6.1255
G01 X6.9575 Y-6.1186
G01 X6.9575 Y-5.2169
G01 X6.9570 Y-5.2083
G01 X6.9554 Y-5.1999
G01 X6.9522 Y-5.1901
G01 X6.9475 Y-5.1809
G01 X6.9427 Y-5.1738
G01 X6.9370 Y-5.1674
G01 X6.9306 Y-5.1617
G01 X6.9220 Y-5.1560
G01 X6.9143 Y-5.1522
G01 X6.9078 Y-5.1499
G01 X6.9028 Y-5.1486
G01 X6.8978 Y-5.1477
G01 X6.8909 Y-5.1470
G01 X6.8076 Y-5.1469
G01 X6.8076 Y-2.3769
G01 X6.8909 Y-2.3768
G01 X6.8978 Y-2.3761
G01 X6.9028 Y-2.3752
G01 X6.9095 Y-2.3734
G01 X6.9143 Y-2.3716
G01 X6.9235 Y-2.3669
G01 X6.9306 Y-2.3621
G01 X6.9370 Y-2.3564
G01 X6.9437 Y-2.3486
G01 X6.9484 Y-2.3414
G01 X6.9522 Y-2.3337
G01 X6.9554 Y-2.3239
G01 X6.9570 Y-2.3155
G01 X6.9575 Y-2.3069
G01 X6.9575 Y-1.4052
G01 X6.9570 Y-1.3983
G01 X6.9562 Y-1.3932
G01 X6.9550 Y-1.3882
G01 X6.9528 Y-1.3817
G01 X6.9508 Y-1.3770
G01 X6.9475 Y-1.3709
G01 X6.9437 Y-1.3652
G01 X6.9394 Y-1.3599
G01 X6.9345 Y-1.3550
G01 X6.9292 Y-1.3507
G01 X6.9235 Y-1.3469
G01 X6.9174 Y-1.3436
G01 X6.9111 Y-1.3410
G01 X6.9028 Y-1.3386
G01 X6.8961 Y-1.3374
G01 X6.8892 Y-1.3369
G01 X6.0875 Y-1.3369
G01 X6.0806 Y-1.3372
G01 X6.0738 Y-1.3382
G01 X6.0639 Y-1.3410
G01 X6.0545 Y-1.3452
G01 X6.0458 Y-1.3507
G01 X6.0380 Y-1.3574
G01 X6.0323 Y-1.3638
G01 X6.0266 Y-1.3724
G01 X6.0222 Y-1.3817
G01 X6.0192 Y-1.3916
G01 X6.0178 Y-1.4000
G01 X6.0175 Y-1.4069
G01 X6.0175 Y-1.5952
G01 X5.3256 Y-1.6851
G01 X5.3256 Y-1.2809
G01 X5.3253 Y-1.2740
G01 X5.3235 Y-1.2639
G01 X5.3203 Y-1.2541
G01 X5.3156 Y-1.2449
G01 X5.3097 Y-1.2365
G01 X5.3026 Y-1.2290
G01 X5.2945 Y-1.2227
G01 X5.2855 Y-1.2176
G01 X5.2776 Y-1.2144
G01 X5.2709 Y-1.2126
G01 X5.2659 Y-1.2117
G01 X5.2556 Y-1.2109
G01 X3.9556 Y-1.2109
G01 X3.9470 Y-1.2114
G01 X3.9386 Y-1.2130
G01 X3.9304 Y-1.2156
G01 X3.9226 Y-1.2192
G01 X3.9139 Y-1.2247
G01 X3.9073 Y-1.2302
G01 X3.9004 Y-1.2378
G01 X3.8956 Y-1.2449
G01 X3.8909 Y-1.2541
G01 X3.8881 Y-1.2622
G01 X3.8864 Y-1.2706
G01 X3.8856 Y-1.2792
G01 X3.8856 Y-2.8826
G01 X3.8861 Y-2.8895
G01 X3.8873 Y-2.8962
G01 X3.8891 Y-2.9029
G01 X3.8916 Y-2.9093
G01 X3.8947 Y-2.9154
G01 X3.8984 Y-2.9212
G01 X3.9026 Y-2.9266
G01 X3.9073 Y-2.9316
G01 X3.9125 Y-2.9361
G01 X3.9182 Y-2.9400
G01 X3.9226 Y-2.9426
G01 X3.9288 Y-2.9456
G01 X3.9353 Y-2.9479
G01 X3.9419 Y-2.9496
G01 X3.9487 Y-2.9506
G01 X3.9556 Y-2.9509
G00 Z2.0000
G00 X3.4856 Y-5.0109
G01 F60.00
G01 Z-0.0746
G01 F120.00
G01 X1.9256 Y-5.0109
G01 X1.9256 Y-3.3509
G01 X2.2554 Y-3.3509
G01 X2.2605 Y-3.3507
G01 X2.2673 Y-3.3499
G01 X2.2740 Y-3.3484
G01 X2.2790 Y-3.3468
G01 X2.2853 Y-3.3442
G01 X2.2899 Y-3.3418
G01 X2.2957 Y-3.3381
G01 X2.2998 Y-3.3350
G01 X2.3036 Y-3.3316
G01 X2.3084 Y-3.3266
G01 X2.3126 Y-3.3212
G01 X2.3154 Y-3.3169
G01 X2.3179 Y-3.3124
G01 X2.3207 Y-3.3061
G01 X2.3224 Y-3.3012
G01 X2.3240 Y-3.2946
G01 X2.3250 Y-3.2878
G01 X2.3254 Y-3.2809
G01 X2.3254 Y-3.0809
G01 X2.3248 Y-3.0723
G01 X2.3237 Y-3.0656
G01 X2.3213 Y-3.0573
G01 X2.3179 Y-3.0494
G01 X2.3145 Y-3.0435
G01 X2.3106 Y-3.0378
G01 X2.3061 Y-3.0326
G01 X2.3011 Y-3.0279
G01 X2.2943 Y-3.0227
G01 X2.2853 Y-3.0176
G01 X2.2773 Y-3.0144
G01 X2.2673 Y-3.0119
G01 X2.2571 Y-3.0109
G01 X1.9256 Y-3.0109
G01 X1.9256 Y-1.1509
G01 X3.4856 Y-1.1509
G01 X3.4856 Y-3.0109
G01 X3.1558 Y-3.0109
G01 X3.1507 Y-3.0111
G01 X3.1439 Y-3.0119
G01 X3.1372 Y-3.0134
G01 X3.1322 Y-3.0150
G01 X3.1259 Y-3.0176
G01 X3.1213 Y-3.0200
G01 X3.1155 Y-3.0237
G01 X3.1114 Y-3.0268
G01 X3.1076 Y-3.0302
G01 X3.1028 Y-3.0352
G01 X3.0986 Y-3.0406
G01 X3.0958 Y-3.0449
G01 X3.0933 Y-3.0494
G01 X3.0905 Y-3.0557
G01 X3.0888 Y-3.0606
G01 X3.0872 Y-3.0672
G01 X3.0862 Y-3.0740
G01 X3.0858 Y-3.0809
G01 X3.0858 Y-3.2809
G01 X3.0864 Y-3.2895
G01 X3.0875 Y-3.2962
G01 X3.0899 Y-3.3045
G01 X3.0925 Y-3.3108
G01 X3.0958 Y-3.3169
G01 X3.0996 Y-3.3226
G01 X3.1051 Y-3.3292
G01 X3.1114 Y-3.3350
G01 X3.1169 Y-3.3391
G01 X3.1259 Y-3.3442
G01 X3.1355 Y-3.3479
G01 X3.1456 Y-3.3501
G01 X3.1541 Y-3.3509
G01 X3.4856 Y-3.3509
G01 X3.4856 Y-5.0109
G00 Z2.0000
G00 X3.6953 Y-5.9619
G01 F60.00
G01 Z-0.0746
G01 F120.00
G01 X3.6565 Y-5.9438
G01 X3.5240 Y-5.8963
G01 X3.3841 Y-5.8611
G01 X3.2397 Y-5.8396
G01 X3.0973 Y-5.8325
G01 X2.9515 Y-5.8396
G01 X2.8088 Y-5.8607
G01 X2.6689 Y-5.8958
G01 X2.5347 Y-5.9438
G01 X2.4026 Y-6.0061
G01 X2.2789 Y-6.0802
G01 X2.1630 Y-6.1662
G01 X2.0562 Y-6.2631
G01 X1.9593 Y-6.3699
G01 X1.8733 Y-6.4858
G01 X1.7992 Y-6.6095
G01 X1.7382 Y-6.7384
G01 X1.6889 Y-6.8758
G01 X1.6538 Y-7.0157
G01 X1.6327 Y-7.1584
G01 X1.6256 Y-7.3025
G01 X1.6327 Y-7.4466
G01 X1.6538 Y-7.5893
G01 X1.6889 Y-7.7292
G01 X1.7375 Y-7.8650
G01 X1.7992 Y-7.9955
G01 X1.8733 Y-8.1192
G01 X1.9593 Y-8.2351
G01 X2.0562 Y-8.3419
G01 X2.1630 Y-8.4388
G01 X2.2789 Y-8.5248
G01 X2.4026 Y-8.5989
G01 X2.5315 Y-8.6599
G01 X2.6689 Y-8.7092
G01 X2.8088 Y-8.7443
G01 X2.9515 Y-8.7654
G01 X3.0922 Y-8.7724
G01 X3.0990 Y-8.7724
G01 X3.2363 Y-8.7657
G01 X3.2431 Y-8.7650
G01 X3.3824 Y-8.7443
G01 X3.5190 Y-8.7101
G01 X3.5256 Y-8.7081
G01 X3.6581 Y-8.6606
G01 X3.7886 Y-8.5989
G01 X3.9123 Y-8.5248
G01 X4.0282 Y-8.4388
G01 X4.1350 Y-8.3419
G01 X4.2319 Y-8.2351
G01 X4.3179 Y-8.1192
G01 X4.3920 Y-7.9955
G01 X4.4523 Y-7.8682
G01 X4.4549 Y-7.8618
G01 X4.5023 Y-7.7292
G01 X4.5374 Y-7.5893
G01 X4.5585 Y-7.4466
G01 X4.5655 Y-7.3059
G01 X4.5655 Y-7.2991
G01 X4.5583 Y-7.1567
G01 X4.5374 Y-7.0157
G01 X4.5032 Y-6.8791
G01 X4.5012 Y-6.8725
G01 X4.4530 Y-6.7384
G01 X4.3920 Y-6.6095
G01 X4.3188 Y-6.4873
G01 X4.2330 Y-6.3713
G01 X4.2088 Y-6.3443
G01 X4.8605 Y-5.4697
G01 X4.8769 Y-5.4454
G01 X4.8903 Y-5.4212
G01 X4.9027 Y-5.3929
G01 X4.9119 Y-5.3652
G01 X4.9186 Y-5.3366
G01 X4.9227 Y-5.3060
G01 X4.9239 Y-5.2784
G01 X4.9239 Y-4.9509
G01 X5.2556 Y-4.9509
G01 X5.2642 Y-4.9504
G01 X5.2743 Y-4.9484
G01 X5.2824 Y-4.9456
G01 X5.2901 Y-4.9418
G01 X5.2987 Y-4.9361
G01 X5.3051 Y-4.9304
G01 X5.3118 Y-4.9226
G01 X5.3173 Y-4.9139
G01 X5.3215 Y-4.9045
G01 X5.3231 Y-4.8996
G01 X5.3246 Y-4.8929
G01 X5.3253 Y-4.8878
G01 X5.3256 Y-4.8809
G01 X5.3256 Y-3.4792
G01 X5.3248 Y-3.4706
G01 X5.3231 Y-3.4622
G01 X5.3203 Y-3.4541
G01 X5.3165 Y-3.4464
G01 X5.3118 Y-3.4392
G01 X5.3063 Y-3.4326
G01 X5.3000 Y-3.4268
G01 X5.2930 Y-3.4218
G01 X5.2840 Y-3.4169
G01 X5.2759 Y-3.4139
G01 X5.2659 Y-3.4117
G01 X5.2556 Y-3.4109
G01 X3.9539 Y-3.4109
G01 X3.9453 Y-3.4117
G01 X3.9369 Y-3.4134
G01 X3.9288 Y-3.4162
G01 X3.9211 Y-3.4200
G01 X3.9139 Y-3.4247
G01 X3.9073 Y-3.4302
G01 X3.9015 Y-3.4365
G01 X3.8965 Y-3.4435
G01 X3.8923 Y-3.4510
G01 X3.8886 Y-3.4606
G01 X3.8864 Y-3.4706
G01 X3.8856 Y-3.4809
G01 X3.8856 Y-4.8809
G01 X3.8861 Y-4.8895
G01 X3.8873 Y-4.8962
G01 X3.8903 Y-4.9061
G01 X3.8947 Y-4.9154
G01 X3.8974 Y-4.9198
G01 X3.9015 Y-4.9253
G01 X3.9086 Y-4.9328
G01 X3.9167 Y-4.9391
G01 X3.9257 Y-4.9442
G01 X3.9353 Y-4.9479
G01 X3.9453 Y-4.9501
G01 X3.9556 Y-4.9509
G01 X4.2837 Y-4.9509
G01 X4.2837 Y-5.1722
G01 X3.6953 Y-5.9619
G00 Z2.0000
G00 X4.6255 Y-7.3025
G01 F60.00
G01 Z-0.0746
G01 F120.00
G01 X4.6181 Y-7.4525
G01 X4.5961 Y-7.6010
G01 X4.5596 Y-7.7466
G01 X4.5091 Y-7.8880
G01 X4.4449 Y-8.0237
G01 X4.3677 Y-8.1525
G01 X4.2782 Y-8.2731
G01 X4.1774 Y-8.3843
G01 X4.0662 Y-8.4851
G01 X3.9456 Y-8.5746
G01 X3.8168 Y-8.6518
G01 X3.6811 Y-8.7160
G01 X3.5397 Y-8.7665
G01 X3.3941 Y-8.8030
G01 X3.2456 Y-8.8250
G01 X3.0956 Y-8.8324
G01 X2.9456 Y-8.8250
G01 X2.7971 Y-8.8030
G01 X2.6515 Y-8.7665
G01 X2.5101 Y-8.7160
G01 X2.3744 Y-8.6518
G01 X2.2456 Y-8.5746
G01 X2.1250 Y-8.4851
G01 X2.0138 Y-8.3843
G01 X1.9130 Y-8.2731
G01 X1.8235 Y-8.1525
G01 X1.7463 Y-8.0237
G01 X1.6821 Y-7.8880
G01 X1.6316 Y-7.7466
G01 X1.5951 Y-7.6010
G01 X1.5731 Y-7.4525
G01 X1.5657 Y-7.3025
G01 X1.5731 Y-7.1525
G01 X1.5951 Y-7.0040
G01 X1.6316 Y-6.8584
G01 X1.6821 Y-6.7170
G01 X1.7463 Y-6.5813
G01 X1.8235 Y-6.4525
G01 X1.9130 Y-6.3319
G01 X2.0138 Y-6.2207
G01 X2.1250 Y-6.1199
G01 X2.2456 Y-6.0304
G01 X2.3744 Y-5.9532
G01 X2.5101 Y-5.8890
G01 X2.6515 Y-5.8385
G01 X2.7971 Y-5.8020
G01 X2.9456 Y-5.7800
G01 X3.0956 Y-5.7726
G01 X3.2456 Y-5.7800
G01 X3.3941 Y-5.8020
G01 X3.5397 Y-5.8385
G01 X3.6272 Y-5.8698
G01 X3.6371 Y-5.8725
G01 X3.6473 Y-5.8738
G01 X3.6542 Y-5.8738
G01 X3.6593 Y-5.8733
G01 X3.6644 Y-5.8725
G01 X3.6710 Y-5.8709
G01 X3.6806 Y-5.8672
G01 X3.6882 Y-5.8631
G01 X3.6951 Y-5.8581
G01 X3.7014 Y-5.8522
G01 X3.7069 Y-5.8457
G01 X4.2097 Y-5.1709
G01 X4.2153 Y-5.1622
G01 X4.2182 Y-5.1560
G01 X4.2210 Y-5.1478
G01 X4.2225 Y-5.1411
G01 X4.2234 Y-5.1343
G01 X4.2236 Y-5.0792
G01 X4.2228 Y-5.0706
G01 X4.2215 Y-5.0639
G01 X4.2189 Y-5.0557
G01 X4.2161 Y-5.0494
G01 X4.2118 Y-5.0420
G01 X4.2066 Y-5.0352
G01 X4.2006 Y-5.0290
G01 X4.1939 Y-5.0237
G01 X4.1866 Y-5.0192
G01 X4.1788 Y-5.0156
G01 X4.1722 Y-5.0134
G01 X4.1672 Y-5.0122
G01 X4.1604 Y-5.0112
G01 X4.1553 Y-5.0109
G01 X3.8256 Y-5.0109
G01 X3.8256 Y-3.3509
G01 X5.3856 Y-3.3509
G01 X5.3856 Y-5.0109
G01 X5.0489 Y-5.0111
G01 X5.0421 Y-5.0119
G01 X5.0354 Y-5.0134
G01 X5.0288 Y-5.0156
G01 X5.0226 Y-5.0184
G01 X5.0166 Y-5.0218
G01 X5.0096 Y-5.0268
G01 X5.0045 Y-5.0314
G01 X4.9999 Y-5.0365
G01 X4.9940 Y-5.0449
G01 X4.9894 Y-5.0541
G01 X4.9861 Y-5.0639
G01 X4.9851 Y-5.0689
G01 X4.9842 Y-5.0758
G01 X4.9840 Y-5.2768
G01 X4.9824 Y-5.3131
G01 X4.9776 Y-5.3476
G01 X4.9697 Y-5.3814
G01 X4.9588 Y-5.4144
G01 X4.9449 Y-5.4463
G01 X4.9281 Y-5.4767
G01 X4.9077 Y-5.5069
G01 X4.3167 Y-6.3001
G01 X4.3128 Y-6.3058
G01 X4.3089 Y-6.3134
G01 X4.3059 Y-6.3215
G01 X4.3042 Y-6.3282
G01 X4.3033 Y-6.3333
G01 X4.3028 Y-6.3401
G01 X4.3029 Y-6.3453
G01 X4.3036 Y-6.3521
G01 X4.3049 Y-6.3589
G01 X4.3063 Y-6.3639
G01 X4.3088 Y-6.3703
G01 X4.3119 Y-6.3764
G01 X4.3166 Y-6.3836
G01 X4.3677 Y-6.4525
G01 X4.4449 Y-6.5813
G01 X4.5091 Y-6.7170
G01 X4.5596 Y-6.8584
G01 X4.5961 Y-7.0040
G01 X4.6181 Y-7.1525
G01 X4.6255 Y-7.3025
G00 Z2.0000
G00 X5.3093 Y-8.7141
G01 F60.00
G01 Z-0.0746
G01 F120.00
G01 X5.3093 Y-8.7741
G01 X4.9408 Y-8.7743
G01 X4.9322 Y-8.7754
G01 X4.9256 Y-8.7771
G01 X4.9191 Y-8.7794
G01 X4.9129 Y-8.7824
G01 X4.9070 Y-8.7859
G01 X4.9015 Y-8.7900
G01 X4.8964 Y-8.7946
G01 X4.8907 Y-8.8010
G01 X4.8850 Y-8.8096
G01 X4.8826 Y-8.8142
G01 X4.8800 Y-8.8205
G01 X4.8772 Y-8.8304
G01 X4.8764 Y-8.8355
G01 X4.8759 Y-8.8424
G01 X4.8759 Y-9.3574
G01 X4.8159 Y-9.3574
G01 X4.8159 Y-8.7141
G01 X5.3093 Y-8.7141
G00 Z2.0000
G00 X6.3759 Y-9.3574
G01 F60.00
G01 Z-0.0746
G01 F120.00
G01 X6.3159 Y-9.3574
G01 X6.3159 Y-8.8424
G01 X6.3154 Y-8.8355
G01 X6.3146 Y-8.8304
G01 X6.3118 Y-8.8205
G01 X6.3076 Y-8.8111
G01 X6.3050 Y-8.8067
G01 X6.3011 Y-8.8010
G01 X6.2954 Y-8.7946
G01 X6.2903 Y-8.7900
G01 X6.2848 Y-8.7859
G01 X6.2789 Y-8.7824
G01 X6.2727 Y-8.7794
G01 X6.2646 Y-8.7766
G01 X6.2579 Y-8.7751
G01 X6.2510 Y-8.7743
G01 X5.8826 Y-8.7741
G01 X5.8826 Y-8.7141
G01 X6.3759 Y-8.7141
G01 X6.3759 Y-9.3574
G00 Z2.0000
G00 X6.3759 Y-10.5741
G01 F60.00
G01 Z-0.0746
G01 F120.00
G01 X5.8826 Y-10.5741
G01 X5.8826 Y-10.5141
G01 X6.2510 Y-10.5139
G01 X6.2596 Y-10.5128
G01 X6.2679 Y-10.5106
G01 X6.2758 Y-10.5074
G01 X6.2819 Y-10.5041
G01 X6.2876 Y-10.5003
G01 X6.2942 Y-10.4948
G01 X6.2989 Y-10.4898
G01 X6.3041 Y-10.4830
G01 X6.3092 Y-10.4740
G01 X6.3129 Y-10.4644
G01 X6.3149 Y-10.4561
G01 X6.3159 Y-10.4458
G01 X6.3159 Y-9.9307
G01 X6.3759 Y-9.9307
G01 X6.3759 Y-10.5741
G00 Z2.0000
G00 X6.8459 Y-10.5141
G01 F60.00
G01 Z-0.0746
G01 F120.00
G01 X8.1459 Y-10.5141
G01 X8.1528 Y-10.5138
G01 X8.1596 Y-10.5128
G01 X8.1662 Y-10.5111
G01 X8.1743 Y-10.5081
G01 X8.1819 Y-10.5041
G01 X8.1903 Y-10.4982
G01 X8.1966 Y-10.4924
G01 X8.2031 Y-10.4844
G01 X8.2084 Y-10.4756
G01 X8.2118 Y-10.4677
G01 X8.2142 Y-10.4594
G01 X8.2157 Y-10.4492
G01 X8.2159 Y-9.9098
G01 X8.6759 Y-9.8744
G01 X8.6759 Y-10.1441
G01 X8.6762 Y-10.1510
G01 X8.6769 Y-10.1561
G01 X8.6794 Y-10.1661
G01 X8.6812 Y-10.1709
G01 X8.6842 Y-10.1771
G01 X8.6897 Y-10.1858
G01 X8.6964 Y-10.1936
G01 X8.7042 Y-10.2003
G01 X8.7099 Y-10.2041
G01 X8.7144 Y-10.2066
G01 X8.7191 Y-10.2088
G01 X8.7256 Y-10.2111
G01 X8.7356 Y-10.2133
G01 X8.7459 Y-10.2141
G01 X10.1459 Y-10.2141
G01 X10.1545 Y-10.2136
G01 X10.1629 Y-10.2120
G01 X10.1695 Y-10.2100
G01 X10.1774 Y-10.2066
G01 X10.1848 Y-10.2023
G01 X10.1929 Y-10.1960
G01 X10.2000 Y-10.1885
G01 X10.2050 Y-10.1815
G01 X10.2099 Y-10.1725
G01 X10.2129 Y-10.1644
G01 X10.2151 Y-10.1544
G01 X10.2159 Y-10.1458
G01 X10.2159 Y-8.8441
G01 X10.2154 Y-8.8355
G01 X10.2142 Y-8.8288
G01 X10.2118 Y-8.8205
G01 X10.2084 Y-8.8126
G01 X10.2041 Y-8.8052
G01 X10.1978 Y-8.7971
G01 X10.1916 Y-8.7911
G01 X10.1833 Y-8.7850
G01 X10.1743 Y-8.7801
G01 X10.1662 Y-8.7771
G01 X10.1579 Y-8.7751
G01 X10.1476 Y-8.7741
G01 X8.7459 Y-8.7741
G01 X8.7390 Y-8.7744
G01 X8.7306 Y-8.7758
G01 X8.7207 Y-8.7788
G01 X8.7114 Y-8.7832
G01 X8.7028 Y-8.7889
G01 X8.6989 Y-8.7922
G01 X8.6940 Y-8.7971
G01 X8.6877 Y-8.8052
G01 X8.6842 Y-8.8111
G01 X8.6819 Y-8.8157
G01 X8.6784 Y-8.8254
G01 X8.6764 Y-8.8355
G01 X8.6759 Y-8.8441
G01 X8.6759 Y-9.2323
G01 X8.2159 Y-9.2676
G01 X8.2159 Y-8.8424
G01 X8.2156 Y-8.8372
G01 X8.2146 Y-8.8304
G01 X8.2118 Y-8.8205
G01 X8.2092 Y-8.8142
G01 X8.2068 Y-8.8096
G01 X8.2031 Y-8.8038
G01 X8.2000 Y-8.7997
G01 X8.1954 Y-8.7946
G01 X8.1903 Y-8.7900
G01 X8.1848 Y-8.7859
G01 X8.1774 Y-8.7816
G01 X8.1711 Y-8.7788
G01 X8.1646 Y-8.7766
G01 X8.1579 Y-8.7751
G01 X8.1510 Y-8.7743
G01 X7.8123 Y-8.7741
G01 X7.8098 Y-8.1869
G01 X7.8909 Y-8.1868
G01 X7.8961 Y-8.1864
G01 X7.9028 Y-8.1852
G01 X7.9095 Y-8.1834
G01 X7.9159 Y-8.1809
G01 X7.9235 Y-8.1769
G01 X7.9319 Y-8.1710
G01 X7.9382 Y-8.1652
G01 X7.9447 Y-8.1572
G01 X7.9492 Y-8.1499
G01 X7.9534 Y-8.1405
G01 X7.9562 Y-8.1306
G01 X7.9573 Y-8.1220
G01 X7.9575 Y-7.2169
G01 X7.9570 Y-7.2083
G01 X7.9554 Y-7.1999
G01 X7.9528 Y-7.1917
G01 X7.9492 Y-7.1839
G01 X7.9447 Y-7.1766
G01 X7.9394 Y-7.1699
G01 X7.9319 Y-7.1628
G01 X7.9249 Y-7.1578
G01 X7.9159 Y-7.1529
G01 X7.9078 Y-7.1499
G01 X7.8978 Y-7.1477
G01 X7.8892 Y-7.1469
G01 X7.0875 Y-7.1469
G01 X7.0789 Y-7.1474
G01 X7.0705 Y-7.1490
G01 X7.0623 Y-7.1516
G01 X7.0560 Y-7.1544
G01 X7.0486 Y-7.1587
G01 X7.0418 Y-7.1639
G01 X7.0345 Y-7.1712
G01 X7.0293 Y-7.1780
G01 X7.0242 Y-7.1870
G01 X7.0210 Y-7.1949
G01 X7.0188 Y-7.2032
G01 X7.0176 Y-7.2135
G01 X7.0177 Y-8.1220
G01 X7.0188 Y-8.1306
G01 X7.0216 Y-8.1405
G01 X7.0258 Y-8.1499
G01 X7.0303 Y-8.1572
G01 X7.0368 Y-8.1652
G01 X7.0431 Y-8.1710
G01 X7.0515 Y-8.1769
G01 X7.0607 Y-8.1816
G01 X7.0672 Y-8.1839
G01 X7.0722 Y-8.1852
G01 X7.0789 Y-8.1864
G01 X7.0841 Y-8.1868
G01 X7.1696 Y-8.1869
G01 X7.1721 Y-8.7741
G01 X6.8459 Y-8.7741
G01 X6.8356 Y-8.7749
G01 X6.8256 Y-8.7771
G01 X6.8160 Y-8.7808
G01 X6.8114 Y-8.7832
G01 X6.8056 Y-8.7869
G01 X6.7976 Y-8.7934
G01 X6.7907 Y-8.8010
G01 X6.7850 Y-8.8096
G01 X6.7806 Y-8.8189
G01 X6.7784 Y-8.8254
G01 X6.7772 Y-8.8304
G01 X6.7762 Y-8.8372
G01 X6.7759 Y-8.8441
G01 X6.7760 Y-10.4475
G01 X6.7764 Y-10.4527
G01 X6.7776 Y-10.4594
G01 X6.7794 Y-10.4661
G01 X6.7819 Y-10.4725
G01 X6.7850 Y-10.4786
G01 X6.7887 Y-10.4844
G01 X6.7929 Y-10.4898
G01 X6.7976 Y-10.4948
G01 X6.8028 Y-10.4993
G01 X6.8085 Y-10.5032
G01 X6.8144 Y-10.5066
G01 X6.8207 Y-10.5094
G01 X6.8272 Y-10.5116
G01 X6.8322 Y-10.5128
G01 X6.8390 Y-10.5138
G01 X6.8459 Y-10.5141
G00 Z2.0000
G00 X8.2759 Y-10.5741
G01 F60.00
G01 Z-0.0746
G01 F120.00
G01 X6.7159 Y-10.5741
G01 X6.7159 Y-8.7141
G01 X7.0414 Y-8.7141
G01 X7.0466 Y-8.7139
G01 X7.0534 Y-8.7131
G01 X7.0634 Y-8.7105
G01 X7.0683 Y-8.7087
G01 X7.0745 Y-8.7058
G01 X7.0804 Y-8.7022
G01 X7.0846 Y-8.6992
G01 X7.0885 Y-8.6959
G01 X7.0934 Y-8.6910
G01 X7.0997 Y-8.6828
G01 X7.1033 Y-8.6769
G01 X7.1055 Y-8.6723
G01 X7.1074 Y-8.6675
G01 X7.1094 Y-8.6609
G01 X7.1104 Y-8.6558
G01 X7.1113 Y-8.6490
G01 X7.1100 Y-8.3149
G01 X7.1095 Y-8.3081
G01 X7.1086 Y-8.3030
G01 X7.1074 Y-8.2980
G01 X7.1053 Y-8.2915
G01 X7.1017 Y-8.2837
G01 X7.0981 Y-8.2779
G01 X7.0929 Y-8.2711
G01 X7.0869 Y-8.2649
G01 X7.0802 Y-8.2596
G01 X7.0745 Y-8.2559
G01 X7.0668 Y-8.2522
G01 X7.0603 Y-8.2499
G01 X7.0503 Y-8.2477
G01 X7.0417 Y-8.2469
G01 X6.9575 Y-8.2469
G01 X6.9575 Y-7.0869
G01 X8.0175 Y-7.0869
G01 X8.0175 Y-8.2469
G01 X7.9388 Y-8.2469
G01 X7.9285 Y-8.2479
G01 X7.9185 Y-8.2505
G01 X7.9105 Y-8.2537
G01 X7.9044 Y-8.2569
G01 X7.8973 Y-8.2618
G01 X7.8909 Y-8.2675
G01 X7.8863 Y-8.2726
G01 X7.8812 Y-8.2796
G01 X7.8779 Y-8.2856
G01 X7.8745 Y-8.2935
G01 X7.8725 Y-8.3001
G01 X7.8715 Y-8.3052
G01 X7.8707 Y-8.3120
G01 X7.8705 Y-8.3172
G01 X7.8719 Y-8.6444
G01 X7.8727 Y-8.6546
G01 X7.8740 Y-8.6614
G01 X7.8755 Y-8.6663
G01 X7.8794 Y-8.6758
G01 X7.8848 Y-8.6846
G01 X7.8879 Y-8.6886
G01 X7.8925 Y-8.6937
G01 X7.9003 Y-8.7004
G01 X7.9045 Y-8.7033
G01 X7.9105 Y-8.7067
G01 X7.9200 Y-8.7106
G01 X7.9266 Y-8.7124
G01 X7.9316 Y-8.7133
G01 X7.9419 Y-8.7141
G01 X8.2759 Y-8.7141
G01 X8.2761 Y-9.1323
G01 X8.2773 Y-9.1408
G01 X8.2800 Y-9.1508
G01 X8.2834 Y-9.1587
G01 X8.2877 Y-9.1661
G01 X8.2930 Y-9.1730
G01 X8.2990 Y-9.1791
G01 X8.3071 Y-9.1854
G01 X8.3146 Y-9.1898
G01 X8.3225 Y-9.1931
G01 X8.3307 Y-9.1955
G01 X8.3392 Y-9.1968
G01 X8.3478 Y-9.1971
G01 X8.5564 Y-9.1810
G01 X8.5631 Y-9.1796
G01 X8.5697 Y-9.1776
G01 X8.5760 Y-9.1750
G01 X8.5835 Y-9.1708
G01 X8.5891 Y-9.1669
G01 X8.5955 Y-9.1612
G01 X8.6011 Y-9.1548
G01 X8.6051 Y-9.1492
G01 X8.6092 Y-9.1416
G01 X8.6129 Y-9.1321
G01 X8.6149 Y-9.1237
G01 X8.6159 Y-9.1135
G01 X8.6159 Y-8.7141
G01 X10.2759 Y-8.7141
G01 X10.2759 Y-10.2741
G01 X8.6159 Y-10.2741
G01 X8.6158 Y-10.0114
G01 X8.6151 Y-10.0046
G01 X8.6142 Y-9.9995
G01 X8.6129 Y-9.9945
G01 X8.6106 Y-9.9880
G01 X8.6084 Y-9.9834
G01 X8.6050 Y-9.9774
G01 X8.6010 Y-9.9718
G01 X8.5977 Y-9.9678
G01 X8.5928 Y-9.9629
G01 X8.5875 Y-9.9586
G01 X8.5818 Y-9.9548
G01 X8.5757 Y-9.9515
G01 X8.5677 Y-9.9484
G01 X8.5611 Y-9.9465
G01 X8.5543 Y-9.9454
G01 X8.5474 Y-9.9449
G01 X8.5405 Y-9.9451
G01 X8.3354 Y-9.9611
G01 X8.3254 Y-9.9633
G01 X8.3205 Y-9.9650
G01 X8.3143 Y-9.9678
G01 X8.3083 Y-9.9712
G01 X8.3041 Y-9.9741
G01 X8.3001 Y-9.9773
G01 X8.2951 Y-9.9821
G01 X8.2886 Y-9.9900
G01 X8.2850 Y-9.9958
G01 X8.2826 Y-10.0004
G01 X8.2800 Y-10.0067
G01 X8.2784 Y-10.0116
G01 X8.2772 Y-10.0166
G01 X8.2762 Y-10.0234
G01 X8.2759 Y-10.0303
G01 X8.2759 Y-10.5741
G00 Z2.0000
G00 X8.3217 Y-11.8045
G01 F60.00
G01 Z-0.0746
G01 F120.00
G01 X8.2734 Y-11.7610
G01 X8.1603 Y-11.6771
G01 X8.0367 Y-11.6028
G01 X7.9047 Y-11.5403
G01 X7.7706 Y-11.4922
G01 X7.6290 Y-11.4566
G01 X7.4863 Y-11.4355
G01 X7.3422 Y-11.4284
G01 X7.1998 Y-11.4353
G01 X7.0554 Y-11.4566
G01 X6.9155 Y-11.4917
G01 X6.7797 Y-11.5403
G01 X6.6492 Y-11.6020
G01 X6.5255 Y-11.6761
G01 X6.4096 Y-11.7621
G01 X6.3028 Y-11.8590
G01 X6.2070 Y-11.9645
G01 X6.1199 Y-12.0817
G01 X6.0458 Y-12.2054
G01 X5.9841 Y-12.3359
G01 X5.9355 Y-12.4717
G01 X5.9004 Y-12.6116
G01 X5.8793 Y-12.7543
G01 X5.8722 Y-12.8984
G01 X5.8793 Y-13.0425
G01 X5.9004 Y-13.1852
G01 X5.9355 Y-13.3251
G01 X5.9841 Y-13.4609
G01 X6.0458 Y-13.5914
G01 X6.1199 Y-13.7151
G01 X6.2059 Y-13.8310
G01 X6.3028 Y-13.9378
G01 X6.4083 Y-14.0336
G01 X6.5255 Y-14.1207
G01 X6.6463 Y-14.1931
G01 X6.6523 Y-14.1964
G01 X6.7765 Y-14.2551
G01 X6.7829 Y-14.2577
G01 X6.9155 Y-14.3051
G01 X7.0554 Y-14.3402
G01 X7.1981 Y-14.3613
G01 X7.3422 Y-14.3684
G01 X7.4863 Y-14.3613
G01 X7.6290 Y-14.3402
G01 X7.7689 Y-14.3051
G01 X7.9015 Y-14.2577
G01 X7.9079 Y-14.2551
G01 X8.0321 Y-14.1964
G01 X8.0381 Y-14.1931
G01 X8.1589 Y-14.1207
G01 X8.2761 Y-14.0336
G01 X8.3816 Y-13.9378
G01 X8.4763 Y-13.8336
G01 X8.4806 Y-13.8282
G01 X8.5625 Y-13.7179
G01 X8.5663 Y-13.7122
G01 X8.6386 Y-13.5914
G01 X8.7003 Y-13.4609
G01 X8.7489 Y-13.3251
G01 X8.7832 Y-13.1885
G01 X8.7845 Y-13.1818
G01 X8.8047 Y-13.0459
G01 X8.8054 Y-13.0391
G01 X8.8122 Y-12.8984
G01 X8.8051 Y-12.7543
G01 X8.7840 Y-12.6116
G01 X8.7498 Y-12.4750
G01 X8.7478 Y-12.4684
G01 X8.7015 Y-12.3391
G01 X8.6951 Y-12.3246
G01 X8.9894 Y-12.1141
G01 X10.1476 Y-12.1141
G01 X10.1562 Y-12.1133
G01 X10.1662 Y-12.1111
G01 X10.1743 Y-12.1081
G01 X10.1819 Y-12.1041
G01 X10.1890 Y-12.0993
G01 X10.1954 Y-12.0936
G01 X10.2021 Y-12.0858
G01 X10.2068 Y-12.0786
G01 X10.2106 Y-12.0709
G01 X10.2134 Y-12.0628
G01 X10.2154 Y-12.0527
G01 X10.2159 Y-12.0441
G01 X10.2159 Y-10.7441
G01 X10.2151 Y-10.7338
G01 X10.2134 Y-10.7254
G01 X10.2106 Y-10.7173
G01 X10.2068 Y-10.7096
G01 X10.2011 Y-10.7010
G01 X10.1954 Y-10.6946
G01 X10.1890 Y-10.6889
G01 X10.1819 Y-10.6841
G01 X10.1743 Y-10.6801
G01 X10.1662 Y-10.6771
G01 X10.1579 Y-10.6751
G01 X10.1476 Y-10.6741
G01 X8.7459 Y-10.6741
G01 X8.7356 Y-10.6749
G01 X8.7272 Y-10.6766
G01 X8.7191 Y-10.6794
G01 X8.7114 Y-10.6832
G01 X8.7042 Y-10.6879
G01 X8.6976 Y-10.6934
G01 X8.6918 Y-10.6997
G01 X8.6868 Y-10.7067
G01 X8.6826 Y-10.7142
G01 X8.6794 Y-10.7221
G01 X8.6772 Y-10.7304
G01 X8.6760 Y-10.7407
G01 X8.6759 Y-11.5512
G01 X8.3217 Y-11.8045
G00 Z2.0000
G00 X8.8721 Y-12.8984
G01 F60.00
G01 Z-0.0746
G01 F120.00
G01 X8.8647 Y-13.0484
G01 X8.8427 Y-13.1969
G01 X8.8062 Y-13.3425
G01 X8.7557 Y-13.4839
G01 X8.6915 Y-13.6196
G01 X8.6143 Y-13.7484
G01 X8.5248 Y-13.8690
G01 X8.4240 Y-13.9802
G01 X8.3128 Y-14.0810
G01 X8.1922 Y-14.1705
G01 X8.0634 Y-14.2477
G01 X7.9277 Y-14.3119
G01 X7.7863 Y-14.3624
G01 X7.6407 Y-14.3989
G01 X7.4922 Y-14.4209
G01 X7.3422 Y-14.4283
G01 X7.1922 Y-14.4209
G01 X7.0437 Y-14.3989
G01 X6.8981 Y-14.3624
G01 X6.7567 Y-14.3119
G01 X6.6210 Y-14.2477
G01 X6.4922 Y-14.1705
G01 X6.3716 Y-14.0810
G01 X6.2604 Y-13.9802
G01 X6.1596 Y-13.8690
G01 X6.0701 Y-13.7484
G01 X5.9929 Y-13.6196
G01 X5.9287 Y-13.4839
G01 X5.8782 Y-13.3425
G01 X5.8417 Y-13.1969
G01 X5.8197 Y-13.0484
G01 X5.8123 Y-12.8984
G01 X5.8197 Y-12.7484
G01 X5.8417 Y-12.5999
G01 X5.8782 Y-12.4543
G01 X5.9287 Y-12.3129
G01 X5.9929 Y-12.1772
G01 X6.0701 Y-12.0484
G01 X6.1596 Y-11.9278
G01 X6.2604 Y-11.8166
G01 X6.3716 Y-11.7158
G01 X6.4922 Y-11.6263
G01 X6.6210 Y-11.5491
G01 X6.7567 Y-11.4849
G01 X6.8981 Y-11.4344
G01 X7.0437 Y-11.3979
G01 X7.1922 Y-11.3759
G01 X7.3422 Y-11.3685
G01 X7.4922 Y-11.3759
G01 X7.6407 Y-11.3979
G01 X7.7863 Y-11.4344
G01 X7.9277 Y-11.4849
G01 X8.0634 Y-11.5491
G01 X8.1922 Y-11.6263
G01 X8.2864 Y-11.6962
G01 X8.2951 Y-11.7017
G01 X8.3014 Y-11.7047
G01 X8.3062 Y-11.7065
G01 X8.3129 Y-11.7083
G01 X8.3197 Y-11.7094
G01 X8.3266 Y-11.7099
G01 X8.3318 Y-11.7099
G01 X8.3386 Y-11.7091
G01 X8.3454 Y-11.7078
G01 X8.3504 Y-11.7063
G01 X8.3568 Y-11.7038
G01 X8.3630 Y-11.7006
G01 X8.3674 Y-11.6979
G01 X8.5880 Y-11.5401
G01 X8.5969 Y-11.5322
G01 X8.6043 Y-11.5228
G01 X8.6100 Y-11.5123
G01 X8.6138 Y-11.5011
G01 X8.6154 Y-11.4927
G01 X8.6159 Y-11.4842
G01 X8.6159 Y-10.6141
G01 X10.2759 Y-10.6141
G01 X10.2759 Y-12.1741
G01 X9.0312 Y-12.1741
G01 X9.0243 Y-12.1744
G01 X9.0157 Y-12.1758
G01 X9.0074 Y-12.1783
G01 X8.9994 Y-12.1817
G01 X8.9905 Y-12.1872
G01 X8.8066 Y-12.3189
G01 X8.8028 Y-12.3223
G01 X8.7981 Y-12.3273
G01 X8.7940 Y-12.3327
G01 X8.7903 Y-12.3385
G01 X8.7873 Y-12.3446
G01 X8.7854 Y-12.3494
G01 X8.7834 Y-12.3559
G01 X8.7824 Y-12.3609
G01 X8.7815 Y-12.3694
G01 X8.7815 Y-12.3763
G01 X8.7822 Y-12.3831
G01 X8.7835 Y-12.3898
G01 X8.7855 Y-12.3963
G01 X8.8062 Y-12.4543
G01 X8.8427 Y-12.5999
G01 X8.8647 Y-12.7484
G01 X8.8721 Y-12.8984
G00 Z2.0000
G00 X4.5432 Y-14.1906
G01 F60.00
G01 Z-0.0746
G01 F120.00
G01 X4.5429 Y-14.1963
G01 X4.5413 Y-14.2042
G01 X4.5382 Y-14.2116
G01 X4.5338 Y-14.2183
G01 X4.5281 Y-14.2240
G01 X4.5214 Y-14.2284
G01 X4.5140 Y-14.2315
G01 X4.5101 Y-14.2325
G01 X4.5021 Y-14.2333
G01 X4.4941 Y-14.2325
G01 X4.4864 Y-14.2302
G01 X4.4793 Y-14.2264
G01 X4.4761 Y-14.2240
G01 X4.4704 Y-14.2183
G01 X4.4660 Y-14.2116
G01 X4.4629 Y-14.2042
G01 X4.4613 Y-14.1963
G01 X4.4610 Y-14.1906
G01 X4.4609 Y-13.8537
G01 X4.4597 Y-13.8452
G01 X4.4580 Y-13.8385
G01 X4.4557 Y-13.8321
G01 X4.4520 Y-13.8244
G01 X4.4483 Y-13.8185
G01 X4.4429 Y-13.8118
G01 X4.4368 Y-13.8059
G01 X4.4314 Y-13.8016
G01 X4.4225 Y-13.7963
G01 X4.4130 Y-13.7924
G01 X4.4030 Y-13.7899
G01 X4.3928 Y-13.7889
G01 X3.9705 Y-13.7889
G01 X3.9648 Y-13.7886
G01 X3.9569 Y-13.7870
G01 X3.9495 Y-13.7839
G01 X3.9428 Y-13.7795
G01 X3.9371 Y-13.7738
G01 X3.9327 Y-13.7671
G01 X3.9296 Y-13.7597
G01 X3.9286 Y-13.7558
G01 X3.9278 Y-13.7478
G01 X3.9286 Y-13.7398
G01 X3.9309 Y-13.7321
G01 X3.9347 Y-13.7250
G01 X3.9398 Y-13.7188
G01 X3.9460 Y-13.7137
G01 X3.9531 Y-13.7099
G01 X3.9608 Y-13.7076
G01 X3.9648 Y-13.7070
G01 X3.9705 Y-13.7067
G01 X4.3928 Y-13.7067
G01 X4.3996 Y-13.7062
G01 X4.4047 Y-13.7054
G01 X4.4114 Y-13.7037
G01 X4.4162 Y-13.7021
G01 X4.4225 Y-13.6993
G01 X4.4270 Y-13.6968
G01 X4.4314 Y-13.6940
G01 X4.4368 Y-13.6897
G01 X4.4417 Y-13.6850
G01 X4.4462 Y-13.6798
G01 X4.4502 Y-13.6742
G01 X4.4536 Y-13.6682
G01 X4.4564 Y-13.6619
G01 X4.4585 Y-13.6554
G01 X4.4600 Y-13.6487
G01 X4.4609 Y-13.6419
G01 X4.4610 Y-13.3051
G01 X4.4619 Y-13.2954
G01 X4.4642 Y-13.2877
G01 X4.4680 Y-13.2806
G01 X4.4731 Y-13.2744
G01 X4.4761 Y-13.2717
G01 X4.4828 Y-13.2673
G01 X4.4902 Y-13.2642
G01 X4.4941 Y-13.2632
G01 X4.5021 Y-13.2624
G01 X4.5101 Y-13.2632
G01 X4.5178 Y-13.2655
G01 X4.5214 Y-13.2673
G01 X4.5281 Y-13.2717
G01 X4.5338 Y-13.2774
G01 X4.5382 Y-13.2841
G01 X4.5413 Y-13.2915
G01 X4.5423 Y-13.2954
G01 X4.5432 Y-13.3051
G01 X4.5433 Y-13.6419
G01 X4.5442 Y-13.6487
G01 X4.5457 Y-13.6554
G01 X4.5478 Y-13.6619
G01 X4.5506 Y-13.6682
G01 X4.5540 Y-13.6742
G01 X4.5580 Y-13.6798
G01 X4.5625 Y-13.6850
G01 X4.5674 Y-13.6897
G01 X4.5715 Y-13.6930
G01 X4.5772 Y-13.6968
G01 X4.5832 Y-13.7000
G01 X4.5880 Y-13.7021
G01 X4.5928 Y-13.7037
G01 X4.5995 Y-13.7054
G01 X4.6046 Y-13.7062
G01 X4.6114 Y-13.7067
G01 X5.0337 Y-13.7067
G01 X5.0394 Y-13.7070
G01 X5.0473 Y-13.7086
G01 X5.0547 Y-13.7117
G01 X5.0614 Y-13.7161
G01 X5.0671 Y-13.7218
G01 X5.0695 Y-13.7250
G01 X5.0733 Y-13.7321
G01 X5.0756 Y-13.7398
G01 X5.0764 Y-13.7478
G01 X5.0756 Y-13.7558
G01 X5.0733 Y-13.7635
G01 X5.0695 Y-13.7706
G01 X5.0644 Y-13.7768
G01 X5.0582 Y-13.7819
G01 X5.0511 Y-13.7857
G01 X5.0434 Y-13.7880
G01 X5.0394 Y-13.7886
G01 X5.0337 Y-13.7889
G01 X4.6114 Y-13.7889
G01 X4.6063 Y-13.7892
G01 X4.5995 Y-13.7902
G01 X4.5928 Y-13.7919
G01 X4.5880 Y-13.7935
G01 X4.5832 Y-13.7956
G01 X4.5772 Y-13.7988
G01 X4.5687 Y-13.8047
G01 X4.5637 Y-13.8094
G01 X4.5590 Y-13.8144
G01 X4.5550 Y-13.8200
G01 X4.5514 Y-13.8259
G01 X4.5485 Y-13.8321
G01 X4.5457 Y-13.8402
G01 X4.5442 Y-13.8469
G01 X4.5433 Y-13.8537
G01 X4.5432 Y-14.1906
G00 Z2.0000
G00 X4.8159 Y-9.9307
G01 F60.00
G01 Z-0.0746
G01 F120.00
G01 X4.8759 Y-9.9307
G01 X4.8759 Y-10.4458
G01 X4.8762 Y-10.4510
G01 X4.8772 Y-10.4578
G01 X4.8800 Y-10.4677
G01 X4.8826 Y-10.4740
G01 X4.8850 Y-10.4786
G01 X4.8907 Y-10.4872
G01 X4.8952 Y-10.4924
G01 X4.9015 Y-10.4982
G01 X4.9070 Y-10.5023
G01 X4.9129 Y-10.5058
G01 X4.9207 Y-10.5094
G01 X4.9272 Y-10.5116
G01 X4.9339 Y-10.5131
G01 X4.9408 Y-10.5139
G01 X5.3093 Y-10.5141
G01 X5.3093 Y-10.5741
G01 X4.8159 Y-10.5741
G01 X4.8159 Y-9.9307
G00 Z2.0000
G00 X1.0309 Y-9.6269
G01 F60.00
G01 Z-0.0746
G01 F120.00
G01 X1.4137 Y-9.6269
G01 X1.4206 Y-9.6266
G01 X1.4274 Y-9.6256
G01 X1.4324 Y-9.6244
G01 X1.4389 Y-9.6222
G01 X1.4437 Y-9.6202
G01 X1.4498 Y-9.6170
G01 X1.6076 Y-9.5222
G01 X1.6146 Y-9.5171
G01 X1.6208 Y-9.5113
G01 X1.6264 Y-9.5047
G01 X1.6310 Y-9.4975
G01 X1.6348 Y-9.4898
G01 X1.6376 Y-9.4817
G01 X1.6868 Y-9.2850
G01 X1.6884 Y-9.2766
G01 X1.6889 Y-9.2680
G01 X1.6884 Y-9.2594
G01 X1.6868 Y-9.2510
G01 X1.6376 Y-9.0542
G01 X1.6341 Y-9.0445
G01 X1.6302 Y-9.0369
G01 X1.6253 Y-9.0298
G01 X1.6184 Y-9.0222
G01 X1.6132 Y-9.0177
G01 X1.6061 Y-9.0128
G01 X1.4483 Y-8.9182
G01 X1.4405 Y-8.9144
G01 X1.4324 Y-8.9116
G01 X1.4240 Y-8.9098
G01 X1.4137 Y-8.9091
G01 X1.0309 Y-8.9091
G01 X1.0240 Y-8.9094
G01 X1.0172 Y-8.9104
G01 X1.0122 Y-8.9116
G01 X1.0056 Y-8.9138
G01 X0.9994 Y-8.9165
G01 X0.9948 Y-8.9190
G01 X0.8430 Y-9.0101
G01 X0.8359 Y-9.0150
G01 X0.8294 Y-9.0208
G01 X0.8226 Y-9.0286
G01 X0.8171 Y-9.0374
G01 X0.8136 Y-9.0453
G01 X0.8106 Y-9.0552
G01 X0.7769 Y-9.2565
G01 X0.7760 Y-9.2653
G01 X0.7761 Y-9.2724
G01 X0.7769 Y-9.2795
G01 X0.8100 Y-9.4773
G01 X0.8124 Y-9.4874
G01 X0.8149 Y-9.4938
G01 X0.8171 Y-9.4985
G01 X0.8197 Y-9.5030
G01 X0.8237 Y-9.5087
G01 X0.8282 Y-9.5139
G01 X0.8319 Y-9.5175
G01 X0.8372 Y-9.5219
G01 X0.8415 Y-9.5249
G01 X0.9978 Y-9.6187
G01 X1.0057 Y-9.6222
G01 X1.0138 Y-9.6248
G01 X1.0223 Y-9.6264
G01 X1.0309 Y-9.6269
G00 Z2.0000
G00 X0.9784 Y-9.7028
G01 F60.00
G01 Z-0.0746
G01 F120.00
G01 X0.7582 Y-9.5707
G01 X0.7505 Y-9.5651
G01 X0.7452 Y-9.5593
G01 X0.7411 Y-9.5526
G01 X0.7383 Y-9.5452
G01 X0.7371 Y-9.5397
G01 X0.6932 Y-9.2767
G01 X0.6925 Y-9.2703
G01 X0.6925 Y-9.2657
G01 X0.6932 Y-9.2593
G01 X0.7371 Y-8.9962
G01 X0.7383 Y-8.9907
G01 X0.7411 Y-8.9833
G01 X0.7430 Y-8.9799
G01 X0.7477 Y-8.9736
G01 X0.7535 Y-8.9683
G01 X0.7582 Y-8.9652
G01 X0.9776 Y-8.8336
G01 X0.9823 Y-8.8311
G01 X0.9892 Y-8.8285
G01 X0.9964 Y-8.8272
G01 X1.0017 Y-8.8269
G01 X1.4429 Y-8.8269
G01 X1.4518 Y-8.8277
G01 X1.4589 Y-8.8296
G01 X1.4670 Y-8.8336
G01 X1.6863 Y-8.9652
G01 X1.6942 Y-8.9710
G01 X1.6971 Y-8.9738
G01 X1.7019 Y-8.9802
G01 X1.7053 Y-8.9875
G01 X1.7069 Y-8.9930
G01 X1.7728 Y-9.2564
G01 X1.7743 Y-9.2660
G01 X1.7739 Y-9.2740
G01 X1.7728 Y-9.2796
G01 X1.7069 Y-9.5429
G01 X1.7037 Y-9.5521
G01 X1.6996 Y-9.5590
G01 X1.6971 Y-9.5621
G01 X1.6911 Y-9.5675
G01 X1.6864 Y-9.5707
G01 X1.4670 Y-9.7024
G01 X1.4590 Y-9.7064
G01 X1.4518 Y-9.7083
G01 X1.4429 Y-9.7091
G01 X1.0018 Y-9.7091
G01 X0.9961 Y-9.7088
G01 X0.9901 Y-9.7077
G01 X0.9844 Y-9.7059
G01 X0.9784 Y-9.7028
G00 Z2.0000
G00 X0.7107 Y-10.9228
G01 F60.00
G01 Z-0.0746
G01 F120.00
G01 X0.7186 Y-10.9171
G01 X0.7250 Y-10.9112
G01 X0.7305 Y-10.9046
G01 X0.7360 Y-10.8958
G01 X0.7396 Y-10.8879
G01 X0.7426 Y-10.8780
G01 X0.7440 Y-10.8677
G01 X0.7441 Y-10.8591
G01 X0.7436 Y-10.8539
G01 X0.7423 Y-10.8471
G01 X0.7383 Y-10.8341
G01 X0.7371 Y-10.8286
G01 X0.6932 Y-10.5656
G01 X0.6925 Y-10.5592
G01 X0.6925 Y-10.5546
G01 X0.6932 Y-10.5482
G01 X0.7371 Y-10.2851
G01 X0.7395 Y-10.2759
G01 X0.7429 Y-10.2689
G01 X0.7476 Y-10.2627
G01 X0.7546 Y-10.2564
G01 X0.9297 Y-10.1250
G01 X0.9341 Y-10.1220
G01 X0.9409 Y-10.1187
G01 X0.9481 Y-10.1166
G01 X0.9518 Y-10.1161
G01 X1.7317 Y-10.1158
G01 X1.7414 Y-10.1167
G01 X1.7491 Y-10.1190
G01 X1.7562 Y-10.1228
G01 X1.7594 Y-10.1252
G01 X1.7651 Y-10.1309
G01 X1.7695 Y-10.1376
G01 X1.7713 Y-10.1412
G01 X1.7736 Y-10.1489
G01 X1.7742 Y-10.1529
G01 X1.7742 Y-10.1609
G01 X1.7726 Y-10.1688
G01 X1.7713 Y-10.1726
G01 X1.7675 Y-10.1797
G01 X1.7651 Y-10.1829
G01 X1.7594 Y-10.1886
G01 X1.7562 Y-10.1910
G01 X1.7527 Y-10.1930
G01 X1.7453 Y-10.1961
G01 X1.7374 Y-10.1977
G01 X1.7317 Y-10.1980
G01 X0.9926 Y-10.1980
G01 X0.9857 Y-10.1983
G01 X0.9789 Y-10.1993
G01 X0.9721 Y-10.2010
G01 X0.9656 Y-10.2034
G01 X0.9594 Y-10.2064
G01 X0.9520 Y-10.2109
G01 X0.8368 Y-10.2974
G01 X0.8316 Y-10.3019
G01 X0.8258 Y-10.3083
G01 X0.8217 Y-10.3138
G01 X0.8182 Y-10.3197
G01 X0.8160 Y-10.3244
G01 X0.8135 Y-10.3308
G01 X0.8111 Y-10.3408
G01 X0.7769 Y-10.5454
G01 X0.7760 Y-10.5560
G01 X0.7761 Y-10.5613
G01 X0.7769 Y-10.5684
G01 X0.8111 Y-10.7729
G01 X0.8125 Y-10.7796
G01 X0.8141 Y-10.7845
G01 X0.8182 Y-10.7940
G01 X0.8217 Y-10.7999
G01 X0.8268 Y-10.8068
G01 X0.8316 Y-10.8118
G01 X0.8367 Y-10.8163
G01 X0.9506 Y-10.9018
G01 X0.9564 Y-10.9057
G01 X0.9640 Y-10.9097
G01 X0.9705 Y-10.9122
G01 X0.9789 Y-10.9145
G01 X0.9857 Y-10.9155
G01 X0.9926 Y-10.9158
G01 X1.7317 Y-10.9158
G01 X1.7374 Y-10.9161
G01 X1.7453 Y-10.9177
G01 X1.7491 Y-10.9190
G01 X1.7527 Y-10.9208
G01 X1.7594 Y-10.9252
G01 X1.7651 Y-10.9309
G01 X1.7675 Y-10.9341
G01 X1.7713 Y-10.9412
G01 X1.7726 Y-10.9450
G01 X1.7736 Y-10.9489
G01 X1.7744 Y-10.9569
G01 X1.7742 Y-10.9609
G01 X1.7726 Y-10.9688
G01 X1.7713 Y-10.9726
G01 X1.7675 Y-10.9797
G01 X1.7624 Y-10.9859
G01 X1.7594 Y-10.9886
G01 X1.7527 Y-10.9930
G01 X1.7453 Y-10.9961
G01 X1.7374 Y-10.9977
G01 X1.7317 Y-10.9980
G01 X0.7351 Y-10.9980
G01 X0.7294 Y-10.9977
G01 X0.7254 Y-10.9971
G01 X0.7177 Y-10.9948
G01 X0.7141 Y-10.9930
G01 X0.7074 Y-10.9886
G01 X0.7017 Y-10.9829
G01 X0.6973 Y-10.9762
G01 X0.6942 Y-10.9688
G01 X0.6932 Y-10.9649
G01 X0.6924 Y-10.9569
G01 X0.6926 Y-10.9529
G01 X0.6932 Y-10.9489
G01 X0.6955 Y-10.9412
G01 X0.6993 Y-10.9341
G01 X0.7017 Y-10.9309
G01 X0.7074 Y-10.9252
G01 X0.7107 Y-10.9228
G00 Z2.0000
G00 X0.8427 Y-11.7787
G01 F60.00
G01 Z-0.0746
G01 F120.00
G01 X0.8045 Y-11.8245
G01 X0.7994 Y-11.8315
G01 X0.7952 Y-11.8391
G01 X0.7925 Y-11.8455
G01 X0.7901 Y-11.8538
G01 X0.7889 Y-11.8607
G01 X0.7884 Y-11.8676
G01 X0.7885 Y-11.8745
G01 X0.7894 Y-11.8814
G01 X0.7905 Y-11.8865
G01 X0.8163 Y-11.9645
G01 X0.8178 Y-11.9700
G01 X0.8189 Y-11.9780
G01 X0.8183 Y-11.9860
G01 X0.8174 Y-11.9899
G01 X0.8146 Y-11.9974
G01 X0.8103 Y-12.0042
G01 X0.8048 Y-12.0100
G01 X0.7982 Y-12.0147
G01 X0.7909 Y-12.0180
G01 X0.7830 Y-12.0197
G01 X0.7750 Y-12.0200
G01 X0.7671 Y-12.0186
G01 X0.7596 Y-12.0158
G01 X0.7528 Y-12.0115
G01 X0.7497 Y-12.0089
G01 X0.7445 Y-12.0028
G01 X0.7405 Y-11.9958
G01 X0.7384 Y-11.9905
G01 X0.6950 Y-11.8605
G01 X0.6927 Y-11.8507
G01 X0.6924 Y-11.8465
G01 X0.6931 Y-11.8382
G01 X0.6941 Y-11.8342
G01 X0.6973 Y-11.8265
G01 X0.7030 Y-11.8182
G01 X0.8119 Y-11.6874
G01 X0.8157 Y-11.6832
G01 X0.8219 Y-11.6782
G01 X0.8253 Y-11.6762
G01 X0.8327 Y-11.6732
G01 X0.8405 Y-11.6716
G01 X0.8462 Y-11.6713
G01 X1.6223 Y-11.6713
G01 X1.6326 Y-11.6706
G01 X1.6427 Y-11.6683
G01 X1.6507 Y-11.6653
G01 X1.6583 Y-11.6614
G01 X1.6640 Y-11.6576
G01 X1.6706 Y-11.6520
G01 X1.6765 Y-11.6458
G01 X1.6815 Y-11.6388
G01 X1.6856 Y-11.6313
G01 X1.6883 Y-11.6249
G01 X1.6910 Y-11.6150
G01 X1.6920 Y-11.6082
G01 X1.6923 Y-11.6031
G01 X1.6923 Y-11.4475
G01 X1.6932 Y-11.4378
G01 X1.6942 Y-11.4339
G01 X1.6973 Y-11.4265
G01 X1.7017 Y-11.4198
G01 X1.7074 Y-11.4141
G01 X1.7106 Y-11.4117
G01 X1.7177 Y-11.4079
G01 X1.7254 Y-11.4056
G01 X1.7334 Y-11.4048
G01 X1.7374 Y-11.4050
G01 X1.7453 Y-11.4066
G01 X1.7527 Y-11.4097
G01 X1.7594 Y-11.4141
G01 X1.7624 Y-11.4168
G01 X1.7675 Y-11.4230
G01 X1.7713 Y-11.4301
G01 X1.7726 Y-11.4339
G01 X1.7742 Y-11.4418
G01 X1.7745 Y-11.4475
G01 X1.7745 Y-11.6013
G01 X1.7748 Y-11.6082
G01 X1.7758 Y-11.6150
G01 X1.7780 Y-11.6233
G01 X1.7812 Y-11.6313
G01 X1.7853 Y-11.6388
G01 X1.7903 Y-11.6458
G01 X1.7974 Y-11.6532
G01 X1.8041 Y-11.6586
G01 X1.8115 Y-11.6631
G01 X1.8193 Y-11.6667
G01 X1.8258 Y-11.6688
G01 X1.8325 Y-11.6703
G01 X1.8376 Y-11.6710
G01 X1.8445 Y-11.6713
G01 X2.5095 Y-11.6713
G01 X2.5152 Y-11.6716
G01 X2.5231 Y-11.6732
G01 X2.5305 Y-11.6763
G01 X2.5372 Y-11.6807
G01 X2.5429 Y-11.6864
G01 X2.5473 Y-11.6931
G01 X2.5504 Y-11.7005
G01 X2.5514 Y-11.7044
G01 X2.5522 Y-11.7124
G01 X2.5514 Y-11.7204
G01 X2.5491 Y-11.7281
G01 X2.5453 Y-11.7352
G01 X2.5402 Y-11.7414
G01 X2.5340 Y-11.7465
G01 X2.5269 Y-11.7503
G01 X2.5192 Y-11.7526
G01 X2.5152 Y-11.7532
G01 X2.5095 Y-11.7535
G01 X1.8445 Y-11.7535
G01 X1.8376 Y-11.7538
G01 X1.8308 Y-11.7548
G01 X1.8258 Y-11.7560
G01 X1.8193 Y-11.7581
G01 X1.8115 Y-11.7617
G01 X1.8028 Y-11.7672
G01 X1.7962 Y-11.7728
G01 X1.7903 Y-11.7790
G01 X1.7853 Y-11.7860
G01 X1.7812 Y-11.7935
G01 X1.7780 Y-11.8015
G01 X1.7758 Y-11.8098
G01 X1.7748 Y-11.8166
G01 X1.7745 Y-11.8235
G01 X1.7745 Y-11.9774
G01 X1.7742 Y-11.9831
G01 X1.7726 Y-11.9910
G01 X1.7713 Y-11.9948
G01 X1.7675 Y-12.0019
G01 X1.7624 Y-12.0081
G01 X1.7594 Y-12.0108
G01 X1.7562 Y-12.0132
G01 X1.7491 Y-12.0170
G01 X1.7414 Y-12.0193
G01 X1.7334 Y-12.0201
G01 X1.7294 Y-12.0199
G01 X1.7215 Y-12.0183
G01 X1.7141 Y-12.0152
G01 X1.7074 Y-12.0108
G01 X1.7044 Y-12.0081
G01 X1.6993 Y-12.0019
G01 X1.6955 Y-11.9948
G01 X1.6932 Y-11.9871
G01 X1.6923 Y-11.9774
G01 X1.6923 Y-11.8217
G01 X1.6918 Y-11.8149
G01 X1.6910 Y-11.8098
G01 X1.6883 Y-11.7999
G01 X1.6849 Y-11.7920
G01 X1.6805 Y-11.7846
G01 X1.6753 Y-11.7777
G01 X1.6694 Y-11.7716
G01 X1.6627 Y-11.7662
G01 X1.6568 Y-11.7625
G01 X1.6491 Y-11.7588
G01 X1.6410 Y-11.7560
G01 X1.6326 Y-11.7542
G01 X1.6223 Y-11.7535
G01 X0.8948 Y-11.7535
G01 X0.8880 Y-11.7540
G01 X0.8797 Y-11.7555
G01 X0.8731 Y-11.7575
G01 X0.8668 Y-11.7601
G01 X0.8594 Y-11.7641
G01 X0.8538 Y-11.7680
G01 X0.8474 Y-11.7736
G01 X0.8427 Y-11.7787
G00 Z2.0000
G00 X2.0556 Y-4.9509
G01 F60.00
G01 Z-0.0746
G01 F120.00
G01 X3.3573 Y-4.9509
G01 X3.3676 Y-4.9499
G01 X3.3776 Y-4.9474
G01 X3.3871 Y-4.9434
G01 X3.3930 Y-4.9400
G01 X3.3973 Y-4.9371
G01 X3.4051 Y-4.9304
G01 X3.4118 Y-4.9226
G01 X3.4173 Y-4.9139
G01 X3.4215 Y-4.9045
G01 X3.4231 Y-4.8996
G01 X3.4246 Y-4.8929
G01 X3.4254 Y-4.8860
G01 X3.4256 Y-4.8809
G01 X3.4256 Y-3.4809
G01 X3.4251 Y-3.4723
G01 X3.4231 Y-3.4622
G01 X3.4196 Y-3.4525
G01 X3.4147 Y-3.4435
G01 X3.4086 Y-3.4352
G01 X3.4013 Y-3.4279
G01 X3.3930 Y-3.4218
G01 X3.3840 Y-3.4169
G01 X3.3743 Y-3.4134
G01 X3.3642 Y-3.4114
G01 X3.3556 Y-3.4109
G01 X3.0257 Y-3.4109
G01 X3.0257 Y-2.9509
G01 X3.3556 Y-2.9509
G01 X3.3659 Y-2.9501
G01 X3.3759 Y-2.9479
G01 X3.3855 Y-2.9442
G01 X3.3916 Y-2.9409
G01 X3.3959 Y-2.9381
G01 X3.4039 Y-2.9316
G01 X3.4108 Y-2.9240
G01 X3.4147 Y-2.9183
G01 X3.4173 Y-2.9139
G01 X3.4196 Y-2.9093
G01 X3.4221 Y-2.9029
G01 X3.4246 Y-2.8929
G01 X3.4254 Y-2.8860
G01 X3.4256 Y-2.8809
G01 X3.4256 Y-1.2792
G01 X3.4246 Y-1.2689
G01 X3.4221 Y-1.2589
G01 X3.4181 Y-1.2494
G01 X3.4128 Y-1.2406
G01 X3.4063 Y-1.2326
G01 X3.4026 Y-1.2290
G01 X3.3973 Y-1.2247
G01 X3.3886 Y-1.2192
G01 X3.3792 Y-1.2150
G01 X3.3726 Y-1.2130
G01 X3.3676 Y-1.2119
G01 X3.3625 Y-1.2112
G01 X3.3556 Y-1.2109
G01 X2.0539 Y-1.2109
G01 X2.0436 Y-1.2119
G01 X2.0336 Y-1.2144
G01 X2.0241 Y-1.2184
G01 X2.0153 Y-1.2237
G01 X2.0073 Y-1.2302
G01 X2.0004 Y-1.2378
G01 X1.9947 Y-1.2464
G01 X1.9923 Y-1.2510
G01 X1.9897 Y-1.2573
G01 X1.9877 Y-1.2639
G01 X1.9866 Y-1.2689
G01 X1.9858 Y-1.2758
G01 X1.9856 Y-1.2809
G01 X1.9856 Y-2.8809
G01 X1.9859 Y-2.8878
G01 X1.9873 Y-2.8962
G01 X1.9891 Y-2.9029
G01 X1.9909 Y-2.9077
G01 X1.9956 Y-2.9169
G01 X2.0015 Y-2.9253
G01 X2.0086 Y-2.9328
G01 X2.0167 Y-2.9391
G01 X2.0257 Y-2.9442
G01 X2.0353 Y-2.9479
G01 X2.0453 Y-2.9501
G01 X2.0556 Y-2.9509
G01 X2.3855 Y-2.9509
G01 X2.3855 Y-3.4109
G01 X2.0556 Y-3.4109
G01 X2.0453 Y-3.4117
G01 X2.0353 Y-3.4139
G01 X2.0288 Y-3.4162
G01 X2.0241 Y-3.4184
G01 X2.0153 Y-3.4237
G01 X2.0099 Y-3.4279
G01 X2.0061 Y-3.4314
G01 X1.9994 Y-3.4392
G01 X1.9939 Y-3.4479
G01 X1.9897 Y-3.4573
G01 X1.9877 Y-3.4639
G01 X1.9866 Y-3.4689
G01 X1.9859 Y-3.4740
G01 X1.9856 Y-3.4809
G01 X1.9857 Y-4.8843
G01 X1.9864 Y-4.8912
G01 X1.9877 Y-4.8979
G01 X1.9897 Y-4.9045
G01 X1.9923 Y-4.9108
G01 X1.9947 Y-4.9154
G01 X1.9984 Y-4.9212
G01 X2.0026 Y-4.9266
G01 X2.0073 Y-4.9316
G01 X2.0125 Y-4.9361
G01 X2.0182 Y-4.9400
G01 X2.0241 Y-4.9434
G01 X2.0304 Y-4.9462
G01 X2.0369 Y-4.9484
G01 X2.0436 Y-4.9499
G01 X2.0487 Y-4.9506
G01 X2.0556 Y-4.9509
G00 Z2.0000
G00 X6.9126 Y-4.3336
G01 F60.00
G01 Z-0.0746
G01 F120.00
G01 X6.9126 Y-4.3131
G01 X6.9133 Y-4.3240
G01 X6.9145 Y-4.3334
G01 X6.9126 Y-4.3336
G00 Z2.0000
G00 X6.9126 Y-3.4005
G01 F60.00
G01 Z-0.0746
G01 F120.00
G01 X6.9126 Y-3.3800
G01 X6.9145 Y-3.3802
G01 X6.9133 Y-3.3896
G01 X6.9126 Y-3.4005
G00 Z2.0000
G00 X7.2842 Y-3.2768
G01 F60.00
G01 Z-0.0746
G01 F120.00
G01 X7.2842 Y-3.3368
G01 X7.0875 Y-3.3368
G01 X7.0789 Y-3.3373
G01 X7.0705 Y-3.3389
G01 X7.0655 Y-3.3403
G01 X7.0591 Y-3.3428
G01 X7.0501 Y-3.3477
G01 X7.0458 Y-3.3506
G01 X7.0405 Y-3.3549
G01 X7.0368 Y-3.3585
G01 X7.0323 Y-3.3637
G01 X7.0293 Y-3.3679
G01 X7.0258 Y-3.3738
G01 X7.0235 Y-3.3784
G01 X7.0210 Y-3.3848
G01 X7.0192 Y-3.3915
G01 X7.0183 Y-3.3965
G01 X7.0175 Y-3.4068
G01 X7.0175 Y-4.3068
G01 X7.0180 Y-4.3154
G01 X7.0196 Y-4.3238
G01 X7.0228 Y-4.3336
G01 X7.0266 Y-4.3413
G01 X7.0323 Y-4.3499
G01 X7.0392 Y-4.3575
G01 X7.0472 Y-4.3640
G01 X7.0545 Y-4.3685
G01 X7.0639 Y-4.3727
G01 X7.0738 Y-4.3755
G01 X7.0806 Y-4.3765
G01 X7.0875 Y-4.3768
G01 X7.2841 Y-4.3768
G01 X7.2841 Y-4.4368
G01 X6.9377 Y-4.4368
G01 X6.9275 Y-4.4376
G01 X6.9174 Y-4.4398
G01 X6.9109 Y-4.4421
G01 X6.9063 Y-4.4443
G01 X6.9003 Y-4.4477
G01 X6.8960 Y-4.4506
G01 X6.8907 Y-4.4549
G01 X6.8870 Y-4.4585
G01 X6.8825 Y-4.4637
G01 X6.8795 Y-4.4679
G01 X6.8760 Y-4.4738
G01 X6.8737 Y-4.4784
G01 X6.8703 Y-4.4881
G01 X6.8691 Y-4.4931
G01 X6.8681 Y-4.4999
G01 X6.8677 Y-4.5068
G01 X6.8677 Y-5.0169
G01 X6.8683 Y-5.0255
G01 X6.8698 Y-5.0339
G01 X6.8724 Y-5.0421
G01 X6.8760 Y-5.0499
G01 X6.8805 Y-5.0572
G01 X6.8859 Y-5.0639
G01 X6.8920 Y-5.0699
G01 X6.8988 Y-5.0751
G01 X6.9063 Y-5.0794
G01 X6.9141 Y-5.0828
G01 X6.9241 Y-5.0856
G01 X6.9343 Y-5.0868
G01 X7.0175 Y-5.0869
G01 X7.0175 Y-6.2469
G01 X5.9575 Y-6.2469
G01 X5.9575 Y-5.0869
G01 X6.0407 Y-5.0868
G01 X6.0458 Y-5.0864
G01 X6.0526 Y-5.0852
G01 X6.0592 Y-5.0834
G01 X6.0656 Y-5.0809
G01 X6.0747 Y-5.0760
G01 X6.0817 Y-5.0710
G01 X6.0891 Y-5.0639
G01 X6.0955 Y-5.0558
G01 X6.0998 Y-5.0484
G01 X6.1037 Y-5.0389
G01 X6.1059 Y-5.0306
G01 X6.1072 Y-5.0203
G01 X6.1073 Y-2.5069
G01 X6.1069 Y-2.5000
G01 X6.1059 Y-2.4932
G01 X6.1043 Y-2.4866
G01 X6.1019 Y-2.4801
G01 X6.0982 Y-2.4724
G01 X6.0945 Y-2.4666
G01 X6.0903 Y-2.4612
G01 X6.0843 Y-2.4550
G01 X6.0776 Y-2.4497
G01 X6.0718 Y-2.4460
G01 X6.0656 Y-2.4429
G01 X6.0576 Y-2.4399
G01 X6.0475 Y-2.4377
G01 X6.0390 Y-2.4369
G01 X5.9575 Y-2.4369
G01 X5.9575 Y-2.3889
G01 X5.9572 Y-2.3820
G01 X5.9565 Y-2.3769
G01 X5.9549 Y-2.3702
G01 X5.9528 Y-2.3636
G01 X5.9500 Y-2.3573
G01 X5.9456 Y-2.3499
G01 X5.9404 Y-2.3430
G01 X5.9343 Y-2.3369
G01 X5.9276 Y-2.3315
G01 X5.9202 Y-2.3270
G01 X5.9140 Y-2.3241
G01 X5.9058 Y-2.3214
G01 X5.8974 Y-2.3196
G01 X5.8871 Y-2.3189
G01 X5.8785 Y-2.3195
G01 X5.4449 Y-2.3759
G01 X5.4365 Y-2.3777
G01 X5.4285 Y-2.3805
G01 X5.4208 Y-2.3843
G01 X5.4137 Y-2.3890
G01 X5.4071 Y-2.3945
G01 X5.4024 Y-2.3995
G01 X5.3973 Y-2.4063
G01 X5.3938 Y-2.4122
G01 X5.3902 Y-2.4200
G01 X5.3881 Y-2.4265
G01 X5.3866 Y-2.4331
G01 X5.3857 Y-2.4416
G01 X5.3856 Y-3.0109
G01 X3.8256 Y-3.0109
G01 X3.8256 Y-1.1509
G01 X5.3856 Y-1.1509
G01 X5.3856 Y-1.5370
G01 X5.3864 Y-1.5473
G01 X5.3873 Y-1.5524
G01 X5.3892 Y-1.5591
G01 X5.3917 Y-1.5655
G01 X5.3939 Y-1.5701
G01 X5.3975 Y-1.5761
G01 X5.4005 Y-1.5802
G01 X5.4039 Y-1.5842
G01 X5.4088 Y-1.5890
G01 X5.4141 Y-1.5934
G01 X5.4184 Y-1.5963
G01 X5.4229 Y-1.5989
G01 X5.4291 Y-1.6018
G01 X5.4340 Y-1.6036
G01 X5.4406 Y-1.6054
G01 X5.4474 Y-1.6066
G01 X5.4526 Y-1.6070
G01 X5.4595 Y-1.6069
G01 X5.4646 Y-1.6064
G01 X5.8965 Y-1.5503
G01 X5.9033 Y-1.5491
G01 X5.9114 Y-1.5467
G01 X5.9178 Y-1.5440
G01 X5.9252 Y-1.5399
G01 X5.9321 Y-1.5348
G01 X5.9372 Y-1.5302
G01 X5.9428 Y-1.5238
G01 X5.9467 Y-1.5182
G01 X5.9508 Y-1.5107
G01 X5.9534 Y-1.5044
G01 X5.9558 Y-1.4962
G01 X5.9570 Y-1.4894
G01 X5.9575 Y-1.4809
G01 X5.9575 Y-1.2769
G01 X7.0175 Y-1.2769
G01 X7.0175 Y-2.4369
G01 X6.9343 Y-2.4370
G01 X6.9292 Y-2.4374
G01 X6.9224 Y-2.4386
G01 X6.9125 Y-2.4416
G01 X6.9047 Y-2.4452
G01 X6.8974 Y-2.4497
G01 X6.8907 Y-2.4550
G01 X6.8836 Y-2.4625
G01 X6.8786 Y-2.4695
G01 X6.8744 Y-2.4770
G01 X6.8713 Y-2.4849
G01 X6.8691 Y-2.4932
G01 X6.8681 Y-2.5000
G01 X6.8677 Y-2.5069
G01 X6.8677 Y-3.2068
G01 X6.8683 Y-3.2154
G01 X6.8691 Y-3.2205
G01 X6.8707 Y-3.2271
G01 X6.8744 Y-3.2367
G01 X6.8795 Y-3.2457
G01 X6.8825 Y-3.2499
G01 X6.8870 Y-3.2551
G01 X6.8920 Y-3.2598
G01 X6.8960 Y-3.2630
G01 X6.9047 Y-3.2685
G01 X6.9094 Y-3.2708
G01 X6.9158 Y-3.2733
G01 X6.9224 Y-3.2751
G01 X6.9275 Y-3.2760
G01 X6.9377 Y-3.2768
G01 X7.2842 Y-3.2768
G00 Z2.0000
G00 X8.0605 Y-3.3802
G01 F60.00
G01 Z-0.0746
G01 F120.00
G01 X8.0624 Y-3.3800
G01 X8.0624 Y-3.4005
G01 X8.0617 Y-3.3896
G01 X8.0605 Y-3.3802
G00 Z2.0000
G00 X8.0624 Y-4.3131
G01 F60.00
G01 Z-0.0746
G01 F120.00
G01 X8.0624 Y-4.3336
G01 X8.0605 Y-4.3334
G01 X8.0617 Y-4.3240
G01 X8.0624 Y-4.3131
G00 Z2.0000
G00 X9.7525 Y-4.9484
G01 F60.00
G01 Z-0.0746
G01 F120.00
G01 X10.0780 Y-4.9484
G01 X10.0780 Y-5.3199
G01 X10.0794 Y-5.3471
G01 X10.0801 Y-5.3542
G01 X10.0846 Y-5.3828
G01 X10.0923 Y-5.4127
G01 X10.1042 Y-5.4449
G01 X10.1186 Y-5.4741
G01 X10.3726 Y-5.9293
G01 X10.3100 Y-5.9864
G01 X10.2132 Y-6.0934
G01 X10.1283 Y-6.2079
G01 X10.0534 Y-6.3332
G01 X9.9925 Y-6.4621
G01 X9.9439 Y-6.5979
G01 X9.9088 Y-6.7378
G01 X9.8875 Y-6.8822
G01 X9.8806 Y-7.0246
G01 X9.8877 Y-7.1687
G01 X9.9088 Y-7.3114
G01 X9.9439 Y-7.4513
G01 X9.9925 Y-7.5871
G01 X10.0542 Y-7.7176
G01 X10.1283 Y-7.8413
G01 X10.2132 Y-7.9558
G01 X10.3112 Y-8.0640
G01 X10.4180 Y-8.1609
G01 X10.5339 Y-8.2469
G01 X10.6576 Y-8.3210
G01 X10.7881 Y-8.3827
G01 X10.9239 Y-8.4313
G01 X11.0638 Y-8.4664
G01 X11.2065 Y-8.4875
G01 X11.3506 Y-8.4946
G01 X11.4947 Y-8.4875
G01 X11.6374 Y-8.4664
G01 X11.7773 Y-8.4313
G01 X11.9131 Y-8.3827
G01 X12.0436 Y-8.3210
G01 X12.1673 Y-8.2469
G01 X12.2818 Y-8.1620
G01 X12.3876 Y-8.0664
G01 X12.3924 Y-8.0616
G01 X12.4869 Y-7.9572
G01 X12.5729 Y-7.8413
G01 X12.6453 Y-7.7205
G01 X12.6486 Y-7.7145
G01 X12.7087 Y-7.5871
G01 X12.7562 Y-7.4546
G01 X12.7582 Y-7.4480
G01 X12.7916 Y-7.3147
G01 X12.7929 Y-7.3080
G01 X12.8135 Y-7.1687
G01 X12.8205 Y-7.0280
G01 X12.8205 Y-7.0212
G01 X12.8135 Y-6.8805
G01 X12.7929 Y-6.7412
G01 X12.7916 Y-6.7345
G01 X12.7573 Y-6.5979
G01 X12.7087 Y-6.4621
G01 X12.6470 Y-6.3316
G01 X12.5729 Y-6.2079
G01 X12.4869 Y-6.0920
G01 X12.3900 Y-5.9852
G01 X12.2832 Y-5.8883
G01 X12.1701 Y-5.8043
G01 X12.1644 Y-5.8005
G01 X12.0436 Y-5.7282
G01 X11.9131 Y-5.6665
G01 X11.7773 Y-5.6179
G01 X11.6407 Y-5.5836
G01 X11.6340 Y-5.5823
G01 X11.4947 Y-5.5617
G01 X11.3540 Y-5.5547
G01 X11.3472 Y-5.5547
G01 X11.2099 Y-5.5614
G01 X11.2031 Y-5.5621
G01 X11.0638 Y-5.5828
G01 X10.9310 Y-5.6160
G01 X10.7182 Y-5.2348
G01 X10.7182 Y-4.9484
G01 X11.0525 Y-4.9484
G01 X11.0628 Y-4.9476
G01 X11.0728 Y-4.9454
G01 X11.0777 Y-4.9437
G01 X11.0840 Y-4.9409
G01 X11.0928 Y-4.9356
G01 X11.1008 Y-4.9291
G01 X11.1077 Y-4.9215
G01 X11.1134 Y-4.9129
G01 X11.1178 Y-4.9036
G01 X11.1195 Y-4.8987
G01 X11.1212 Y-4.8921
G01 X11.1222 Y-4.8853
G01 X11.1225 Y-4.8784
G01 X11.1225 Y-3.4767
G01 X11.1220 Y-3.4698
G01 X11.1208 Y-3.4631
G01 X11.1190 Y-3.4564
G01 X11.1165 Y-3.4500
G01 X11.1134 Y-3.4439
G01 X11.1087 Y-3.4367
G01 X11.1044 Y-3.4314
G01 X11.0995 Y-3.4265
G01 X11.0956 Y-3.4232
G01 X11.0899 Y-3.4193
G01 X11.0855 Y-3.4167
G01 X11.0793 Y-3.4137
G01 X11.0728 Y-3.4114
G01 X11.0662 Y-3.4097
G01 X11.0611 Y-3.4089
G01 X11.0542 Y-3.4084
G01 X9.7525 Y-3.4084
G01 X9.7456 Y-3.4087
G01 X9.7388 Y-3.4097
G01 X9.7322 Y-3.4114
G01 X9.7241 Y-3.4144
G01 X9.7165 Y-3.4184
G01 X9.7108 Y-3.4222
G01 X9.7055 Y-3.4265
G01 X9.7006 Y-3.4314
G01 X9.6963 Y-3.4367
G01 X9.6925 Y-3.4424
G01 X9.6900 Y-3.4469
G01 X9.6872 Y-3.4532
G01 X9.6855 Y-3.4581
G01 X9.6838 Y-3.4647
G01 X9.6830 Y-3.4698
G01 X9.6825 Y-3.4767
G01 X9.6825 Y-4.8801
G01 X9.6830 Y-4.8870
G01 X9.6842 Y-4.8937
G01 X9.6860 Y-4.9004
G01 X9.6885 Y-4.9068
G01 X9.6916 Y-4.9129
G01 X9.6953 Y-4.9187
G01 X9.6995 Y-4.9241
G01 X9.7042 Y-4.9291
G01 X9.7094 Y-4.9336
G01 X9.7151 Y-4.9375
G01 X9.7210 Y-4.9409
G01 X9.7273 Y-4.9437
G01 X9.7338 Y-4.9459
G01 X9.7405 Y-4.9474
G01 X9.7474 Y-4.9482
G01 X9.7525 Y-4.9484
G00 Z2.0000
G00 X9.0175 Y-6.2469
G01 F60.00
G01 Z-0.0746
G01 F120.00
G01 X7.9575 Y-6.2469
G01 X7.9575 Y-5.0869
G01 X8.0407 Y-5.0868
G01 X8.0509 Y-5.0856
G01 X8.0609 Y-5.0828
G01 X8.0687 Y-5.0794
G01 X8.0762 Y-5.0751
G01 X8.0830 Y-5.0699
G01 X8.0891 Y-5.0639
G01 X8.0945 Y-5.0572
G01 X8.0990 Y-5.0499
G01 X8.1026 Y-5.0421
G01 X8.1052 Y-5.0339
G01 X8.1067 Y-5.0255
G01 X8.1073 Y-5.0169
G01 X8.1073 Y-4.5068
G01 X8.1065 Y-4.4965
G01 X8.1043 Y-4.4865
G01 X8.1026 Y-4.4816
G01 X8.0998 Y-4.4753
G01 X8.0945 Y-4.4665
G01 X8.0903 Y-4.4611
G01 X8.0868 Y-4.4573
G01 X8.0790 Y-4.4506
G01 X8.0733 Y-4.4468
G01 X8.0687 Y-4.4443
G01 X8.0592 Y-4.4403
G01 X8.0543 Y-4.4389
G01 X8.0475 Y-4.4376
G01 X8.0373 Y-4.4368
G01 X7.6908 Y-4.4368
G01 X7.6908 Y-4.3768
G01 X7.8875 Y-4.3768
G01 X7.8961 Y-4.3763
G01 X7.9045 Y-4.3747
G01 X7.9111 Y-4.3727
G01 X7.9159 Y-4.3708
G01 X7.9220 Y-4.3677
G01 X7.9264 Y-4.3650
G01 X7.9345 Y-4.3587
G01 X7.9382 Y-4.3551
G01 X7.9427 Y-4.3499
G01 X7.9457 Y-4.3457
G01 X7.9492 Y-4.3398
G01 X7.9522 Y-4.3336
G01 X7.9540 Y-4.3288
G01 X7.9558 Y-4.3221
G01 X7.9567 Y-4.3171
G01 X7.9575 Y-4.3068
G01 X7.9575 Y-3.4068
G01 X7.9570 Y-3.3982
G01 X7.9554 Y-3.3898
G01 X7.9522 Y-3.3800
G01 X7.9484 Y-3.3723
G01 X7.9427 Y-3.3637
G01 X7.9358 Y-3.3561
G01 X7.9278 Y-3.3496
G01 X7.9190 Y-3.3443
G01 X7.9095 Y-3.3403
G01 X7.9012 Y-3.3381
G01 X7.8944 Y-3.3371
G01 X7.8875 Y-3.3368
G01 X7.6909 Y-3.3368
G01 X7.6909 Y-3.2768
G01 X8.0373 Y-3.2768
G01 X8.0475 Y-3.2760
G01 X8.0543 Y-3.2747
G01 X8.0592 Y-3.2733
G01 X8.0656 Y-3.2708
G01 X8.0703 Y-3.2685
G01 X8.0747 Y-3.2659
G01 X8.0803 Y-3.2620
G01 X8.0855 Y-3.2575
G01 X8.0891 Y-3.2538
G01 X8.0925 Y-3.2499
G01 X8.0964 Y-3.2442
G01 X8.1013 Y-3.2352
G01 X8.1032 Y-3.2304
G01 X8.1052 Y-3.2238
G01 X8.1062 Y-3.2188
G01 X8.1071 Y-3.2119
G01 X8.1073 Y-2.5069
G01 X8.1069 Y-2.5000
G01 X8.1059 Y-2.4932
G01 X8.1037 Y-2.4849
G01 X8.1006 Y-2.4770
G01 X8.0964 Y-2.4695
G01 X8.0903 Y-2.4612
G01 X8.0843 Y-2.4550
G01 X8.0776 Y-2.4497
G01 X8.0703 Y-2.4452
G01 X8.0625 Y-2.4416
G01 X8.0526 Y-2.4386
G01 X8.0458 Y-2.4374
G01 X8.0407 Y-2.4370
G01 X7.9575 Y-2.4369
G01 X7.9575 Y-1.2769
G01 X9.0175 Y-1.2769
G01 X9.0175 Y-1.4731
G01 X9.0180 Y-1.4817
G01 X9.0196 Y-1.4902
G01 X9.0222 Y-1.4984
G01 X9.0259 Y-1.5062
G01 X9.0294 Y-1.5121
G01 X9.0347 Y-1.5190
G01 X9.0394 Y-1.5240
G01 X9.0461 Y-1.5295
G01 X9.0518 Y-1.5333
G01 X9.0579 Y-1.5365
G01 X9.0643 Y-1.5391
G01 X9.0710 Y-1.5411
G01 X9.0795 Y-1.5426
G01 X9.5445 Y-1.5964
G01 X9.5547 Y-1.5968
G01 X9.5598 Y-1.5965
G01 X9.5666 Y-1.5954
G01 X9.5716 Y-1.5942
G01 X9.5780 Y-1.5920
G01 X9.5843 Y-1.5892
G01 X9.5888 Y-1.5867
G01 X9.5944 Y-1.5829
G01 X9.5984 Y-1.5797
G01 X9.6034 Y-1.5750
G01 X9.6067 Y-1.5711
G01 X9.6098 Y-1.5670
G01 X9.6135 Y-1.5612
G01 X9.6165 Y-1.5551
G01 X9.6190 Y-1.5487
G01 X9.6204 Y-1.5438
G01 X9.6217 Y-1.5371
G01 X9.6225 Y-1.5269
G01 X9.6225 Y-1.1484
G01 X11.1825 Y-1.1484
G01 X11.1825 Y-3.0084
G01 X9.6225 Y-3.0084
G01 X9.6224 Y-2.4299
G01 X9.6217 Y-2.4230
G01 X9.6199 Y-2.4145
G01 X9.6178 Y-2.4080
G01 X9.6141 Y-2.4002
G01 X9.6106 Y-2.3942
G01 X9.6053 Y-2.3874
G01 X9.5993 Y-2.3812
G01 X9.5925 Y-2.3759
G01 X9.5851 Y-2.3714
G01 X9.5773 Y-2.3678
G01 X9.5690 Y-2.3653
G01 X9.5605 Y-2.3638
G01 X9.0955 Y-2.3100
G01 X9.0870 Y-2.3095
G01 X9.0768 Y-2.3104
G01 X9.0684 Y-2.3122
G01 X9.0604 Y-2.3150
G01 X9.0527 Y-2.3188
G01 X9.0456 Y-2.3235
G01 X9.0390 Y-2.3290
G01 X9.0333 Y-2.3353
G01 X9.0283 Y-2.3422
G01 X9.0242 Y-2.3497
G01 X9.0221 Y-2.3544
G01 X9.0200 Y-2.3609
G01 X9.0185 Y-2.3676
G01 X9.0177 Y-2.3744
G01 X9.0175 Y-2.4369
G01 X8.9360 Y-2.4369
G01 X8.9258 Y-2.4379
G01 X8.9174 Y-2.4399
G01 X8.9094 Y-2.4429
G01 X8.9032 Y-2.4460
G01 X8.8960 Y-2.4507
G01 X8.8907 Y-2.4550
G01 X8.8847 Y-2.4612
G01 X8.8805 Y-2.4666
G01 X8.8768 Y-2.4724
G01 X8.8731 Y-2.4801
G01 X8.8707 Y-2.4866
G01 X8.8691 Y-2.4932
G01 X8.8681 Y-2.5000
G01 X8.8677 Y-2.5069
G01 X8.8678 Y-5.0203
G01 X8.8688 Y-5.0289
G01 X8.8713 Y-5.0389
G01 X8.8752 Y-5.0484
G01 X8.8795 Y-5.0558
G01 X8.8847 Y-5.0626
G01 X8.8920 Y-5.0699
G01 X8.9003 Y-5.0760
G01 X8.9094 Y-5.0809
G01 X8.9158 Y-5.0834
G01 X8.9224 Y-5.0852
G01 X8.9275 Y-5.0861
G01 X8.9343 Y-5.0868
G01 X9.0175 Y-5.0869
G01 X9.0175 Y-6.2469
G00 Z2.0000
G00 X8.0875 Y-6.1869
G01 F60.00
G01 Z-0.0746
G01 F120.00
G01 X8.8926 Y-6.1867
G01 X8.8995 Y-6.1859
G01 X8.9045 Y-6.1848
G01 X8.9095 Y-6.1834
G01 X8.9159 Y-6.1809
G01 X8.9249 Y-6.1760
G01 X8.9292 Y-6.1731
G01 X8.9345 Y-6.1688
G01 X8.9394 Y-6.1639
G01 X8.9427 Y-6.1600
G01 X8.9484 Y-6.1514
G01 X8.9508 Y-6.1468
G01 X8.9534 Y-6.1405
G01 X8.9562 Y-6.1306
G01 X8.9572 Y-6.1238
G01 X8.9575 Y-6.1169
G01 X8.9575 Y-5.2169
G01 X8.9567 Y-5.2066
G01 X8.9545 Y-5.1966
G01 X8.9515 Y-5.1885
G01 X8.9475 Y-5.1809
G01 X8.9427 Y-5.1738
G01 X8.9370 Y-5.1674
G01 X8.9306 Y-5.1617
G01 X8.9220 Y-5.1560
G01 X8.9143 Y-5.1522
G01 X8.9095 Y-5.1504
G01 X8.9028 Y-5.1486
G01 X8.8978 Y-5.1477
G01 X8.8909 Y-5.1470
G01 X8.8076 Y-5.1469
G01 X8.8076 Y-2.3769
G01 X8.8875 Y-2.3769
G01 X8.8978 Y-2.3761
G01 X8.9078 Y-2.3739
G01 X8.9174 Y-2.3702
G01 X8.9264 Y-2.3651
G01 X8.9319 Y-2.3610
G01 X8.9358 Y-2.3576
G01 X8.9427 Y-2.3500
G01 X8.9457 Y-2.3458
G01 X8.9492 Y-2.3399
G01 X8.9534 Y-2.3305
G01 X8.9550 Y-2.3256
G01 X8.9565 Y-2.3189
G01 X8.9573 Y-2.3120
G01 X8.9575 Y-2.3069
G01 X8.9575 Y-2.2335
G01 X9.6825 Y-2.3174
G01 X9.6827 Y-2.8835
G01 X9.6835 Y-2.8904
G01 X9.6846 Y-2.8954
G01 X9.6878 Y-2.9052
G01 X9.6908 Y-2.9114
G01 X9.6934 Y-2.9158
G01 X9.6995 Y-2.9241
G01 X9.7068 Y-2.9314
G01 X9.7151 Y-2.9375
G01 X9.7241 Y-2.9424
G01 X9.7289 Y-2.9443
G01 X9.7355 Y-2.9463
G01 X9.7439 Y-2.9479
G01 X9.7525 Y-2.9484
G01 X11.0525 Y-2.9484
G01 X11.0611 Y-2.9479
G01 X11.0695 Y-2.9463
G01 X11.0777 Y-2.9437
G01 X11.0840 Y-2.9409
G01 X11.0914 Y-2.9366
G01 X11.0995 Y-2.9303
G01 X11.1066 Y-2.9228
G01 X11.1116 Y-2.9158
G01 X11.1165 Y-2.9068
G01 X11.1195 Y-2.8987
G01 X11.1217 Y-2.8887
G01 X11.1225 Y-2.8784
G01 X11.1225 Y-1.2767
G01 X11.1217 Y-1.2681
G01 X11.1200 Y-1.2597
G01 X11.1165 Y-1.2500
G01 X11.1125 Y-1.2424
G01 X11.1077 Y-1.2353
G01 X11.1020 Y-1.2289
G01 X11.0956 Y-1.2232
G01 X11.0885 Y-1.2184
G01 X11.0793 Y-1.2137
G01 X11.0712 Y-1.2109
G01 X11.0611 Y-1.2089
G01 X11.0525 Y-1.2084
G01 X9.7525 Y-1.2084
G01 X9.7422 Y-1.2092
G01 X9.7355 Y-1.2105
G01 X9.7305 Y-1.2119
G01 X9.7210 Y-1.2159
G01 X9.7122 Y-1.2212
G01 X9.7042 Y-1.2277
G01 X9.6973 Y-1.2353
G01 X9.6916 Y-1.2439
G01 X9.6872 Y-1.2532
G01 X9.6846 Y-1.2614
G01 X9.6828 Y-1.2715
G01 X9.6825 Y-1.2784
G01 X9.6825 Y-1.6729
G01 X8.9575 Y-1.5890
G01 X8.9575 Y-1.4069
G01 X8.9572 Y-1.4000
G01 X8.9558 Y-1.3916
G01 X8.9528 Y-1.3817
G01 X8.9484 Y-1.3724
G01 X8.9427 Y-1.3638
G01 X8.9358 Y-1.3562
G01 X8.9278 Y-1.3497
G01 X8.9190 Y-1.3444
G01 X8.9095 Y-1.3404
G01 X8.8995 Y-1.3379
G01 X8.8926 Y-1.3371
G01 X8.8875 Y-1.3369
G01 X8.0841 Y-1.3370
G01 X8.0755 Y-1.3379
G01 X8.0672 Y-1.3399
G01 X8.0591 Y-1.3429
G01 X8.0515 Y-1.3469
G01 X8.0444 Y-1.3517
G01 X8.0380 Y-1.3574
G01 X8.0323 Y-1.3638
G01 X8.0275 Y-1.3709
G01 X8.0228 Y-1.3801
G01 X8.0200 Y-1.3882
G01 X8.0183 Y-1.3966
G01 X8.0175 Y-1.4069
G01 X8.0175 Y-2.3069
G01 X8.0183 Y-2.3172
G01 X8.0205 Y-2.3272
G01 X8.0235 Y-2.3353
G01 X8.0275 Y-2.3429
G01 X8.0323 Y-2.3500
G01 X8.0392 Y-2.3576
G01 X8.0458 Y-2.3631
G01 X8.0530 Y-2.3678
G01 X8.0607 Y-2.3716
G01 X8.0655 Y-2.3734
G01 X8.0722 Y-2.3752
G01 X8.0789 Y-2.3764
G01 X8.0841 Y-2.3768
G01 X8.1674 Y-2.3769
G01 X8.1674 Y-5.1469
G01 X8.0841 Y-5.1470
G01 X8.0789 Y-5.1474
G01 X8.0722 Y-5.1486
G01 X8.0655 Y-5.1504
G01 X8.0591 Y-5.1529
G01 X8.0501 Y-5.1578
G01 X8.0431 Y-5.1628
G01 X8.0356 Y-5.1699
G01 X8.0293 Y-5.1780
G01 X8.0242 Y-5.1870
G01 X8.0205 Y-5.1966
G01 X8.0185 Y-5.2049
G01 X8.0175 Y-5.2152
G01 X8.0177 Y-6.1220
G01 X8.0183 Y-6.1272
G01 X8.0196 Y-6.1339
G01 X8.0216 Y-6.1405
G01 X8.0242 Y-6.1468
G01 X8.0275 Y-6.1529
G01 X8.0313 Y-6.1586
G01 X8.0345 Y-6.1626
G01 X8.0392 Y-6.1676
G01 X8.0431 Y-6.1710
G01 X8.0486 Y-6.1751
G01 X8.0545 Y-6.1786
G01 X8.0607 Y-6.1816
G01 X8.0672 Y-6.1839
G01 X8.0738 Y-6.1856
G01 X8.0806 Y-6.1866
G01 X8.0875 Y-6.1869
G00 Z2.0000
G00 X11.6525 Y-4.9484
G01 F60.00
G01 Z-0.0746
G01 F120.00
G01 X12.9542 Y-4.9484
G01 X12.9645 Y-4.9474
G01 X12.9745 Y-4.9449
G01 X12.9840 Y-4.9409
G01 X12.9928 Y-4.9356
G01 X13.0008 Y-4.9291
G01 X13.0077 Y-4.9215
G01 X13.0116 Y-4.9158
G01 X13.0142 Y-4.9114
G01 X13.0184 Y-4.9020
G01 X13.0200 Y-4.8971
G01 X13.0215 Y-4.8904
G01 X13.0222 Y-4.8853
G01 X13.0225 Y-4.8784
G01 X13.0225 Y-3.4784
G01 X13.0220 Y-3.4698
G01 X13.0200 Y-3.4597
G01 X13.0165 Y-3.4500
G01 X13.0116 Y-3.4410
G01 X13.0055 Y-3.4327
G01 X12.9982 Y-3.4254
G01 X12.9899 Y-3.4193
G01 X12.9809 Y-3.4144
G01 X12.9712 Y-3.4109
G01 X12.9611 Y-3.4089
G01 X12.9525 Y-3.4084
G01 X12.6226 Y-3.4084
G01 X12.6226 Y-2.9484
G01 X12.9525 Y-2.9484
G01 X12.9628 Y-2.9476
G01 X12.9728 Y-2.9454
G01 X12.9793 Y-2.9431
G01 X12.9840 Y-2.9409
G01 X12.9928 Y-2.9356
G01 X13.0008 Y-2.9291
G01 X13.0044 Y-2.9254
G01 X13.0087 Y-2.9201
G01 X13.0142 Y-2.9114
G01 X13.0184 Y-2.9020
G01 X13.0200 Y-2.8971
G01 X13.0215 Y-2.8904
G01 X13.0222 Y-2.8853
G01 X13.0225 Y-2.8784
G01 X13.0225 Y-1.2767
G01 X13.0215 Y-1.2664
G01 X13.0190 Y-1.2564
G01 X13.0150 Y-1.2469
G01 X13.0097 Y-1.2381
G01 X13.0032 Y-1.2301
G01 X12.9956 Y-1.2232
G01 X12.9914 Y-1.2202
G01 X12.9855 Y-1.2167
G01 X12.9761 Y-1.2125
G01 X12.9695 Y-1.2105
G01 X12.9645 Y-1.2094
G01 X12.9576 Y-1.2086
G01 X12.9525 Y-1.2084
G01 X11.6508 Y-1.2084
G01 X11.6456 Y-1.2087
G01 X11.6388 Y-1.2097
G01 X11.6289 Y-1.2125
G01 X11.6195 Y-1.2167
G01 X11.6108 Y-1.2222
G01 X11.6030 Y-1.2289
G01 X11.5963 Y-1.2367
G01 X11.5908 Y-1.2454
G01 X11.5866 Y-1.2548
G01 X11.5850 Y-1.2597
G01 X11.5835 Y-1.2664
G01 X11.5827 Y-1.2733
G01 X11.5825 Y-1.2784
G01 X11.5825 Y-2.8784
G01 X11.5828 Y-2.8853
G01 X11.5842 Y-2.8937
G01 X11.5872 Y-2.9036
G01 X11.5916 Y-2.9129
G01 X11.5973 Y-2.9215
G01 X11.6042 Y-2.9291
G01 X11.6122 Y-2.9356
G01 X11.6165 Y-2.9384
G01 X11.6226 Y-2.9417
G01 X11.6322 Y-2.9454
G01 X11.6422 Y-2.9476
G01 X11.6525 Y-2.9484
G01 X11.9824 Y-2.9484
G01 X11.9824 Y-3.4084
G01 X11.6525 Y-3.4084
G01 X11.6422 Y-3.4092
G01 X11.6322 Y-3.4114
G01 X11.6257 Y-3.4137
G01 X11.6210 Y-3.4159
G01 X11.6122 Y-3.4212
G01 X11.6042 Y-3.4277
G01 X11.6006 Y-3.4314
G01 X11.5963 Y-3.4367
G01 X11.5908 Y-3.4454
G01 X11.5866 Y-3.4548
G01 X11.5850 Y-3.4597
G01 X11.5835 Y-3.4664
G01 X11.5827 Y-3.4733
G01 X11.5825 Y-3.4784
G01 X11.5826 Y-4.8818
G01 X11.5833 Y-4.8887
G01 X11.5846 Y-4.8954
G01 X11.5866 Y-4.9020
G01 X11.5892 Y-4.9083
G01 X11.5925 Y-4.9144
G01 X11.5963 Y-4.9201
G01 X11.6006 Y-4.9254
G01 X11.6042 Y-4.9291
G01 X11.6094 Y-4.9336
G01 X11.6151 Y-4.9375
G01 X11.6210 Y-4.9409
G01 X11.6257 Y-4.9431
G01 X11.6322 Y-4.9454
G01 X11.6388 Y-4.9471
G01 X11.6456 Y-4.9481
G01 X11.6525 Y-4.9484
G00 Z2.0000
G00 X13.0825 Y-5.0084
G01 F60.00
G01 Z-0.0746
G01 F120.00
G01 X11.5225 Y-5.0084
G01 X11.5225 Y-3.3484
G01 X11.8523 Y-3.3484
G01 X11.8574 Y-3.3482
G01 X11.8642 Y-3.3474
G01 X11.8709 Y-3.3459
G01 X11.8775 Y-3.3437
G01 X11.8822 Y-3.3417
G01 X11.8883 Y-3.3384
G01 X11.8940 Y-3.3346
G01 X11.8980 Y-3.3314
G01 X11.9018 Y-3.3279
G01 X11.9064 Y-3.3228
G01 X11.9105 Y-3.3173
G01 X11.9132 Y-3.3129
G01 X11.9163 Y-3.3068
G01 X11.9182 Y-3.3020
G01 X11.9202 Y-3.2954
G01 X11.9212 Y-3.2904
G01 X11.9219 Y-3.2853
G01 X11.9223 Y-3.2784
G01 X11.9223 Y-3.0784
G01 X11.9217 Y-3.0698
G01 X11.9206 Y-3.0631
G01 X11.9187 Y-3.0564
G01 X11.9163 Y-3.0500
G01 X11.9123 Y-3.0424
G01 X11.9085 Y-3.0367
G01 X11.9030 Y-3.0301
G01 X11.8967 Y-3.0243
G01 X11.8912 Y-3.0202
G01 X11.8837 Y-3.0159
G01 X11.8742 Y-3.0119
G01 X11.8642 Y-3.0094
G01 X11.8540 Y-3.0084
G01 X11.5225 Y-3.0084
G01 X11.5225 Y-1.1484
G01 X13.0825 Y-1.1484
G01 X13.0825 Y-3.0084
G01 X12.7527 Y-3.0084
G01 X12.7476 Y-3.0086
G01 X12.7408 Y-3.0094
G01 X12.7341 Y-3.0109
G01 X12.7275 Y-3.0131
G01 X12.7228 Y-3.0151
G01 X12.7167 Y-3.0184
G01 X12.7110 Y-3.0222
G01 X12.7070 Y-3.0254
G01 X12.7032 Y-3.0289
G01 X12.6986 Y-3.0340
G01 X12.6945 Y-3.0395
G01 X12.6918 Y-3.0439
G01 X12.6887 Y-3.0500
G01 X12.6868 Y-3.0548
G01 X12.6848 Y-3.0614
G01 X12.6838 Y-3.0664
G01 X12.6831 Y-3.0715
G01 X12.6827 Y-3.0784
G01 X12.6827 Y-3.2784
G01 X12.6833 Y-3.2870
G01 X12.6844 Y-3.2937
G01 X12.6863 Y-3.3004
G01 X12.6887 Y-3.3068
G01 X12.6927 Y-3.3144
G01 X12.6975 Y-3.3215
G01 X12.7020 Y-3.3267
G01 X12.7083 Y-3.3325
G01 X12.7138 Y-3.3366
G01 X12.7228 Y-3.3417
G01 X12.7308 Y-3.3449
G01 X12.7408 Y-3.3474
G01 X12.7510 Y-3.3484
G01 X13.0825 Y-3.3484
G01 X13.0825 Y-5.0084
G00 Z2.0000
G00 X12.8805 Y-7.0246
G01 F60.00
G01 Z-0.0746
G01 F120.00
G01 X12.8731 Y-7.1746
G01 X12.8511 Y-7.3231
G01 X12.8146 Y-7.4687
G01 X12.7641 Y-7.6101
G01 X12.6999 Y-7.7458
G01 X12.6227 Y-7.8746
G01 X12.5332 Y-7.9952
G01 X12.4324 Y-8.1064
G01 X12.3212 Y-8.2072
G01 X12.2006 Y-8.2967
G01 X12.0718 Y-8.3739
G01 X11.9361 Y-8.4381
G01 X11.7947 Y-8.4886
G01 X11.6491 Y-8.5251
G01 X11.5006 Y-8.5471
G01 X11.3506 Y-8.5545
G01 X11.2006 Y-8.5471
G01 X11.0521 Y-8.5251
G01 X10.9065 Y-8.4886
G01 X10.7651 Y-8.4381
G01 X10.6294 Y-8.3739
G01 X10.5006 Y-8.2967
G01 X10.3800 Y-8.2072
G01 X10.2688 Y-8.1064
G01 X10.1680 Y-7.9952
G01 X10.0785 Y-7.8746
G01 X10.0013 Y-7.7458
G01 X9.9371 Y-7.6101
G01 X9.8866 Y-7.4687
G01 X9.8501 Y-7.3231
G01 X9.8281 Y-7.1746
G01 X9.8207 Y-7.0246
G01 X9.8281 Y-6.8746
G01 X9.8501 Y-6.7261
G01 X9.8866 Y-6.5805
G01 X9.9371 Y-6.4391
G01 X10.0013 Y-6.3034
G01 X10.0785 Y-6.1746
G01 X10.1680 Y-6.0540
G01 X10.2614 Y-5.9510
G01 X10.2667 Y-5.9443
G01 X10.2695 Y-5.9400
G01 X10.2727 Y-5.9340
G01 X10.2754 Y-5.9277
G01 X10.2773 Y-5.9212
G01 X10.2787 Y-5.9145
G01 X10.2793 Y-5.9094
G01 X10.2795 Y-5.9025
G01 X10.2790 Y-5.8957
G01 X10.2779 Y-5.8890
G01 X10.2761 Y-5.8824
G01 X10.2736 Y-5.8760
G01 X10.2706 Y-5.8699
G01 X10.0670 Y-5.5050
G01 X10.0491 Y-5.4687
G01 X10.0356 Y-5.4324
G01 X10.0258 Y-5.3950
G01 X10.0199 Y-5.3567
G01 X10.0179 Y-5.3163
G01 X10.0177 Y-5.0733
G01 X10.0162 Y-5.0631
G01 X10.0138 Y-5.0548
G01 X10.0096 Y-5.0454
G01 X10.0041 Y-5.0367
G01 X9.9997 Y-5.0314
G01 X9.9949 Y-5.0265
G01 X9.9882 Y-5.0212
G01 X9.9824 Y-5.0175
G01 X9.9747 Y-5.0137
G01 X9.9682 Y-5.0114
G01 X9.9598 Y-5.0094
G01 X9.9530 Y-5.0086
G01 X9.6225 Y-5.0084
G01 X9.6225 Y-3.3484
G01 X11.1825 Y-3.3484
G01 X11.1825 Y-5.0084
G01 X10.8466 Y-5.0084
G01 X10.8381 Y-5.0092
G01 X10.8297 Y-5.0109
G01 X10.8215 Y-5.0137
G01 X10.8138 Y-5.0175
G01 X10.8066 Y-5.0222
G01 X10.8013 Y-5.0265
G01 X10.7953 Y-5.0327
G01 X10.7901 Y-5.0395
G01 X10.7866 Y-5.0454
G01 X10.7830 Y-5.0532
G01 X10.7804 Y-5.0614
G01 X10.7791 Y-5.0681
G01 X10.7783 Y-5.0784
G01 X10.7783 Y-5.2027
G01 X10.7791 Y-5.2111
G01 X10.7804 Y-5.2178
G01 X10.7823 Y-5.2243
G01 X10.7849 Y-5.2305
G01 X10.9368 Y-5.5030
G01 X10.9408 Y-5.5087
G01 X10.9441 Y-5.5127
G01 X10.9516 Y-5.5198
G01 X10.9600 Y-5.5258
G01 X10.9661 Y-5.5291
G01 X10.9708 Y-5.5312
G01 X10.9790 Y-5.5338
G01 X10.9858 Y-5.5351
G01 X10.9944 Y-5.5359
G01 X11.0030 Y-5.5356
G01 X11.0115 Y-5.5342
G01 X11.0521 Y-5.5241
G01 X11.2006 Y-5.5021
G01 X11.3506 Y-5.4947
G01 X11.5006 Y-5.5021
G01 X11.6491 Y-5.5241
G01 X11.7947 Y-5.5606
G01 X11.9361 Y-5.6111
G01 X12.0718 Y-5.6753
G01 X12.2006 Y-5.7525
G01 X12.3212 Y-5.8420
G01 X12.4324 Y-5.9428
G01 X12.5332 Y-6.0540
G01 X12.6227 Y-6.1746
G01 X12.6999 Y-6.3034
G01 X12.7641 Y-6.4391
G01 X12.8146 Y-6.5805
G01 X12.8511 Y-6.7261
G01 X12.8731 Y-6.8746
G01 X12.8805 Y-7.0246
G00 Z2.0000
G00 X12.7505 Y-9.6206
G01 F60.00
G01 Z-0.0746
G01 F120.00
G01 X12.7552 Y-9.6306
G01 X12.7579 Y-9.6350
G01 X12.7620 Y-9.6405
G01 X12.7691 Y-9.6480
G01 X12.7730 Y-9.6513
G01 X12.7787 Y-9.6553
G01 X12.7831 Y-9.6578
G01 X12.7893 Y-9.6608
G01 X12.7991 Y-9.6640
G01 X12.8042 Y-9.6651
G01 X12.8110 Y-9.6659
G01 X12.8213 Y-9.6659
G01 X12.8265 Y-9.6653
G01 X12.8332 Y-9.6639
G01 X13.1010 Y-9.5968
G01 X13.1066 Y-9.5957
G01 X13.1146 Y-9.5953
G01 X13.1242 Y-9.5968
G01 X13.3875 Y-9.6626
G01 X13.3933 Y-9.6644
G01 X13.4008 Y-9.6681
G01 X13.4075 Y-9.6732
G01 X13.4117 Y-9.6776
G01 X13.5426 Y-9.8304
G01 X13.5462 Y-9.8351
G01 X13.5503 Y-9.8424
G01 X13.5517 Y-9.8463
G01 X13.5534 Y-9.8544
G01 X13.5537 Y-9.8603
G01 X13.5537 Y-10.6345
G01 X13.5528 Y-10.6442
G01 X13.5505 Y-10.6519
G01 X13.5467 Y-10.6590
G01 X13.5416 Y-10.6652
G01 X13.5386 Y-10.6679
G01 X13.5354 Y-10.6703
G01 X13.5283 Y-10.6741
G01 X13.5206 Y-10.6764
G01 X13.5166 Y-10.6770
G01 X13.5086 Y-10.6770
G01 X13.5007 Y-10.6754
G01 X13.4969 Y-10.6741
G01 X13.4898 Y-10.6703
G01 X13.4866 Y-10.6679
G01 X13.4809 Y-10.6622
G01 X13.4785 Y-10.6590
G01 X13.4765 Y-10.6555
G01 X13.4734 Y-10.6481
G01 X13.4718 Y-10.6402
G01 X13.4715 Y-10.6345
G01 X13.4715 Y-9.8996
G01 X13.4712 Y-9.8927
G01 X13.4702 Y-9.8860
G01 X13.4686 Y-9.8793
G01 X13.4656 Y-9.8713
G01 X13.4608 Y-9.8623
G01 X13.4558 Y-9.8553
G01 X13.3712 Y-9.7565
G01 X13.3676 Y-9.7527
G01 X13.3625 Y-9.7480
G01 X13.3570 Y-9.7439
G01 X13.3511 Y-9.7403
G01 X13.3432 Y-9.7367
G01 X13.3350 Y-9.7341
G01 X13.1296 Y-9.6828
G01 X13.1212 Y-9.6812
G01 X13.1126 Y-9.6807
G01 X13.1040 Y-9.6812
G01 X13.0956 Y-9.6828
G01 X12.8903 Y-9.7341
G01 X12.8821 Y-9.7367
G01 X12.8742 Y-9.7403
G01 X12.8683 Y-9.7439
G01 X12.8628 Y-9.7480
G01 X12.8577 Y-9.7527
G01 X12.8541 Y-9.7565
G01 X12.7694 Y-9.8553
G01 X12.7644 Y-9.8623
G01 X12.7596 Y-9.8713
G01 X12.7566 Y-9.8794
G01 X12.7550 Y-9.8860
G01 X12.7540 Y-9.8928
G01 X12.7537 Y-9.8996
G01 X12.7537 Y-10.6345
G01 X12.7534 Y-10.6402
G01 X12.7528 Y-10.6442
G01 X12.7505 Y-10.6519
G01 X12.7467 Y-10.6590
G01 X12.7443 Y-10.6622
G01 X12.7416 Y-10.6652
G01 X12.7354 Y-10.6703
G01 X12.7319 Y-10.6723
G01 X12.7245 Y-10.6754
G01 X12.7206 Y-10.6764
G01 X12.7126 Y-10.6772
G01 X12.7086 Y-10.6770
G01 X12.7007 Y-10.6754
G01 X12.6969 Y-10.6741
G01 X12.6898 Y-10.6703
G01 X12.6866 Y-10.6679
G01 X12.6809 Y-10.6622
G01 X12.6765 Y-10.6555
G01 X12.6734 Y-10.6481
G01 X12.6718 Y-10.6402
G01 X12.6715 Y-10.6345
G01 X12.6715 Y-9.6379
G01 X12.6718 Y-9.6322
G01 X12.6724 Y-9.6282
G01 X12.6747 Y-9.6205
G01 X12.6785 Y-9.6134
G01 X12.6836 Y-9.6072
G01 X12.6898 Y-9.6021
G01 X12.6933 Y-9.6001
G01 X12.7007 Y-9.5970
G01 X12.7086 Y-9.5954
G01 X12.7126 Y-9.5952
G01 X12.7206 Y-9.5960
G01 X12.7283 Y-9.5983
G01 X12.7354 Y-9.6021
G01 X12.7386 Y-9.6045
G01 X12.7443 Y-9.6102
G01 X12.7487 Y-9.6169
G01 X12.7505 Y-9.6206
G00 Z2.0000
G00 X12.1827 Y-9.6379
G01 F60.00
G01 Z-0.0746
G01 F120.00
G01 X12.1836 Y-9.6282
G01 X12.1859 Y-9.6205
G01 X12.1897 Y-9.6134
G01 X12.1948 Y-9.6072
G01 X12.2010 Y-9.6021
G01 X12.2081 Y-9.5983
G01 X12.2158 Y-9.5960
G01 X12.2238 Y-9.5952
G01 X12.2318 Y-9.5960
G01 X12.2395 Y-9.5983
G01 X12.2466 Y-9.6021
G01 X12.2528 Y-9.6072
G01 X12.2579 Y-9.6134
G01 X12.2617 Y-9.6205
G01 X12.2640 Y-9.6282
G01 X12.2649 Y-9.6379
G01 X12.2649 Y-10.6345
G01 X12.2640 Y-10.6442
G01 X12.2617 Y-10.6519
G01 X12.2579 Y-10.6590
G01 X12.2528 Y-10.6652
G01 X12.2466 Y-10.6703
G01 X12.2395 Y-10.6741
G01 X12.2318 Y-10.6764
G01 X12.2238 Y-10.6772
G01 X12.2158 Y-10.6764
G01 X12.2081 Y-10.6741
G01 X12.2010 Y-10.6703
G01 X12.1948 Y-10.6652
G01 X12.1897 Y-10.6590
G01 X12.1859 Y-10.6519
G01 X12.1836 Y-10.6442
G01 X12.1827 Y-10.6345
G01 X12.1827 Y-9.6379
G00 Z2.0000
M05
G00 Z2.0000
G00 Z15.00
