(G-CODE GENERATED BY FLATCAM v8.994 - www.flatcam.org - Version Date: 2020/11/7)

(Name: maket_trakt_Ф1_верх.gbr_iso_combined_cnc)
(Type: G-code from Geometry)
(Units: MM)

(Created on Wednesday, 31 January 2024 at 23:18)

(This preprocessor is the default preprocessor used by FlatCAM.)
(It is made to work with MACH3 compatible motion controllers.)

(TOOL DIAMETER: 0.13 mm)
(Feedrate_XY: 120.0 mm/min)
(Feedrate_Z: 60.0 mm/min)
(Feedrate rapids 1500.0 mm/min)

(Z_Cut: -0.056 mm)
(Z_Move: 2.0 mm)
(Z Start: None mm)
(Z End: 30.0 mm)
(X,Y End: 0.0000, 0.0000 mm)
(Steps per circle: 64)
(Preprocessor Geometry: default)

(X range:    2.5697 ...   67.7969  mm)
(Y range:  -47.6344 ...   -2.1017  mm)

(Spindle Speed: 10000.0 RPM)
G21
G90
G94

G01 F120.00

M5
G00 Z30.0000
G00 X0.0000 Y0.0000
T1
M6    
(MSG, Change to Tool Dia = 0.1300)
M0
G00 Z30.0000

M03 S10000.0
G01 F120.00
G00 X3.8442 Y-4.9530
G01 F60.00
G01 Z-0.0560
G01 F120.00
G01 X3.8503 Y-4.9533
G01 X3.8591 Y-4.9551
G01 X3.8675 Y-4.9586
G01 X3.8750 Y-4.9636
G01 X3.8813 Y-4.9699
G01 X3.8863 Y-4.9774
G01 X3.8898 Y-4.9858
G01 X3.8916 Y-4.9946
G01 X3.8916 Y-5.0036
G01 X3.8898 Y-5.0124
G01 X3.8863 Y-5.0208
G01 X3.8813 Y-5.0283
G01 X3.8750 Y-5.0346
G01 X3.8675 Y-5.0396
G01 X3.8591 Y-5.0431
G01 X3.8548 Y-5.0442
G01 X3.8503 Y-5.0449
G01 X3.8442 Y-5.0452
G01 X3.4203 Y-5.0452
G01 X3.4092 Y-5.0467
G01 X3.4031 Y-5.0484
G01 X3.3971 Y-5.0507
G01 X3.3914 Y-5.0536
G01 X3.3860 Y-5.0570
G01 X3.3775 Y-5.0642
G01 X3.3703 Y-5.0727
G01 X3.3669 Y-5.0781
G01 X3.3640 Y-5.0838
G01 X3.3604 Y-5.0944
G01 X3.3592 Y-5.1006
G01 X3.3585 Y-5.1070
G01 X3.3585 Y-5.4419
G01 X3.3582 Y-5.4480
G01 X3.3575 Y-5.4525
G01 X3.3549 Y-5.4611
G01 X3.3529 Y-5.4652
G01 X3.3479 Y-5.4727
G01 X3.3416 Y-5.4790
G01 X3.3341 Y-5.4840
G01 X3.3257 Y-5.4875
G01 X3.3169 Y-5.4893
G01 X3.3124 Y-5.4895
G01 X3.3034 Y-5.4886
G01 X3.2991 Y-5.4875
G01 X3.2907 Y-5.4840
G01 X3.2832 Y-5.4790
G01 X3.2799 Y-5.4760
G01 X3.2742 Y-5.4690
G01 X3.2699 Y-5.4611
G01 X3.2673 Y-5.4525
G01 X3.2666 Y-5.4480
G01 X3.2663 Y-5.4419
G01 X3.2663 Y-5.1070
G01 X3.2654 Y-5.0990
G01 X3.2640 Y-5.0928
G01 X3.2620 Y-5.0868
G01 X3.2594 Y-5.0809
G01 X3.2563 Y-5.0754
G01 X3.2526 Y-5.0702
G01 X3.2484 Y-5.0653
G01 X3.2438 Y-5.0609
G01 X3.2348 Y-5.0544
G01 X3.2247 Y-5.0495
G01 X3.2140 Y-5.0464
G01 X3.2029 Y-5.0452
G01 X2.7807 Y-5.0452
G01 X2.7746 Y-5.0449
G01 X2.7658 Y-5.0431
G01 X2.7574 Y-5.0396
G01 X2.7499 Y-5.0346
G01 X2.7436 Y-5.0283
G01 X2.7386 Y-5.0208
G01 X2.7351 Y-5.0124
G01 X2.7340 Y-5.0081
G01 X2.7331 Y-4.9991
G01 X2.7340 Y-4.9901
G01 X2.7366 Y-4.9815
G01 X2.7409 Y-4.9736
G01 X2.7466 Y-4.9666
G01 X2.7536 Y-4.9609
G01 X2.7615 Y-4.9566
G01 X2.7701 Y-4.9540
G01 X2.7746 Y-4.9533
G01 X2.7807 Y-4.9530
G01 X3.2029 Y-4.9530
G01 X3.2140 Y-4.9518
G01 X3.2247 Y-4.9487
G01 X3.2348 Y-4.9438
G01 X3.2438 Y-4.9373
G01 X3.2484 Y-4.9329
G01 X3.2526 Y-4.9280
G01 X3.2563 Y-4.9228
G01 X3.2594 Y-4.9173
G01 X3.2620 Y-4.9114
G01 X3.2640 Y-4.9054
G01 X3.2656 Y-4.8976
G01 X3.2663 Y-4.8912
G01 X3.2663 Y-4.5562
G01 X3.2666 Y-4.5501
G01 X3.2673 Y-4.5456
G01 X3.2699 Y-4.5370
G01 X3.2719 Y-4.5329
G01 X3.2769 Y-4.5254
G01 X3.2832 Y-4.5191
G01 X3.2907 Y-4.5141
G01 X3.2991 Y-4.5106
G01 X3.3079 Y-4.5088
G01 X3.3124 Y-4.5086
G01 X3.3214 Y-4.5095
G01 X3.3257 Y-4.5106
G01 X3.3341 Y-4.5141
G01 X3.3416 Y-4.5191
G01 X3.3449 Y-4.5221
G01 X3.3506 Y-4.5291
G01 X3.3549 Y-4.5370
G01 X3.3575 Y-4.5456
G01 X3.3582 Y-4.5501
G01 X3.3585 Y-4.5562
G01 X3.3586 Y-4.8928
G01 X3.3594 Y-4.8992
G01 X3.3608 Y-4.9054
G01 X3.3628 Y-4.9114
G01 X3.3654 Y-4.9173
G01 X3.3685 Y-4.9228
G01 X3.3722 Y-4.9280
G01 X3.3775 Y-4.9340
G01 X3.3822 Y-4.9383
G01 X3.3900 Y-4.9438
G01 X3.4001 Y-4.9487
G01 X3.4108 Y-4.9518
G01 X3.4219 Y-4.9530
G01 X3.8442 Y-4.9530
G00 Z2.0000
G00 X4.9141 Y-4.1102
G01 F60.00
G01 Z-0.0560
G01 F120.00
G01 X4.9141 Y-5.7752
G01 X4.9138 Y-5.7813
G01 X4.9131 Y-5.7858
G01 X4.9105 Y-5.7944
G01 X4.9062 Y-5.8023
G01 X4.9005 Y-5.8093
G01 X4.8935 Y-5.8150
G01 X4.8856 Y-5.8193
G01 X4.8770 Y-5.8219
G01 X4.8680 Y-5.8228
G01 X4.8590 Y-5.8219
G01 X4.8504 Y-5.8193
G01 X4.8425 Y-5.8150
G01 X4.8355 Y-5.8093
G01 X4.8298 Y-5.8023
G01 X4.8255 Y-5.7944
G01 X4.8229 Y-5.7858
G01 X4.8222 Y-5.7813
G01 X4.8219 Y-5.7752
G01 X4.8219 Y-4.1102
G01 X4.8212 Y-4.1006
G01 X4.8191 Y-4.0913
G01 X4.8157 Y-4.0824
G01 X4.8110 Y-4.0740
G01 X4.8051 Y-4.0665
G01 X4.7982 Y-4.0599
G01 X4.7904 Y-4.0544
G01 X4.7818 Y-4.0501
G01 X4.7727 Y-4.0471
G01 X4.7633 Y-4.0455
G01 X4.7569 Y-4.0452
G01 X4.3363 Y-4.0452
G01 X4.3302 Y-4.0449
G01 X4.3257 Y-4.0442
G01 X4.3171 Y-4.0416
G01 X4.3092 Y-4.0373
G01 X4.3022 Y-4.0316
G01 X4.2965 Y-4.0246
G01 X4.2922 Y-4.0167
G01 X4.2896 Y-4.0081
G01 X4.2887 Y-3.9991
G01 X4.2896 Y-3.9901
G01 X4.2922 Y-3.9815
G01 X4.2965 Y-3.9736
G01 X4.2992 Y-3.9699
G01 X4.3055 Y-3.9636
G01 X4.3130 Y-3.9586
G01 X4.3214 Y-3.9551
G01 X4.3302 Y-3.9533
G01 X4.3363 Y-3.9530
G01 X5.3998 Y-3.9530
G01 X5.4059 Y-3.9533
G01 X5.4147 Y-3.9551
G01 X5.4231 Y-3.9586
G01 X5.4306 Y-3.9636
G01 X5.4369 Y-3.9699
G01 X5.4419 Y-3.9774
G01 X5.4454 Y-3.9858
G01 X5.4465 Y-3.9901
G01 X5.4474 Y-3.9991
G01 X5.4465 Y-4.0081
G01 X5.4454 Y-4.0124
G01 X5.4419 Y-4.0208
G01 X5.4369 Y-4.0283
G01 X5.4306 Y-4.0346
G01 X5.4231 Y-4.0396
G01 X5.4147 Y-4.0431
G01 X5.4059 Y-4.0449
G01 X5.3998 Y-4.0452
G01 X4.9791 Y-4.0452
G01 X4.9727 Y-4.0455
G01 X4.9648 Y-4.0467
G01 X4.9542 Y-4.0501
G01 X4.9443 Y-4.0552
G01 X4.9354 Y-4.0620
G01 X4.9278 Y-4.0702
G01 X4.9217 Y-4.0795
G01 X4.9179 Y-4.0883
G01 X4.9150 Y-4.0990
G01 X4.9141 Y-4.1102
G00 Z2.0000
G00 X7.2595 Y-5.7479
G01 F60.00
G01 Z-0.0560
G01 F120.00
G01 X7.2629 Y-5.7530
G01 X7.2668 Y-5.7611
G01 X7.2690 Y-5.7698
G01 X7.2695 Y-5.7788
G01 X7.2683 Y-5.7877
G01 X7.2653 Y-5.7962
G01 X7.2607 Y-5.8040
G01 X7.2547 Y-5.8107
G01 X7.2474 Y-5.8161
G01 X7.2393 Y-5.8200
G01 X7.2306 Y-5.8222
G01 X7.2216 Y-5.8227
G01 X7.2127 Y-5.8215
G01 X7.2042 Y-5.8185
G01 X7.1964 Y-5.8139
G01 X7.1897 Y-5.8079
G01 X7.1858 Y-5.8032
G01 X6.6080 Y-5.0328
G01 X6.6027 Y-5.0269
G01 X6.5967 Y-5.0216
G01 X6.5902 Y-5.0172
G01 X6.5831 Y-5.0136
G01 X6.5757 Y-5.0108
G01 X6.5680 Y-5.0090
G01 X6.5601 Y-5.0081
G01 X6.5538 Y-5.0081
G01 X6.5459 Y-5.0090
G01 X6.5397 Y-5.0104
G01 X6.5322 Y-5.0129
G01 X6.5265 Y-5.0156
G01 X6.5210 Y-5.0189
G01 X6.5159 Y-5.0226
G01 X6.5101 Y-5.0280
G01 X6.5059 Y-5.0328
G01 X5.9281 Y-5.8032
G01 X5.9242 Y-5.8079
G01 X5.9175 Y-5.8139
G01 X5.9097 Y-5.8185
G01 X5.9012 Y-5.8215
G01 X5.8968 Y-5.8223
G01 X5.8878 Y-5.8227
G01 X5.8789 Y-5.8213
G01 X5.8704 Y-5.8183
G01 X5.8627 Y-5.8136
G01 X5.8561 Y-5.8075
G01 X5.8532 Y-5.8040
G01 X5.8486 Y-5.7962
G01 X5.8456 Y-5.7877
G01 X5.8444 Y-5.7788
G01 X5.8444 Y-5.7743
G01 X5.8458 Y-5.7654
G01 X5.8471 Y-5.7611
G01 X5.8510 Y-5.7530
G01 X5.8544 Y-5.7479
G01 X6.4701 Y-4.9270
G01 X6.4753 Y-4.9188
G01 X6.4798 Y-4.9085
G01 X6.4824 Y-4.8976
G01 X6.4831 Y-4.8880
G01 X6.4824 Y-4.8783
G01 X6.4798 Y-4.8674
G01 X6.4761 Y-4.8585
G01 X6.4711 Y-4.8502
G01 X5.8544 Y-4.0280
G01 X5.8510 Y-4.0229
G01 X5.8471 Y-4.0148
G01 X5.8449 Y-4.0061
G01 X5.8444 Y-3.9971
G01 X5.8456 Y-3.9882
G01 X5.8469 Y-3.9838
G01 X5.8507 Y-3.9757
G01 X5.8561 Y-3.9684
G01 X5.8627 Y-3.9623
G01 X5.8704 Y-3.9576
G01 X5.8789 Y-3.9546
G01 X5.8878 Y-3.9532
G01 X5.8968 Y-3.9536
G01 X5.9056 Y-3.9557
G01 X5.9137 Y-3.9595
G01 X5.9210 Y-3.9649
G01 X5.9242 Y-3.9680
G01 X5.9281 Y-3.9727
G01 X6.5059 Y-4.7431
G01 X6.5112 Y-4.7490
G01 X6.5172 Y-4.7543
G01 X6.5237 Y-4.7587
G01 X6.5293 Y-4.7617
G01 X6.5352 Y-4.7641
G01 X6.5428 Y-4.7663
G01 X6.5506 Y-4.7676
G01 X6.5569 Y-4.7679
G01 X6.5633 Y-4.7676
G01 X6.5711 Y-4.7663
G01 X6.5787 Y-4.7641
G01 X6.5846 Y-4.7617
G01 X6.5915 Y-4.7579
G01 X6.5967 Y-4.7543
G01 X6.6027 Y-4.7490
G01 X6.6080 Y-4.7431
G01 X7.1858 Y-3.9727
G01 X7.1897 Y-3.9680
G01 X7.1929 Y-3.9649
G01 X7.2002 Y-3.9595
G01 X7.2083 Y-3.9557
G01 X7.2171 Y-3.9536
G01 X7.2261 Y-3.9532
G01 X7.2350 Y-3.9546
G01 X7.2435 Y-3.9576
G01 X7.2512 Y-3.9623
G01 X7.2578 Y-3.9684
G01 X7.2607 Y-3.9719
G01 X7.2632 Y-3.9757
G01 X7.2670 Y-3.9838
G01 X7.2691 Y-3.9926
G01 X7.2695 Y-4.0016
G01 X7.2681 Y-4.0105
G01 X7.2668 Y-4.0148
G01 X7.2629 Y-4.0229
G01 X7.2595 Y-4.0280
G01 X6.6438 Y-4.8489
G01 X6.6386 Y-4.8571
G01 X6.6341 Y-4.8674
G01 X6.6317 Y-4.8767
G01 X6.6308 Y-4.8880
G01 X6.6317 Y-4.8992
G01 X6.6341 Y-4.9085
G01 X6.6386 Y-4.9188
G01 X6.6438 Y-4.9270
G01 X7.2595 Y-5.7479
G00 Z2.0000
G00 X10.3188 Y-7.5407
G01 F60.00
G01 Z-0.0560
G01 F120.00
G01 X10.3180 Y-7.5484
G01 X10.3158 Y-7.5559
G01 X10.3121 Y-7.5627
G01 X10.3072 Y-7.5688
G01 X10.3011 Y-7.5737
G01 X10.2943 Y-7.5774
G01 X10.2868 Y-7.5796
G01 X10.2791 Y-7.5804
G01 X10.2714 Y-7.5796
G01 X10.2639 Y-7.5774
G01 X10.2571 Y-7.5737
G01 X10.2510 Y-7.5688
G01 X10.2461 Y-7.5627
G01 X10.2424 Y-7.5559
G01 X10.2402 Y-7.5484
G01 X10.2394 Y-7.5407
G01 X10.2402 Y-7.5330
G01 X10.2424 Y-7.5255
G01 X10.2461 Y-7.5187
G01 X10.2510 Y-7.5126
G01 X10.2571 Y-7.5077
G01 X10.2639 Y-7.5040
G01 X10.2714 Y-7.5018
G01 X10.2791 Y-7.5010
G01 X10.2868 Y-7.5018
G01 X10.2943 Y-7.5040
G01 X10.3011 Y-7.5077
G01 X10.3072 Y-7.5126
G01 X10.3121 Y-7.5187
G01 X10.3158 Y-7.5255
G01 X10.3180 Y-7.5330
G01 X10.3188 Y-7.5407
G00 Z2.0000
G00 X10.4164 Y-7.5407
G01 F60.00
G01 Z-0.0560
G01 F120.00
G01 X10.4157 Y-7.5542
G01 X10.4138 Y-7.5675
G01 X10.4105 Y-7.5806
G01 X10.4060 Y-7.5932
G01 X10.4002 Y-7.6054
G01 X10.3933 Y-7.6170
G01 X10.3852 Y-7.6278
G01 X10.3762 Y-7.6378
G01 X10.3662 Y-7.6468
G01 X10.3554 Y-7.6549
G01 X10.3438 Y-7.6618
G01 X10.3316 Y-7.6676
G01 X10.3190 Y-7.6721
G01 X10.3059 Y-7.6754
G01 X10.2926 Y-7.6773
G01 X10.2791 Y-7.6780
G01 X10.2656 Y-7.6773
G01 X10.2523 Y-7.6754
G01 X10.2392 Y-7.6721
G01 X10.2266 Y-7.6676
G01 X10.2144 Y-7.6618
G01 X10.2028 Y-7.6549
G01 X10.1920 Y-7.6468
G01 X10.1820 Y-7.6378
G01 X10.1730 Y-7.6278
G01 X10.1649 Y-7.6170
G01 X10.1580 Y-7.6054
G01 X10.1522 Y-7.5932
G01 X10.1477 Y-7.5806
G01 X10.1444 Y-7.5675
G01 X10.1425 Y-7.5542
G01 X10.1418 Y-7.5407
G01 X10.1425 Y-7.5272
G01 X10.1444 Y-7.5139
G01 X10.1477 Y-7.5008
G01 X10.1522 Y-7.4882
G01 X10.1580 Y-7.4760
G01 X10.1649 Y-7.4644
G01 X10.1730 Y-7.4536
G01 X10.1820 Y-7.4436
G01 X10.1920 Y-7.4346
G01 X10.2028 Y-7.4265
G01 X10.2144 Y-7.4196
G01 X10.2266 Y-7.4138
G01 X10.2392 Y-7.4093
G01 X10.2523 Y-7.4060
G01 X10.2656 Y-7.4041
G01 X10.2791 Y-7.4034
G01 X10.2926 Y-7.4041
G01 X10.3059 Y-7.4060
G01 X10.3190 Y-7.4093
G01 X10.3316 Y-7.4138
G01 X10.3438 Y-7.4196
G01 X10.3554 Y-7.4265
G01 X10.3662 Y-7.4346
G01 X10.3762 Y-7.4436
G01 X10.3852 Y-7.4536
G01 X10.3933 Y-7.4644
G01 X10.4002 Y-7.4760
G01 X10.4060 Y-7.4882
G01 X10.4105 Y-7.5008
G01 X10.4138 Y-7.5139
G01 X10.4157 Y-7.5272
G01 X10.4164 Y-7.5407
G00 Z2.0000
G00 X10.5140 Y-7.5407
G01 F60.00
G01 Z-0.0560
G01 F120.00
G01 X10.5129 Y-7.5637
G01 X10.5095 Y-7.5865
G01 X10.5039 Y-7.6089
G01 X10.4961 Y-7.6306
G01 X10.4863 Y-7.6514
G01 X10.4744 Y-7.6712
G01 X10.4607 Y-7.6897
G01 X10.4452 Y-7.7068
G01 X10.4281 Y-7.7223
G01 X10.4096 Y-7.7360
G01 X10.3898 Y-7.7479
G01 X10.3690 Y-7.7577
G01 X10.3473 Y-7.7655
G01 X10.3249 Y-7.7711
G01 X10.3021 Y-7.7745
G01 X10.2791 Y-7.7756
G01 X10.2561 Y-7.7745
G01 X10.2333 Y-7.7711
G01 X10.2109 Y-7.7655
G01 X10.1892 Y-7.7577
G01 X10.1684 Y-7.7479
G01 X10.1486 Y-7.7360
G01 X10.1301 Y-7.7223
G01 X10.1130 Y-7.7068
G01 X10.0975 Y-7.6897
G01 X10.0838 Y-7.6712
G01 X10.0719 Y-7.6514
G01 X10.0621 Y-7.6306
G01 X10.0543 Y-7.6089
G01 X10.0487 Y-7.5865
G01 X10.0453 Y-7.5637
G01 X10.0442 Y-7.5407
G01 X10.0453 Y-7.5177
G01 X10.0487 Y-7.4949
G01 X10.0543 Y-7.4725
G01 X10.0621 Y-7.4508
G01 X10.0719 Y-7.4300
G01 X10.0838 Y-7.4102
G01 X10.0975 Y-7.3917
G01 X10.1130 Y-7.3746
G01 X10.1301 Y-7.3591
G01 X10.1486 Y-7.3454
G01 X10.1684 Y-7.3335
G01 X10.1892 Y-7.3237
G01 X10.2109 Y-7.3159
G01 X10.2333 Y-7.3103
G01 X10.2561 Y-7.3069
G01 X10.2791 Y-7.3058
G01 X10.3021 Y-7.3069
G01 X10.3249 Y-7.3103
G01 X10.3473 Y-7.3159
G01 X10.3690 Y-7.3237
G01 X10.3898 Y-7.3335
G01 X10.4096 Y-7.3454
G01 X10.4281 Y-7.3591
G01 X10.4452 Y-7.3746
G01 X10.4607 Y-7.3917
G01 X10.4744 Y-7.4102
G01 X10.4863 Y-7.4300
G01 X10.4961 Y-7.4508
G01 X10.5039 Y-7.4725
G01 X10.5095 Y-7.4949
G01 X10.5129 Y-7.5177
G01 X10.5140 Y-7.5407
G00 Z2.0000
G00 X12.3082 Y-8.2516
G01 F60.00
G01 Z-0.0560
G01 F120.00
G01 X13.7082 Y-8.2516
G01 X13.7146 Y-8.2513
G01 X13.7224 Y-8.2500
G01 X13.7301 Y-8.2478
G01 X13.7374 Y-8.2447
G01 X13.7443 Y-8.2406
G01 X13.7507 Y-8.2358
G01 X13.7574 Y-8.2291
G01 X13.7622 Y-8.2227
G01 X13.7670 Y-8.2144
G01 X13.7699 Y-8.2070
G01 X13.7722 Y-8.1977
G01 X13.7731 Y-8.1898
G01 X13.7732 Y-7.5156
G01 X14.2404 Y-7.2889
G01 X14.2404 Y-7.3932
G01 X14.2414 Y-7.4027
G01 X14.2442 Y-7.4135
G01 X14.2473 Y-7.4208
G01 X14.2523 Y-7.4290
G01 X14.2583 Y-7.4364
G01 X14.2654 Y-7.4428
G01 X14.2734 Y-7.4482
G01 X14.2820 Y-7.4522
G01 X14.2912 Y-7.4550
G01 X14.2990 Y-7.4563
G01 X14.3054 Y-7.4566
G01 X15.6054 Y-7.4566
G01 X15.6165 Y-7.4556
G01 X15.6258 Y-7.4533
G01 X15.6346 Y-7.4497
G01 X15.6441 Y-7.4438
G01 X15.6502 Y-7.4387
G01 X15.6546 Y-7.4341
G01 X15.6594 Y-7.4277
G01 X15.6635 Y-7.4208
G01 X15.6666 Y-7.4135
G01 X15.6688 Y-7.4058
G01 X15.6701 Y-7.3980
G01 X15.6704 Y-7.3916
G01 X15.6704 Y-5.7916
G01 X15.6697 Y-5.7821
G01 X15.6671 Y-5.7712
G01 X15.6635 Y-5.7624
G01 X15.6576 Y-5.7529
G01 X15.6525 Y-5.7468
G01 X15.6466 Y-5.7414
G01 X15.6415 Y-5.7376
G01 X15.6346 Y-5.7335
G01 X15.6288 Y-5.7310
G01 X15.6212 Y-5.7285
G01 X15.6149 Y-5.7273
G01 X15.6070 Y-5.7266
G01 X14.3054 Y-5.7266
G01 X14.2990 Y-5.7269
G01 X14.2896 Y-5.7285
G01 X14.2805 Y-5.7315
G01 X14.2734 Y-5.7350
G01 X14.2654 Y-5.7404
G01 X14.2583 Y-5.7468
G01 X14.2532 Y-5.7529
G01 X14.2481 Y-5.7610
G01 X14.2442 Y-5.7697
G01 X14.2416 Y-5.7789
G01 X14.2404 Y-5.7900
G01 X14.2404 Y-5.8899
G01 X13.7732 Y-5.6608
G01 X13.7731 Y-4.9834
G01 X13.7722 Y-4.9755
G01 X13.7699 Y-4.9662
G01 X13.7670 Y-4.9588
G01 X13.7622 Y-4.9505
G01 X13.7574 Y-4.9441
G01 X13.7507 Y-4.9374
G01 X13.7443 Y-4.9326
G01 X13.7360 Y-4.9278
G01 X13.7301 Y-4.9254
G01 X13.7224 Y-4.9232
G01 X13.7146 Y-4.9219
G01 X13.7082 Y-4.9216
G01 X12.3082 Y-4.9216
G01 X12.2987 Y-4.9223
G01 X12.2878 Y-4.9249
G01 X12.2776 Y-4.9293
G01 X12.2695 Y-4.9344
G01 X12.2634 Y-4.9395
G01 X12.2580 Y-4.9454
G01 X12.2533 Y-4.9518
G01 X12.2501 Y-4.9574
G01 X12.2470 Y-4.9647
G01 X12.2448 Y-4.9724
G01 X12.2435 Y-4.9802
G01 X12.2432 Y-4.9866
G01 X12.2432 Y-6.2882
G01 X12.2439 Y-6.2961
G01 X12.2451 Y-6.3024
G01 X12.2470 Y-6.3085
G01 X12.2494 Y-6.3144
G01 X12.2533 Y-6.3214
G01 X12.2570 Y-6.3266
G01 X12.2611 Y-6.3314
G01 X12.2657 Y-6.3358
G01 X12.2708 Y-6.3397
G01 X12.2762 Y-6.3432
G01 X12.2863 Y-6.3478
G01 X12.2971 Y-6.3506
G01 X12.3082 Y-6.3516
G01 X13.7082 Y-6.3516
G01 X13.7162 Y-6.3511
G01 X13.7224 Y-6.3500
G01 X13.7301 Y-6.3478
G01 X13.7368 Y-6.3449
G01 X14.2367 Y-6.5901
G01 X13.7412 Y-6.8306
G01 X13.7331 Y-6.8265
G01 X13.7255 Y-6.8240
G01 X13.7177 Y-6.8223
G01 X13.7082 Y-6.8216
G01 X12.3082 Y-6.8216
G01 X12.3018 Y-6.8219
G01 X12.2955 Y-6.8228
G01 X12.2848 Y-6.8260
G01 X12.2748 Y-6.8308
G01 X12.2657 Y-6.8374
G01 X12.2611 Y-6.8418
G01 X12.2570 Y-6.8466
G01 X12.2533 Y-6.8518
G01 X12.2494 Y-6.8588
G01 X12.2470 Y-6.8647
G01 X12.2448 Y-6.8724
G01 X12.2437 Y-6.8786
G01 X12.2432 Y-6.8850
G01 X12.2432 Y-8.1882
G01 X12.2437 Y-8.1946
G01 X12.2448 Y-8.2008
G01 X12.2465 Y-8.2070
G01 X12.2488 Y-8.2129
G01 X12.2516 Y-8.2186
G01 X12.2551 Y-8.2240
G01 X12.2622 Y-8.2326
G01 X12.2670 Y-8.2368
G01 X12.2721 Y-8.2406
G01 X12.2776 Y-8.2439
G01 X12.2833 Y-8.2467
G01 X12.2893 Y-8.2488
G01 X12.2955 Y-8.2504
G01 X12.3018 Y-8.2513
G01 X12.3082 Y-8.2516
G00 Z2.0000
G00 X13.8432 Y-8.3216
G01 F60.00
G01 Z-0.0560
G01 F120.00
G01 X12.1732 Y-8.3216
G01 X12.1732 Y-6.7516
G01 X13.7285 Y-6.7516
G01 X13.7350 Y-6.7513
G01 X13.7446 Y-6.7496
G01 X13.7554 Y-6.7458
G01 X13.9570 Y-6.6479
G01 X13.9626 Y-6.6449
G01 X13.9703 Y-6.6393
G01 X13.9761 Y-6.6338
G01 X13.9812 Y-6.6277
G01 X13.9855 Y-6.6209
G01 X13.9889 Y-6.6137
G01 X13.9918 Y-6.6046
G01 X13.9932 Y-6.5968
G01 X13.9936 Y-6.5888
G01 X13.9930 Y-6.5809
G01 X13.9915 Y-6.5730
G01 X13.9884 Y-6.5640
G01 X13.9848 Y-6.5569
G01 X13.9804 Y-6.5502
G01 X13.9752 Y-6.5442
G01 X13.9693 Y-6.5388
G01 X13.9628 Y-6.5342
G01 X13.9572 Y-6.5311
G01 X13.7461 Y-6.4276
G01 X13.7358 Y-6.4239
G01 X13.7251 Y-6.4219
G01 X13.7189 Y-6.4216
G01 X12.1732 Y-6.4216
G01 X12.1732 Y-4.8516
G01 X13.8432 Y-4.8516
G01 X13.8432 Y-5.5765
G01 X13.8439 Y-5.5862
G01 X13.8456 Y-5.5940
G01 X13.8476 Y-5.6001
G01 X13.8503 Y-5.6060
G01 X13.8535 Y-5.6116
G01 X13.8572 Y-5.6169
G01 X13.8614 Y-5.6217
G01 X13.8661 Y-5.6261
G01 X13.8753 Y-5.6326
G01 X14.0768 Y-5.7316
G01 X14.0841 Y-5.7347
G01 X14.0917 Y-5.7368
G01 X14.0996 Y-5.7380
G01 X14.1075 Y-5.7382
G01 X14.1154 Y-5.7375
G01 X14.1231 Y-5.7358
G01 X14.1306 Y-5.7332
G01 X14.1377 Y-5.7296
G01 X14.1456 Y-5.7243
G01 X14.1515 Y-5.7190
G01 X14.1568 Y-5.7131
G01 X14.1612 Y-5.7065
G01 X14.1649 Y-5.6995
G01 X14.1676 Y-5.6920
G01 X14.1692 Y-5.6859
G01 X14.1702 Y-5.6780
G01 X14.1704 Y-5.6566
G01 X15.7404 Y-5.6566
G01 X15.7404 Y-7.5266
G01 X14.1704 Y-7.5266
G01 X14.1702 Y-7.4998
G01 X14.1691 Y-7.4918
G01 X14.1676 Y-7.4856
G01 X14.1641 Y-7.4766
G01 X14.1602 Y-7.4696
G01 X14.1555 Y-7.4632
G01 X14.1489 Y-7.4562
G01 X14.1412 Y-7.4503
G01 X14.1329 Y-7.4456
G01 X14.1254 Y-7.4427
G01 X14.1161 Y-7.4404
G01 X14.1081 Y-7.4396
G01 X14.0985 Y-7.4399
G01 X14.0890 Y-7.4417
G01 X14.0799 Y-7.4448
G01 X13.8756 Y-7.5440
G01 X13.8703 Y-7.5474
G01 X13.8654 Y-7.5514
G01 X13.8608 Y-7.5558
G01 X13.8567 Y-7.5606
G01 X13.8531 Y-7.5658
G01 X13.8500 Y-7.5713
G01 X13.8475 Y-7.5771
G01 X13.8455 Y-7.5831
G01 X13.8439 Y-7.5908
G01 X13.8432 Y-7.6003
G01 X13.8432 Y-8.3216
G00 Z2.0000
G00 X14.6857 Y-11.4491
G01 F60.00
G01 Z-0.0560
G01 F120.00
G01 X14.6857 Y-13.0507
G01 X14.6867 Y-13.0602
G01 X14.6890 Y-13.0695
G01 X14.6934 Y-13.0797
G01 X14.6985 Y-13.0878
G01 X14.7059 Y-13.0962
G01 X14.7133 Y-13.1022
G01 X14.7215 Y-13.1072
G01 X14.7318 Y-13.1113
G01 X14.7412 Y-13.1134
G01 X14.7507 Y-13.1141
G01 X16.3507 Y-13.1141
G01 X16.3602 Y-13.1134
G01 X16.3696 Y-13.1113
G01 X16.3785 Y-13.1079
G01 X16.3868 Y-13.1031
G01 X16.3944 Y-13.0973
G01 X16.4009 Y-13.0903
G01 X16.4065 Y-13.0825
G01 X16.4108 Y-13.0740
G01 X16.4138 Y-13.0649
G01 X16.4154 Y-13.0555
G01 X16.4157 Y-13.0491
G01 X16.4157 Y-12.6192
G01 X18.3320 Y-12.6192
G01 X18.3320 Y-12.9141
G01 X18.3325 Y-12.9221
G01 X18.3344 Y-12.9314
G01 X18.3376 Y-12.9404
G01 X18.3421 Y-12.9489
G01 X18.3478 Y-12.9566
G01 X18.3545 Y-12.9633
G01 X18.3622 Y-12.9690
G01 X18.3707 Y-12.9735
G01 X18.3797 Y-12.9767
G01 X18.3890 Y-12.9786
G01 X18.3970 Y-12.9791
G01 X19.4202 Y-12.9790
G01 X19.4312 Y-12.9775
G01 X19.4404 Y-12.9747
G01 X19.4490 Y-12.9707
G01 X19.4570 Y-12.9653
G01 X19.4641 Y-12.9589
G01 X19.4701 Y-12.9515
G01 X19.4751 Y-12.9433
G01 X19.4792 Y-12.9330
G01 X19.4813 Y-12.9236
G01 X19.4820 Y-12.9141
G01 X19.4820 Y-11.6925
G01 X19.4810 Y-11.6830
G01 X19.4782 Y-11.6722
G01 X19.4743 Y-11.6635
G01 X19.4692 Y-11.6554
G01 X19.4618 Y-11.6470
G01 X19.4544 Y-11.6410
G01 X19.4448 Y-11.6353
G01 X19.4359 Y-11.6319
G01 X19.4265 Y-11.6298
G01 X19.4170 Y-11.6291
G01 X18.3970 Y-11.6291
G01 X18.3859 Y-11.6301
G01 X18.3766 Y-11.6324
G01 X18.3678 Y-11.6360
G01 X18.3596 Y-11.6410
G01 X18.3522 Y-11.6470
G01 X18.3468 Y-11.6529
G01 X18.3412 Y-11.6607
G01 X18.3369 Y-11.6692
G01 X18.3339 Y-11.6783
G01 X18.3325 Y-11.6861
G01 X18.3320 Y-11.6941
G01 X18.3320 Y-11.9890
G01 X16.4157 Y-11.9890
G01 X16.4155 Y-11.4443
G01 X16.4141 Y-11.4349
G01 X16.4113 Y-11.4257
G01 X16.4073 Y-11.4171
G01 X16.4019 Y-11.4091
G01 X16.3944 Y-11.4009
G01 X16.3868 Y-11.3951
G01 X16.3785 Y-11.3903
G01 X16.3696 Y-11.3869
G01 X16.3602 Y-11.3848
G01 X16.3507 Y-11.3841
G01 X14.7475 Y-11.3842
G01 X14.7365 Y-11.3857
G01 X14.7303 Y-11.3874
G01 X14.7244 Y-11.3897
G01 X14.7187 Y-11.3925
G01 X14.7133 Y-11.3960
G01 X14.7082 Y-11.3999
G01 X14.7036 Y-11.4043
G01 X14.6995 Y-11.4091
G01 X14.6958 Y-11.4143
G01 X14.6926 Y-11.4199
G01 X14.6901 Y-11.4257
G01 X14.6881 Y-11.4318
G01 X14.6867 Y-11.4380
G01 X14.6857 Y-11.4491
G00 Z2.0000
G00 X13.8432 Y-12.1216
G01 F60.00
G01 Z-0.0560
G01 F120.00
G01 X12.1732 Y-12.1216
G01 X12.1732 Y-10.5516
G01 X12.5596 Y-10.5516
G01 X12.5675 Y-10.5509
G01 X12.5768 Y-10.5488
G01 X12.5843 Y-10.5460
G01 X12.5914 Y-10.5424
G01 X12.5980 Y-10.5378
G01 X12.6028 Y-10.5337
G01 X12.6082 Y-10.5278
G01 X12.6129 Y-10.5214
G01 X12.6160 Y-10.5158
G01 X12.6192 Y-10.5085
G01 X12.6210 Y-10.5024
G01 X12.6225 Y-10.4946
G01 X12.6230 Y-10.4866
G01 X12.6230 Y-10.2850
G01 X12.6217 Y-10.2739
G01 X12.6186 Y-10.2632
G01 X12.6137 Y-10.2532
G01 X12.6072 Y-10.2441
G01 X12.5992 Y-10.2364
G01 X12.5941 Y-10.2326
G01 X12.5886 Y-10.2293
G01 X12.5784 Y-10.2249
G01 X12.5675 Y-10.2223
G01 X12.5580 Y-10.2216
G01 X12.1732 Y-10.2216
G01 X12.1732 Y-9.9693
G01 X12.1725 Y-9.9598
G01 X12.1704 Y-9.9505
G01 X12.1670 Y-9.9415
G01 X12.1631 Y-9.9346
G01 X12.1574 Y-9.9269
G01 X12.1507 Y-9.9201
G01 X12.1430 Y-9.9144
G01 X12.1360 Y-9.9106
G01 X12.1271 Y-9.9071
G01 X12.1177 Y-9.9050
G01 X12.1082 Y-9.9043
G01 X8.8347 Y-9.9045
G01 X8.8253 Y-9.9059
G01 X8.8146 Y-9.9093
G01 X8.8047 Y-9.9144
G01 X8.7958 Y-9.9212
G01 X8.7883 Y-9.9293
G01 X8.7829 Y-9.9373
G01 X8.7783 Y-9.9474
G01 X8.7755 Y-9.9582
G01 X8.7745 Y-9.9693
G01 X8.7745 Y-10.2641
G01 X7.4845 Y-10.2641
G01 X7.4845 Y-8.7741
G01 X8.7745 Y-8.7741
G01 X8.7745 Y-9.0689
G01 X8.7755 Y-9.0800
G01 X8.7783 Y-9.0908
G01 X8.7829 Y-9.1009
G01 X8.7893 Y-9.1101
G01 X8.7958 Y-9.1170
G01 X8.8047 Y-9.1238
G01 X8.8146 Y-9.1289
G01 X8.8237 Y-9.1319
G01 X8.8347 Y-9.1337
G01 X12.1098 Y-9.1339
G01 X12.1162 Y-9.1334
G01 X12.1224 Y-9.1323
G01 X12.1331 Y-9.1289
G01 X12.1430 Y-9.1238
G01 X12.1519 Y-9.1170
G01 X12.1594 Y-9.1089
G01 X12.1631 Y-9.1036
G01 X12.1663 Y-9.0981
G01 X12.1704 Y-9.0877
G01 X12.1727 Y-9.0768
G01 X12.1732 Y-9.0689
G01 X12.1732 Y-8.6516
G01 X13.8432 Y-8.6516
G01 X13.8434 Y-8.9912
G01 X13.8444 Y-8.9991
G01 X13.8465 Y-9.0068
G01 X13.8494 Y-9.0142
G01 X13.8533 Y-9.0211
G01 X13.8580 Y-9.0276
G01 X13.8634 Y-9.0335
G01 X13.8695 Y-9.0386
G01 X13.8762 Y-9.0429
G01 X13.8833 Y-9.0464
G01 X13.8909 Y-9.0490
G01 X13.8987 Y-9.0507
G01 X13.9066 Y-9.0514
G01 X14.5523 Y-9.0514
G01 X14.5634 Y-9.0501
G01 X14.5741 Y-9.0470
G01 X14.5799 Y-9.0444
G01 X14.5855 Y-9.0413
G01 X14.5944 Y-9.0345
G01 X14.5989 Y-9.0300
G01 X14.6029 Y-9.0251
G01 X14.6088 Y-9.0156
G01 X14.6129 Y-9.0052
G01 X14.6152 Y-8.9943
G01 X14.6157 Y-8.9864
G01 X14.6157 Y-8.5141
G01 X16.4857 Y-8.5141
G01 X16.4858 Y-8.9896
G01 X16.4867 Y-8.9975
G01 X16.4881 Y-9.0037
G01 X16.4906 Y-9.0112
G01 X16.4941 Y-9.0184
G01 X16.4985 Y-9.0251
G01 X16.5036 Y-9.0312
G01 X16.5082 Y-9.0356
G01 X16.5146 Y-9.0404
G01 X16.5229 Y-9.0451
G01 X16.5318 Y-9.0486
G01 X16.5412 Y-9.0507
G01 X16.5491 Y-9.0514
G01 X17.2695 Y-9.0514
G01 X17.2806 Y-9.0501
G01 X17.2913 Y-9.0470
G01 X17.3013 Y-9.0421
G01 X17.3066 Y-9.0386
G01 X17.3116 Y-9.0345
G01 X17.3161 Y-9.0300
G01 X17.3201 Y-9.0251
G01 X17.3260 Y-9.0156
G01 X17.3301 Y-9.0052
G01 X17.3324 Y-8.9943
G01 X17.3329 Y-8.9864
G01 X17.3329 Y-8.5016
G01 X18.9029 Y-8.5016
G01 X18.9029 Y-10.3716
G01 X17.3329 Y-10.3716
G01 X17.3328 Y-9.8836
G01 X17.3319 Y-9.8757
G01 X17.3305 Y-9.8695
G01 X17.3280 Y-9.8620
G01 X17.3252 Y-9.8562
G01 X17.3219 Y-9.8507
G01 X17.3171 Y-9.8444
G01 X17.3116 Y-9.8387
G01 X17.3053 Y-9.8337
G01 X17.2971 Y-9.8288
G01 X17.2883 Y-9.8251
G01 X17.2790 Y-9.8228
G01 X17.2695 Y-9.8218
G01 X16.5507 Y-9.8218
G01 X16.5396 Y-9.8228
G01 X16.5288 Y-9.8256
G01 X16.5229 Y-9.8281
G01 X16.5173 Y-9.8311
G01 X16.5082 Y-9.8376
G01 X16.5036 Y-9.8420
G01 X16.4995 Y-9.8468
G01 X16.4934 Y-9.8562
G01 X16.4906 Y-9.8620
G01 X16.4885 Y-9.8680
G01 X16.4862 Y-9.8789
G01 X16.4857 Y-9.8868
G01 X16.4857 Y-10.3841
G01 X14.6157 Y-10.3841
G01 X14.6156 Y-9.8836
G01 X14.6150 Y-9.8773
G01 X14.6133 Y-9.8695
G01 X14.6113 Y-9.8634
G01 X14.6080 Y-9.8562
G01 X14.6047 Y-9.8507
G01 X14.5999 Y-9.8444
G01 X14.5955 Y-9.8397
G01 X14.5894 Y-9.8346
G01 X14.5813 Y-9.8295
G01 X14.5711 Y-9.8251
G01 X14.5602 Y-9.8225
G01 X14.5507 Y-9.8218
G01 X13.9066 Y-9.8218
G01 X13.8971 Y-9.8228
G01 X13.8878 Y-9.8251
G01 X13.8790 Y-9.8288
G01 X13.8708 Y-9.8337
G01 X13.8645 Y-9.8387
G01 X13.8600 Y-9.8432
G01 X13.8560 Y-9.8481
G01 X13.8516 Y-9.8548
G01 X13.8481 Y-9.8620
G01 X13.8460 Y-9.8680
G01 X13.8444 Y-9.8741
G01 X13.8434 Y-9.8820
G01 X13.8432 Y-10.2216
G01 X13.4584 Y-10.2216
G01 X13.4489 Y-10.2223
G01 X13.4380 Y-10.2249
G01 X13.4278 Y-10.2293
G01 X13.4184 Y-10.2354
G01 X13.4136 Y-10.2395
G01 X13.4092 Y-10.2441
G01 X13.4027 Y-10.2532
G01 X13.3978 Y-10.2632
G01 X13.3947 Y-10.2739
G01 X13.3937 Y-10.2802
G01 X13.3934 Y-10.2866
G01 X13.3934 Y-10.4866
G01 X13.3939 Y-10.4946
G01 X13.3954 Y-10.5024
G01 X13.3978 Y-10.5100
G01 X13.4004 Y-10.5158
G01 X13.4044 Y-10.5227
G01 X13.4082 Y-10.5278
G01 X13.4136 Y-10.5337
G01 X13.4184 Y-10.5378
G01 X13.4250 Y-10.5424
G01 X13.4321 Y-10.5460
G01 X13.4396 Y-10.5488
G01 X13.4473 Y-10.5506
G01 X13.4568 Y-10.5516
G01 X13.8432 Y-10.5516
G01 X13.8432 Y-12.1216
G00 Z2.0000
G00 X11.4066 Y-12.1117
G01 F60.00
G01 Z-0.0560
G01 F120.00
G01 X9.5366 Y-12.1117
G01 X9.5366 Y-11.6083
G01 X9.6066 Y-11.6083
G01 X9.6066 Y-11.9767
G01 X9.6073 Y-11.9862
G01 X9.6099 Y-11.9971
G01 X9.6143 Y-12.0073
G01 X9.6176 Y-12.0128
G01 X9.6214 Y-12.0179
G01 X9.6291 Y-12.0259
G01 X9.6382 Y-12.0325
G01 X9.6482 Y-12.0373
G01 X9.6589 Y-12.0405
G01 X9.6652 Y-12.0414
G01 X9.6716 Y-12.0417
G01 X11.2716 Y-12.0417
G01 X11.2796 Y-12.0412
G01 X11.2874 Y-12.0398
G01 X11.2965 Y-12.0368
G01 X11.3050 Y-12.0325
G01 X11.3128 Y-12.0269
G01 X11.3198 Y-12.0204
G01 X11.3256 Y-12.0128
G01 X11.3304 Y-12.0045
G01 X11.3338 Y-11.9956
G01 X11.3361 Y-11.9847
G01 X11.3366 Y-11.9767
G01 X11.3366 Y-11.6083
G01 X11.4066 Y-11.6083
G01 X11.4066 Y-12.1117
G00 Z2.0000
G00 X11.4066 Y-11.0450
G01 F60.00
G01 Z-0.0560
G01 F120.00
G01 X11.3366 Y-11.0450
G01 X11.3365 Y-10.6735
G01 X11.3359 Y-10.6672
G01 X11.3347 Y-10.6609
G01 X11.3322 Y-10.6533
G01 X11.3297 Y-10.6475
G01 X11.3256 Y-10.6406
G01 X11.3218 Y-10.6355
G01 X11.3164 Y-10.6296
G01 X11.3116 Y-10.6255
G01 X11.3036 Y-10.6201
G01 X11.2935 Y-10.6155
G01 X11.2843 Y-10.6129
G01 X11.2732 Y-10.6117
G01 X10.7533 Y-10.6117
G01 X10.7533 Y-10.5417
G01 X11.4066 Y-10.5417
G01 X11.4066 Y-11.0450
G00 Z2.0000
G00 X10.1900 Y-10.5417
G01 F60.00
G01 Z-0.0560
G01 F120.00
G01 X10.1900 Y-10.6117
G01 X9.6700 Y-10.6117
G01 X9.6589 Y-10.6129
G01 X9.6497 Y-10.6155
G01 X9.6410 Y-10.6194
G01 X9.6316 Y-10.6255
G01 X9.6268 Y-10.6296
G01 X9.6224 Y-10.6342
G01 X9.6185 Y-10.6393
G01 X9.6143 Y-10.6461
G01 X9.6115 Y-10.6518
G01 X9.6090 Y-10.6594
G01 X9.6076 Y-10.6656
G01 X9.6067 Y-10.6735
G01 X9.6066 Y-11.0450
G01 X9.5366 Y-11.0450
G01 X9.5366 Y-10.5417
G01 X10.1900 Y-10.5417
G00 Z2.0000
G00 X7.6195 Y-10.1941
G01 F60.00
G01 Z-0.0560
G01 F120.00
G01 X8.6395 Y-10.1941
G01 X8.6506 Y-10.1931
G01 X8.6599 Y-10.1908
G01 X8.6687 Y-10.1872
G01 X8.6769 Y-10.1822
G01 X8.6832 Y-10.1773
G01 X8.6897 Y-10.1703
G01 X8.6953 Y-10.1625
G01 X8.6996 Y-10.1540
G01 X8.7026 Y-10.1449
G01 X8.7040 Y-10.1371
G01 X8.7045 Y-10.1291
G01 X8.7045 Y-9.8342
G01 X12.2432 Y-9.8342
G01 X12.2432 Y-10.0866
G01 X12.2435 Y-10.0930
G01 X12.2448 Y-10.1008
G01 X12.2465 Y-10.1070
G01 X12.2488 Y-10.1129
G01 X12.2524 Y-10.1200
G01 X12.2560 Y-10.1253
G01 X12.2600 Y-10.1303
G01 X12.2645 Y-10.1348
G01 X12.2708 Y-10.1397
G01 X12.2790 Y-10.1447
G01 X12.2878 Y-10.1483
G01 X12.2971 Y-10.1506
G01 X12.3066 Y-10.1516
G01 X12.6931 Y-10.1516
G01 X12.6931 Y-10.6216
G01 X12.3082 Y-10.6216
G01 X12.3002 Y-10.6221
G01 X12.2909 Y-10.6240
G01 X12.2819 Y-10.6272
G01 X12.2734 Y-10.6317
G01 X12.2645 Y-10.6384
G01 X12.2580 Y-10.6454
G01 X12.2524 Y-10.6532
G01 X12.2481 Y-10.6617
G01 X12.2448 Y-10.6724
G01 X12.2437 Y-10.6786
G01 X12.2432 Y-10.6866
G01 X12.2432 Y-11.9866
G01 X12.2439 Y-11.9961
G01 X12.2460 Y-12.0055
G01 X12.2494 Y-12.0144
G01 X12.2542 Y-12.0227
G01 X12.2590 Y-12.0291
G01 X12.2634 Y-12.0337
G01 X12.2695 Y-12.0388
G01 X12.2762 Y-12.0432
G01 X12.2833 Y-12.0467
G01 X12.2909 Y-12.0492
G01 X12.2987 Y-12.0509
G01 X12.3066 Y-12.0516
G01 X13.7082 Y-12.0516
G01 X13.7177 Y-12.0509
G01 X13.7286 Y-12.0483
G01 X13.7388 Y-12.0439
G01 X13.7482 Y-12.0378
G01 X13.7564 Y-12.0303
G01 X13.7631 Y-12.0214
G01 X13.7683 Y-12.0115
G01 X13.7716 Y-12.0008
G01 X13.7731 Y-11.9898
G01 X13.7732 Y-10.6866
G01 X13.7729 Y-10.6802
G01 X13.7720 Y-10.6739
G01 X13.7694 Y-10.6647
G01 X13.7655 Y-10.6560
G01 X13.7604 Y-10.6479
G01 X13.7530 Y-10.6395
G01 X13.7443 Y-10.6326
G01 X13.7360 Y-10.6278
G01 X13.7271 Y-10.6244
G01 X13.7162 Y-10.6221
G01 X13.7082 Y-10.6216
G01 X13.3233 Y-10.6216
G01 X13.3233 Y-10.1516
G01 X13.7114 Y-10.1515
G01 X13.7224 Y-10.1500
G01 X13.7331 Y-10.1467
G01 X13.7430 Y-10.1415
G01 X13.7519 Y-10.1348
G01 X13.7564 Y-10.1303
G01 X13.7604 Y-10.1253
G01 X13.7640 Y-10.1200
G01 X13.7670 Y-10.1144
G01 X13.7694 Y-10.1085
G01 X13.7713 Y-10.1024
G01 X13.7725 Y-10.0961
G01 X13.7731 Y-10.0898
G01 X13.7732 Y-9.7517
G01 X14.6857 Y-9.7517
G01 X14.6857 Y-10.2491
G01 X14.6860 Y-10.2555
G01 X14.6881 Y-10.2664
G01 X14.6919 Y-10.2769
G01 X14.6976 Y-10.2865
G01 X14.7047 Y-10.2951
G01 X14.7133 Y-10.3022
G01 X14.7229 Y-10.3079
G01 X14.7334 Y-10.3117
G01 X14.7443 Y-10.3138
G01 X14.7507 Y-10.3141
G01 X16.3507 Y-10.3141
G01 X16.3618 Y-10.3131
G01 X16.3711 Y-10.3108
G01 X16.3799 Y-10.3072
G01 X16.3881 Y-10.3022
G01 X16.3955 Y-10.2962
G01 X16.4019 Y-10.2891
G01 X16.4073 Y-10.2811
G01 X16.4113 Y-10.2725
G01 X16.4141 Y-10.2633
G01 X16.4155 Y-10.2539
G01 X16.4157 Y-9.7517
G01 X17.4029 Y-9.7517
G01 X17.4029 Y-10.2366
G01 X17.4032 Y-10.2430
G01 X17.4053 Y-10.2539
G01 X17.4085 Y-10.2629
G01 X17.4130 Y-10.2714
G01 X17.4187 Y-10.2791
G01 X17.4267 Y-10.2868
G01 X17.4345 Y-10.2924
G01 X17.4445 Y-10.2972
G01 X17.4537 Y-10.3000
G01 X17.4599 Y-10.3011
G01 X17.4679 Y-10.3016
G01 X18.7679 Y-10.3016
G01 X18.7759 Y-10.3011
G01 X18.7821 Y-10.3000
G01 X18.7913 Y-10.2972
G01 X18.8013 Y-10.2924
G01 X18.8104 Y-10.2858
G01 X18.8181 Y-10.2778
G01 X18.8245 Y-10.2686
G01 X18.8291 Y-10.2585
G01 X18.8317 Y-10.2493
G01 X18.8329 Y-10.2382
G01 X18.8329 Y-8.6366
G01 X18.8322 Y-8.6271
G01 X18.8296 Y-8.6162
G01 X18.8252 Y-8.6060
G01 X18.8191 Y-8.5966
G01 X18.8116 Y-8.5884
G01 X18.8027 Y-8.5817
G01 X18.7928 Y-8.5765
G01 X18.7821 Y-8.5732
G01 X18.7711 Y-8.5717
G01 X17.4679 Y-8.5716
G01 X17.4568 Y-8.5726
G01 X17.4460 Y-8.5754
G01 X17.4373 Y-8.5793
G01 X17.4292 Y-8.5844
G01 X17.4219 Y-8.5906
G01 X17.4167 Y-8.5966
G01 X17.4113 Y-8.6046
G01 X17.4073 Y-8.6132
G01 X17.4045 Y-8.6224
G01 X17.4031 Y-8.6318
G01 X17.4029 Y-9.1215
G01 X16.4157 Y-9.1215
G01 X16.4157 Y-8.6491
G01 X16.4152 Y-8.6411
G01 X16.4129 Y-8.6302
G01 X16.4088 Y-8.6199
G01 X16.4029 Y-8.6104
G01 X16.3989 Y-8.6054
G01 X16.3944 Y-8.6009
G01 X16.3855 Y-8.5942
G01 X16.3756 Y-8.5890
G01 X16.3649 Y-8.5857
G01 X16.3587 Y-8.5846
G01 X16.3523 Y-8.5841
G01 X14.7507 Y-8.5841
G01 X14.7412 Y-8.5848
G01 X14.7303 Y-8.5874
G01 X14.7215 Y-8.5910
G01 X14.7133 Y-8.5960
G01 X14.7059 Y-8.6020
G01 X14.6995 Y-8.6091
G01 X14.6941 Y-8.6171
G01 X14.6901 Y-8.6257
G01 X14.6873 Y-8.6349
G01 X14.6859 Y-8.6443
G01 X14.6857 Y-9.1215
G01 X13.7732 Y-9.1215
G01 X13.7732 Y-8.7866
G01 X13.7727 Y-8.7786
G01 X13.7704 Y-8.7677
G01 X13.7670 Y-8.7588
G01 X13.7622 Y-8.7505
G01 X13.7553 Y-8.7418
G01 X13.7469 Y-8.7344
G01 X13.7388 Y-8.7293
G01 X13.7301 Y-8.7254
G01 X13.7193 Y-8.7226
G01 X13.7082 Y-8.7216
G01 X12.3082 Y-8.7216
G01 X12.2987 Y-8.7223
G01 X12.2878 Y-8.7249
G01 X12.2776 Y-8.7293
G01 X12.2695 Y-8.7344
G01 X12.2611 Y-8.7418
G01 X12.2551 Y-8.7492
G01 X12.2494 Y-8.7588
G01 X12.2460 Y-8.7677
G01 X12.2437 Y-8.7786
G01 X12.2432 Y-8.7866
G01 X12.2432 Y-9.2040
G01 X8.7045 Y-9.2040
G01 X8.7045 Y-8.9091
G01 X8.7040 Y-8.9011
G01 X8.7026 Y-8.8933
G01 X8.6996 Y-8.8842
G01 X8.6953 Y-8.8757
G01 X8.6897 Y-8.8679
G01 X8.6832 Y-8.8609
G01 X8.6756 Y-8.8551
G01 X8.6687 Y-8.8510
G01 X8.6599 Y-8.8474
G01 X8.6490 Y-8.8448
G01 X8.6395 Y-8.8441
G01 X7.6195 Y-8.8441
G01 X7.6100 Y-8.8448
G01 X7.5991 Y-8.8474
G01 X7.5889 Y-8.8518
G01 X7.5795 Y-8.8579
G01 X7.5713 Y-8.8654
G01 X7.5646 Y-8.8743
G01 X7.5594 Y-8.8842
G01 X7.5561 Y-8.8949
G01 X7.5546 Y-8.9059
G01 X7.5545 Y-10.1291
G01 X7.5548 Y-10.1355
G01 X7.5557 Y-10.1418
G01 X7.5573 Y-10.1480
G01 X7.5594 Y-10.1540
G01 X7.5622 Y-10.1597
G01 X7.5655 Y-10.1652
G01 X7.5693 Y-10.1703
G01 X7.5735 Y-10.1751
G01 X7.5783 Y-10.1793
G01 X7.5834 Y-10.1831
G01 X7.5889 Y-10.1864
G01 X7.5946 Y-10.1892
G01 X7.6006 Y-10.1913
G01 X7.6068 Y-10.1929
G01 X7.6131 Y-10.1938
G01 X7.6195 Y-10.1941
G00 Z2.0000
G00 X6.8745 Y-11.0641
G01 F60.00
G01 Z-0.0560
G01 F120.00
G01 X6.8745 Y-11.1341
G01 X6.5947 Y-11.1343
G01 X6.5884 Y-11.1351
G01 X6.5822 Y-11.1365
G01 X6.5746 Y-11.1390
G01 X6.5689 Y-11.1418
G01 X6.5634 Y-11.1451
G01 X6.5583 Y-11.1489
G01 X6.5535 Y-11.1531
G01 X6.5493 Y-11.1579
G01 X6.5429 Y-11.1671
G01 X6.5383 Y-11.1772
G01 X6.5357 Y-11.1864
G01 X6.5345 Y-11.1975
G01 X6.5345 Y-11.5741
G01 X6.4645 Y-11.5741
G01 X6.4645 Y-11.0641
G01 X6.8745 Y-11.0641
G00 Z2.0000
G00 X7.7545 Y-11.5741
G01 F60.00
G01 Z-0.0560
G01 F120.00
G01 X7.6845 Y-11.5741
G01 X7.6845 Y-11.1975
G01 X7.6833 Y-11.1864
G01 X7.6807 Y-11.1772
G01 X7.6761 Y-11.1671
G01 X7.6697 Y-11.1579
G01 X7.6655 Y-11.1531
G01 X7.6607 Y-11.1489
G01 X7.6556 Y-11.1451
G01 X7.6501 Y-11.1418
G01 X7.6429 Y-11.1385
G01 X7.6368 Y-11.1365
G01 X7.6306 Y-11.1351
G01 X7.6243 Y-11.1343
G01 X7.3445 Y-11.1341
G01 X7.3445 Y-11.0641
G01 X7.7545 Y-11.0641
G01 X7.7545 Y-11.5741
G00 Z2.0000
G00 X7.7545 Y-12.5541
G01 F60.00
G01 Z-0.0560
G01 F120.00
G01 X7.3445 Y-12.5541
G01 X7.3445 Y-12.4841
G01 X7.6195 Y-12.4841
G01 X7.6259 Y-12.4838
G01 X7.6322 Y-12.4829
G01 X7.6399 Y-12.4808
G01 X7.6473 Y-12.4779
G01 X7.6529 Y-12.4749
G01 X7.6582 Y-12.4713
G01 X7.6643 Y-12.4662
G01 X7.6697 Y-12.4603
G01 X7.6735 Y-12.4552
G01 X7.6783 Y-12.4469
G01 X7.6812 Y-12.4395
G01 X7.6835 Y-12.4302
G01 X7.6845 Y-12.4207
G01 X7.6845 Y-12.0441
G01 X7.7545 Y-12.0441
G01 X7.7545 Y-12.5541
G00 Z2.0000
G00 X7.4845 Y-13.0341
G01 F60.00
G01 Z-0.0560
G01 F120.00
G01 X8.7745 Y-13.0341
G01 X8.7745 Y-14.5241
G01 X7.4845 Y-14.5241
G01 X7.4845 Y-13.0341
G00 Z2.0000
G00 X6.4645 Y-12.0441
G01 F60.00
G01 Z-0.0560
G01 F120.00
G01 X6.5345 Y-12.0441
G01 X6.5345 Y-12.4207
G01 X6.5357 Y-12.4318
G01 X6.5383 Y-12.4410
G01 X6.5429 Y-12.4511
G01 X6.5493 Y-12.4603
G01 X6.5535 Y-12.4651
G01 X6.5583 Y-12.4693
G01 X6.5634 Y-12.4731
G01 X6.5689 Y-12.4764
G01 X6.5761 Y-12.4797
G01 X6.5822 Y-12.4817
G01 X6.5884 Y-12.4831
G01 X6.5947 Y-12.4839
G01 X6.8745 Y-12.4841
G01 X6.8745 Y-12.5541
G01 X6.4645 Y-12.5541
G01 X6.4645 Y-12.0441
G00 Z2.0000
G00 X4.7279 Y-11.6756
G01 F60.00
G01 Z-0.0560
G01 F120.00
G01 X3.0579 Y-11.6756
G01 X3.0579 Y-10.1056
G01 X4.0908 Y-10.1056
G01 X4.0987 Y-10.1051
G01 X4.1064 Y-10.1037
G01 X4.1139 Y-10.1013
G01 X4.1225 Y-10.0974
G01 X4.1304 Y-10.0922
G01 X4.1375 Y-10.0859
G01 X4.9473 Y-9.2519
G01 X4.9767 Y-9.2245
G01 X5.0073 Y-9.2012
G01 X5.0401 Y-9.1811
G01 X5.0748 Y-9.1644
G01 X5.1110 Y-9.1512
G01 X5.1483 Y-9.1416
G01 X5.1863 Y-9.1359
G01 X5.2264 Y-9.1339
G01 X5.3795 Y-9.1339
G01 X5.3859 Y-9.1336
G01 X5.3968 Y-9.1315
G01 X5.4073 Y-9.1276
G01 X5.4169 Y-9.1220
G01 X5.4255 Y-9.1148
G01 X5.4326 Y-9.1063
G01 X5.4361 Y-9.1009
G01 X5.4389 Y-9.0952
G01 X5.4426 Y-9.0847
G01 X5.4438 Y-9.0784
G01 X5.4444 Y-9.0721
G01 X5.4445 Y-8.7741
G01 X6.7345 Y-8.7741
G01 X6.7345 Y-10.2641
G01 X5.4445 Y-10.2641
G01 X5.4445 Y-10.0061
G01 X5.4436 Y-9.9950
G01 X5.4412 Y-9.9858
G01 X5.4383 Y-9.9784
G01 X5.4345 Y-9.9714
G01 X5.4299 Y-9.9650
G01 X5.4256 Y-9.9603
G01 X5.4197 Y-9.9550
G01 X5.4132 Y-9.9505
G01 X5.4076 Y-9.9474
G01 X5.4002 Y-9.9445
G01 X5.3941 Y-9.9427
G01 X5.3863 Y-9.9414
G01 X5.3783 Y-9.9411
G01 X5.3704 Y-9.9417
G01 X5.3626 Y-9.9433
G01 X5.3566 Y-9.9452
G01 X5.3493 Y-9.9485
G01 X5.3426 Y-9.9526
G01 X5.3375 Y-9.9564
G01 X5.3329 Y-9.9608
G01 X4.7463 Y-10.5649
G01 X4.7420 Y-10.5697
G01 X4.7374 Y-10.5763
G01 X4.7343 Y-10.5820
G01 X4.7318 Y-10.5880
G01 X4.7289 Y-10.5989
G01 X4.7279 Y-10.6101
G01 X4.7279 Y-11.6756
G00 Z2.0000
G00 X3.1929 Y-11.6056
G01 F60.00
G01 Z-0.0560
G01 F120.00
G01 X4.5929 Y-11.6056
G01 X4.6040 Y-11.6046
G01 X4.6148 Y-11.6018
G01 X4.6249 Y-11.5972
G01 X4.6341 Y-11.5908
G01 X4.6400 Y-11.5854
G01 X4.6441 Y-11.5806
G01 X4.6478 Y-11.5754
G01 X4.6517 Y-11.5684
G01 X4.6541 Y-11.5625
G01 X4.6563 Y-11.5548
G01 X4.6574 Y-11.5486
G01 X4.6579 Y-11.5422
G01 X4.6579 Y-10.5552
G01 X5.3580 Y-9.8342
G01 X5.5145 Y-9.8342
G01 X5.5145 Y-10.1291
G01 X5.5150 Y-10.1371
G01 X5.5169 Y-10.1464
G01 X5.5201 Y-10.1554
G01 X5.5246 Y-10.1639
G01 X5.5303 Y-10.1716
G01 X5.5370 Y-10.1783
G01 X5.5447 Y-10.1840
G01 X5.5532 Y-10.1885
G01 X5.5622 Y-10.1917
G01 X5.5715 Y-10.1936
G01 X5.5795 Y-10.1941
G01 X6.5995 Y-10.1941
G01 X6.6106 Y-10.1931
G01 X6.6214 Y-10.1903
G01 X6.6315 Y-10.1857
G01 X6.6395 Y-10.1803
G01 X6.6455 Y-10.1751
G01 X6.6507 Y-10.1691
G01 X6.6553 Y-10.1625
G01 X6.6583 Y-10.1569
G01 X6.6612 Y-10.1495
G01 X6.6629 Y-10.1433
G01 X6.6640 Y-10.1371
G01 X6.6645 Y-10.1291
G01 X6.6645 Y-8.9091
G01 X6.6635 Y-8.8980
G01 X6.6612 Y-8.8887
G01 X6.6568 Y-8.8785
G01 X6.6507 Y-8.8691
G01 X6.6455 Y-8.8631
G01 X6.6407 Y-8.8589
G01 X6.6356 Y-8.8551
G01 X6.6287 Y-8.8510
G01 X6.6229 Y-8.8485
G01 X6.6153 Y-8.8460
G01 X6.6090 Y-8.8448
G01 X6.6011 Y-8.8441
G01 X5.5795 Y-8.8441
G01 X5.5731 Y-8.8444
G01 X5.5668 Y-8.8453
G01 X5.5561 Y-8.8485
G01 X5.5489 Y-8.8518
G01 X5.5408 Y-8.8569
G01 X5.5347 Y-8.8620
G01 X5.5283 Y-8.8691
G01 X5.5237 Y-8.8757
G01 X5.5194 Y-8.8842
G01 X5.5164 Y-8.8933
G01 X5.5150 Y-8.9011
G01 X5.5145 Y-8.9091
G01 X5.5145 Y-9.2040
G01 X5.2248 Y-9.2040
G01 X5.1917 Y-9.2057
G01 X5.1654 Y-9.2097
G01 X5.1590 Y-9.2110
G01 X5.1317 Y-9.2181
G01 X5.1051 Y-9.2277
G01 X5.0991 Y-9.2302
G01 X5.0737 Y-9.2426
G01 X5.0455 Y-9.2600
G01 X5.0218 Y-9.2781
G01 X4.9987 Y-9.2996
G01 X4.1481 Y-10.1756
G01 X3.1913 Y-10.1756
G01 X3.1818 Y-10.1766
G01 X3.1710 Y-10.1794
G01 X3.1609 Y-10.1840
G01 X3.1529 Y-10.1894
G01 X3.1481 Y-10.1935
G01 X3.1427 Y-10.1994
G01 X3.1380 Y-10.2058
G01 X3.1348 Y-10.2114
G01 X3.1317 Y-10.2187
G01 X3.1298 Y-10.2248
G01 X3.1284 Y-10.2326
G01 X3.1279 Y-10.2390
G01 X3.1279 Y-11.5422
G01 X3.1284 Y-11.5486
G01 X3.1295 Y-11.5548
G01 X3.1312 Y-11.5610
G01 X3.1335 Y-11.5669
G01 X3.1363 Y-11.5726
G01 X3.1398 Y-11.5780
G01 X3.1469 Y-11.5866
G01 X3.1517 Y-11.5908
G01 X3.1568 Y-11.5946
G01 X3.1623 Y-11.5979
G01 X3.1680 Y-11.6007
G01 X3.1740 Y-11.6028
G01 X3.1802 Y-11.6044
G01 X3.1865 Y-11.6053
G01 X3.1929 Y-11.6056
G00 Z2.0000
G00 X3.1929 Y-13.5056
G01 F60.00
G01 Z-0.0560
G01 F120.00
G01 X4.1623 Y-13.5056
G01 X4.6597 Y-14.0030
G01 X4.6815 Y-14.0227
G01 X4.7037 Y-14.0393
G01 X4.7090 Y-14.0428
G01 X4.7343 Y-14.0577
G01 X4.7608 Y-14.0702
G01 X4.7899 Y-14.0807
G01 X4.8199 Y-14.0882
G01 X4.8473 Y-14.0923
G01 X4.8537 Y-14.0929
G01 X4.8814 Y-14.0942
G01 X5.3287 Y-14.0942
G01 X4.0119 Y-15.4110
G01 X3.9911 Y-15.4339
G01 X3.9727 Y-15.4587
G01 X3.9568 Y-15.4852
G01 X3.9442 Y-15.5117
G01 X3.9331 Y-15.5423
G01 X3.9256 Y-15.5723
G01 X3.9211 Y-15.6029
G01 X3.9196 Y-15.6338
G01 X3.9196 Y-17.8299
G01 X3.7247 Y-17.8299
G01 X3.7183 Y-17.8302
G01 X3.7105 Y-17.8315
G01 X3.7013 Y-17.8343
G01 X3.6927 Y-17.8383
G01 X3.6847 Y-17.8437
G01 X3.6765 Y-17.8512
G01 X3.6698 Y-17.8601
G01 X3.6653 Y-17.8686
G01 X3.6621 Y-17.8776
G01 X3.6602 Y-17.8869
G01 X3.6597 Y-17.8949
G01 X3.6597 Y-19.1149
G01 X3.6607 Y-19.1260
G01 X3.6621 Y-19.1322
G01 X3.6641 Y-19.1383
G01 X3.6689 Y-19.1483
G01 X3.6755 Y-19.1574
G01 X3.6799 Y-19.1620
G01 X3.6847 Y-19.1661
G01 X3.6899 Y-19.1698
G01 X3.6969 Y-19.1737
G01 X3.7028 Y-19.1761
G01 X3.7089 Y-19.1780
G01 X3.7167 Y-19.1794
G01 X3.7231 Y-19.1799
G01 X4.7447 Y-19.1799
G01 X4.7527 Y-19.1794
G01 X4.7620 Y-19.1775
G01 X4.7725 Y-19.1737
G01 X4.7808 Y-19.1689
G01 X4.7884 Y-19.1631
G01 X4.7959 Y-19.1549
G01 X4.8013 Y-19.1469
G01 X4.8059 Y-19.1368
G01 X4.8087 Y-19.1260
G01 X4.8097 Y-19.1165
G01 X4.8097 Y-17.8949
G01 X4.8090 Y-17.8854
G01 X4.8069 Y-17.8760
G01 X4.8035 Y-17.8671
G01 X4.7987 Y-17.8588
G01 X4.7929 Y-17.8512
G01 X4.7859 Y-17.8447
G01 X4.7767 Y-17.8383
G01 X4.7681 Y-17.8343
G01 X4.7589 Y-17.8315
G01 X4.7511 Y-17.8302
G01 X4.7447 Y-17.8299
G01 X4.5498 Y-17.8299
G01 X4.5498 Y-15.7643
G01 X5.8601 Y-14.4541
G01 X6.6011 Y-14.4541
G01 X6.6075 Y-14.4536
G01 X6.6153 Y-14.4522
G01 X6.6229 Y-14.4497
G01 X6.6287 Y-14.4472
G01 X6.6343 Y-14.4440
G01 X6.6395 Y-14.4403
G01 X6.6443 Y-14.4362
G01 X6.6497 Y-14.4303
G01 X6.6561 Y-14.4211
G01 X6.6607 Y-14.4110
G01 X6.6635 Y-14.4002
G01 X6.6645 Y-14.3891
G01 X6.6645 Y-13.1691
G01 X6.6638 Y-13.1596
G01 X6.6621 Y-13.1518
G01 X6.6589 Y-13.1428
G01 X6.6535 Y-13.1330
G01 X6.6477 Y-13.1254
G01 X6.6407 Y-13.1189
G01 X6.6315 Y-13.1125
G01 X6.6229 Y-13.1085
G01 X6.6137 Y-13.1057
G01 X6.6027 Y-13.1042
G01 X5.5795 Y-13.1041
G01 X5.5731 Y-13.1044
G01 X5.5668 Y-13.1053
G01 X5.5576 Y-13.1079
G01 X5.5489 Y-13.1118
G01 X5.5395 Y-13.1179
G01 X5.5324 Y-13.1243
G01 X5.5264 Y-13.1317
G01 X5.5214 Y-13.1399
G01 X5.5178 Y-13.1487
G01 X5.5152 Y-13.1596
G01 X5.5145 Y-13.1691
G01 X5.5145 Y-13.4640
G01 X5.0119 Y-13.4640
G01 X4.6579 Y-13.1099
G01 X4.6579 Y-12.1390
G01 X4.6574 Y-12.1326
G01 X4.6560 Y-12.1248
G01 X4.6535 Y-12.1172
G01 X4.6510 Y-12.1114
G01 X4.6469 Y-12.1045
G01 X4.6431 Y-12.0994
G01 X4.6377 Y-12.0935
G01 X4.6316 Y-12.0884
G01 X4.6235 Y-12.0833
G01 X4.6133 Y-12.0789
G01 X4.6024 Y-12.0763
G01 X4.5929 Y-12.0756
G01 X3.1929 Y-12.0756
G01 X3.1865 Y-12.0759
G01 X3.1756 Y-12.0780
G01 X3.1695 Y-12.0800
G01 X3.1637 Y-12.0825
G01 X3.1542 Y-12.0884
G01 X3.1458 Y-12.0958
G01 X3.1389 Y-12.1045
G01 X3.1335 Y-12.1143
G01 X3.1298 Y-12.1248
G01 X3.1286 Y-12.1311
G01 X3.1280 Y-12.1374
G01 X3.1279 Y-13.4406
G01 X3.1282 Y-13.4470
G01 X3.1291 Y-13.4533
G01 X3.1307 Y-13.4595
G01 X3.1328 Y-13.4655
G01 X3.1356 Y-13.4712
G01 X3.1389 Y-13.4767
G01 X3.1427 Y-13.4818
G01 X3.1469 Y-13.4866
G01 X3.1517 Y-13.4908
G01 X3.1568 Y-13.4946
G01 X3.1623 Y-13.4979
G01 X3.1680 Y-13.5007
G01 X3.1740 Y-13.5028
G01 X3.1802 Y-13.5044
G01 X3.1865 Y-13.5053
G01 X3.1929 Y-13.5056
G00 Z2.0000
G00 X7.6195 Y-14.4541
G01 F60.00
G01 Z-0.0560
G01 F120.00
G01 X8.6411 Y-14.4541
G01 X8.6490 Y-14.4534
G01 X8.6553 Y-14.4522
G01 X8.6614 Y-14.4503
G01 X8.6687 Y-14.4472
G01 X8.6756 Y-14.4431
G01 X8.6807 Y-14.4393
G01 X8.6866 Y-14.4339
G01 X8.6907 Y-14.4291
G01 X8.6968 Y-14.4197
G01 X8.7012 Y-14.4095
G01 X8.7035 Y-14.4002
G01 X8.7045 Y-14.3891
G01 X8.7045 Y-13.1691
G01 X8.7040 Y-13.1611
G01 X8.7029 Y-13.1549
G01 X8.7007 Y-13.1472
G01 X8.6983 Y-13.1413
G01 X8.6944 Y-13.1343
G01 X8.6897 Y-13.1279
G01 X8.6855 Y-13.1231
G01 X8.6795 Y-13.1179
G01 X8.6715 Y-13.1125
G01 X8.6614 Y-13.1079
G01 X8.6506 Y-13.1051
G01 X8.6411 Y-13.1041
G01 X7.6195 Y-13.1041
G01 X7.6115 Y-13.1046
G01 X7.6053 Y-13.1057
G01 X7.5976 Y-13.1079
G01 X7.5917 Y-13.1103
G01 X7.5847 Y-13.1142
G01 X7.5783 Y-13.1189
G01 X7.5735 Y-13.1231
G01 X7.5683 Y-13.1291
G01 X7.5622 Y-13.1385
G01 X7.5578 Y-13.1487
G01 X7.5552 Y-13.1596
G01 X7.5545 Y-13.1691
G01 X7.5546 Y-14.3923
G01 X7.5552 Y-14.3986
G01 X7.5564 Y-14.4049
G01 X7.5583 Y-14.4110
G01 X7.5607 Y-14.4169
G01 X7.5637 Y-14.4225
G01 X7.5673 Y-14.4278
G01 X7.5747 Y-14.4362
G01 X7.5795 Y-14.4403
G01 X7.5847 Y-14.4440
G01 X7.5946 Y-14.4492
G01 X7.6006 Y-14.4513
G01 X7.6068 Y-14.4529
G01 X7.6131 Y-14.4538
G01 X7.6195 Y-14.4541
G00 Z2.0000
G00 X9.6716 Y-13.9417
G01 F60.00
G01 Z-0.0560
G01 F120.00
G01 X11.2716 Y-13.9417
G01 X11.2811 Y-13.9410
G01 X11.2920 Y-13.9384
G01 X11.3008 Y-13.9348
G01 X11.3090 Y-13.9298
G01 X11.3176 Y-13.9227
G01 X11.3247 Y-13.9141
G01 X11.3297 Y-13.9059
G01 X11.3333 Y-13.8971
G01 X11.3359 Y-13.8862
G01 X11.3366 Y-13.8767
G01 X11.3366 Y-13.5452
G01 X12.2432 Y-13.5487
G01 X12.2433 Y-13.8898
G01 X12.2439 Y-13.8961
G01 X12.2451 Y-13.9024
G01 X12.2470 Y-13.9085
G01 X12.2494 Y-13.9144
G01 X12.2524 Y-13.9200
G01 X12.2560 Y-13.9253
G01 X12.2600 Y-13.9303
G01 X12.2645 Y-13.9348
G01 X12.2734 Y-13.9415
G01 X12.2833 Y-13.9467
G01 X12.2940 Y-13.9500
G01 X12.3050 Y-13.9515
G01 X12.6931 Y-13.9516
G01 X12.6931 Y-14.4216
G01 X12.3082 Y-14.4216
G01 X12.3002 Y-14.4221
G01 X12.2909 Y-14.4240
G01 X12.2819 Y-14.4272
G01 X12.2734 Y-14.4317
G01 X12.2645 Y-14.4384
G01 X12.2580 Y-14.4454
G01 X12.2524 Y-14.4532
G01 X12.2481 Y-14.4617
G01 X12.2448 Y-14.4724
G01 X12.2437 Y-14.4786
G01 X12.2432 Y-14.4866
G01 X12.2432 Y-15.7882
G01 X12.2442 Y-15.7977
G01 X12.2470 Y-15.8085
G01 X12.2509 Y-15.8172
G01 X12.2570 Y-15.8266
G01 X12.2634 Y-15.8337
G01 X12.2721 Y-15.8406
G01 X12.2804 Y-15.8454
G01 X12.2909 Y-15.8492
G01 X12.3002 Y-15.8511
G01 X12.3082 Y-15.8516
G01 X13.7082 Y-15.8516
G01 X13.7177 Y-15.8509
G01 X13.7255 Y-15.8492
G01 X13.7345 Y-15.8460
G01 X13.7430 Y-15.8415
G01 X13.7507 Y-15.8358
G01 X13.7574 Y-15.8291
G01 X13.7631 Y-15.8214
G01 X13.7676 Y-15.8129
G01 X13.7708 Y-15.8039
G01 X13.7727 Y-15.7946
G01 X13.7732 Y-15.7866
G01 X13.7732 Y-15.4547
G01 X14.6798 Y-15.4583
G01 X14.6798 Y-15.7966
G01 X14.6805 Y-15.8061
G01 X14.6831 Y-15.8170
G01 X14.6867 Y-15.8258
G01 X14.6926 Y-15.8353
G01 X14.6988 Y-15.8426
G01 X14.7074 Y-15.8497
G01 X14.7156 Y-15.8547
G01 X14.7244 Y-15.8583
G01 X14.7353 Y-15.8609
G01 X14.7448 Y-15.8616
G01 X16.3464 Y-15.8616
G01 X16.3575 Y-15.8604
G01 X16.3667 Y-15.8578
G01 X16.3754 Y-15.8539
G01 X16.3848 Y-15.8478
G01 X16.3930 Y-15.8403
G01 X16.3988 Y-15.8327
G01 X16.4042 Y-15.8229
G01 X16.4074 Y-15.8139
G01 X16.4091 Y-15.8061
G01 X16.4098 Y-15.7966
G01 X16.4098 Y-14.4950
G01 X16.4088 Y-14.4855
G01 X16.4065 Y-14.4762
G01 X16.4029 Y-14.4674
G01 X16.3988 Y-14.4605
G01 X16.3930 Y-14.4529
G01 X16.3860 Y-14.4464
G01 X16.3782 Y-14.4408
G01 X16.3711 Y-14.4372
G01 X16.3652 Y-14.4349
G01 X16.3590 Y-14.4332
G01 X16.3512 Y-14.4319
G01 X16.3448 Y-14.4316
G01 X14.7448 Y-14.4316
G01 X14.7353 Y-14.4323
G01 X14.7244 Y-14.4349
G01 X14.7156 Y-14.4385
G01 X14.7061 Y-14.4444
G01 X14.6988 Y-14.4506
G01 X14.6926 Y-14.4579
G01 X14.6867 Y-14.4674
G01 X14.6831 Y-14.4762
G01 X14.6805 Y-14.4871
G01 X14.6798 Y-14.4966
G01 X14.6798 Y-14.8281
G01 X13.7732 Y-14.8245
G01 X13.7731 Y-14.4834
G01 X13.7725 Y-14.4771
G01 X13.7713 Y-14.4708
G01 X13.7694 Y-14.4647
G01 X13.7670 Y-14.4588
G01 X13.7640 Y-14.4532
G01 X13.7604 Y-14.4479
G01 X13.7564 Y-14.4429
G01 X13.7519 Y-14.4384
G01 X13.7430 Y-14.4317
G01 X13.7331 Y-14.4265
G01 X13.7224 Y-14.4232
G01 X13.7114 Y-14.4217
G01 X13.3233 Y-14.4216
G01 X13.3233 Y-13.9516
G01 X13.7082 Y-13.9516
G01 X13.7162 Y-13.9511
G01 X13.7255 Y-13.9492
G01 X13.7345 Y-13.9460
G01 X13.7430 Y-13.9415
G01 X13.7519 Y-13.9348
G01 X13.7584 Y-13.9278
G01 X13.7640 Y-13.9200
G01 X13.7683 Y-13.9115
G01 X13.7716 Y-13.9008
G01 X13.7727 Y-13.8946
G01 X13.7732 Y-13.8866
G01 X13.7732 Y-12.5850
G01 X13.7722 Y-12.5755
G01 X13.7694 Y-12.5647
G01 X13.7655 Y-12.5560
G01 X13.7594 Y-12.5466
G01 X13.7530 Y-12.5395
G01 X13.7443 Y-12.5326
G01 X13.7360 Y-12.5278
G01 X13.7255 Y-12.5240
G01 X13.7162 Y-12.5221
G01 X13.7082 Y-12.5216
G01 X12.3082 Y-12.5216
G01 X12.2987 Y-12.5223
G01 X12.2909 Y-12.5240
G01 X12.2819 Y-12.5272
G01 X12.2734 Y-12.5317
G01 X12.2657 Y-12.5374
G01 X12.2590 Y-12.5441
G01 X12.2533 Y-12.5518
G01 X12.2488 Y-12.5603
G01 X12.2456 Y-12.5693
G01 X12.2437 Y-12.5786
G01 X12.2432 Y-12.5866
G01 X12.2432 Y-12.9185
G01 X11.3366 Y-12.9149
G01 X11.3366 Y-12.5767
G01 X11.3359 Y-12.5672
G01 X11.3338 Y-12.5578
G01 X11.3297 Y-12.5475
G01 X11.3238 Y-12.5380
G01 X11.3176 Y-12.5307
G01 X11.3090 Y-12.5236
G01 X11.3008 Y-12.5186
G01 X11.2920 Y-12.5150
G01 X11.2811 Y-12.5124
G01 X11.2716 Y-12.5117
G01 X9.6716 Y-12.5117
G01 X9.6605 Y-12.5127
G01 X9.6497 Y-12.5155
G01 X9.6410 Y-12.5194
G01 X9.6329 Y-12.5245
G01 X9.6256 Y-12.5307
G01 X9.6194 Y-12.5380
G01 X9.6135 Y-12.5475
G01 X9.6099 Y-12.5563
G01 X9.6076 Y-12.5656
G01 X9.6066 Y-12.5751
G01 X9.6066 Y-13.8783
G01 X9.6071 Y-13.8847
G01 X9.6082 Y-13.8909
G01 X9.6115 Y-13.9016
G01 X9.6143 Y-13.9073
G01 X9.6176 Y-13.9128
G01 X9.6214 Y-13.9179
G01 X9.6256 Y-13.9227
G01 X9.6304 Y-13.9269
G01 X9.6355 Y-13.9307
G01 X9.6410 Y-13.9340
G01 X9.6467 Y-13.9368
G01 X9.6527 Y-13.9389
G01 X9.6589 Y-13.9405
G01 X9.6652 Y-13.9414
G01 X9.6716 Y-13.9417
G00 Z2.0000
G00 X9.5308 Y-15.6189
G01 F60.00
G01 Z-0.0560
G01 F120.00
G01 X9.5308 Y-15.1891
G01 X11.4008 Y-15.1891
G01 X11.4008 Y-17.0591
G01 X9.5308 Y-17.0591
G01 X9.5308 Y-16.5193
G01 X9.5305 Y-16.5130
G01 X9.5296 Y-16.5066
G01 X9.5280 Y-16.5005
G01 X9.5239 Y-16.4901
G01 X9.5180 Y-16.4806
G01 X9.5106 Y-16.4722
G01 X9.5019 Y-16.4653
G01 X9.4921 Y-16.4599
G01 X9.4862 Y-16.4576
G01 X9.4800 Y-16.4559
G01 X9.4690 Y-16.4544
G01 X7.8195 Y-16.4543
G01 X7.8115 Y-16.4548
G01 X7.8006 Y-16.4571
G01 X7.7917 Y-16.4606
G01 X7.7821 Y-16.4662
G01 X7.7747 Y-16.4722
G01 X7.7673 Y-16.4806
G01 X7.7622 Y-16.4887
G01 X7.7578 Y-16.4989
G01 X7.7552 Y-16.5098
G01 X7.7545 Y-16.5193
G01 X7.7545 Y-16.8141
G01 X6.4645 Y-16.8141
G01 X6.4645 Y-15.3241
G01 X7.7545 Y-15.3241
G01 X7.7545 Y-15.6189
G01 X7.7555 Y-15.6300
G01 X7.7583 Y-15.6408
G01 X7.7622 Y-15.6495
G01 X7.7673 Y-15.6576
G01 X7.7747 Y-15.6660
G01 X7.7834 Y-15.6729
G01 X7.7932 Y-15.6783
G01 X7.8037 Y-15.6819
G01 X7.8131 Y-15.6836
G01 X7.8195 Y-15.6839
G01 X9.4690 Y-15.6838
G01 X9.4800 Y-15.6823
G01 X9.4862 Y-15.6806
G01 X9.4921 Y-15.6783
G01 X9.4978 Y-15.6754
G01 X9.5032 Y-15.6720
G01 X9.5083 Y-15.6681
G01 X9.5129 Y-15.6637
G01 X9.5170 Y-15.6589
G01 X9.5207 Y-15.6536
G01 X9.5239 Y-15.6481
G01 X9.5264 Y-15.6423
G01 X9.5284 Y-15.6362
G01 X9.5298 Y-15.6300
G01 X9.5308 Y-15.6189
G00 Z2.0000
G00 X9.6008 Y-18.1241
G01 F60.00
G01 Z-0.0560
G01 F120.00
G01 X9.6008 Y-19.7241
G01 X9.6018 Y-19.7352
G01 X9.6046 Y-19.7460
G01 X9.6077 Y-19.7533
G01 X9.6127 Y-19.7615
G01 X9.6187 Y-19.7689
G01 X9.6258 Y-19.7753
G01 X9.6338 Y-19.7807
G01 X9.6424 Y-19.7847
G01 X9.6516 Y-19.7875
G01 X9.6610 Y-19.7889
G01 X10.2089 Y-19.7891
G01 X10.2410 Y-20.2591
G01 X9.9658 Y-20.2591
G01 X9.9547 Y-20.2601
G01 X9.9439 Y-20.2629
G01 X9.9352 Y-20.2668
G01 X9.9258 Y-20.2729
G01 X9.9187 Y-20.2793
G01 X9.9127 Y-20.2867
G01 X9.9070 Y-20.2963
G01 X9.9032 Y-20.3068
G01 X9.9013 Y-20.3161
G01 X9.9008 Y-20.3241
G01 X9.9008 Y-21.9257
G01 X9.9020 Y-21.9368
G01 X9.9052 Y-21.9475
G01 X9.9100 Y-21.9575
G01 X9.9166 Y-21.9666
G01 X9.9246 Y-21.9743
G01 X9.9297 Y-21.9781
G01 X9.9352 Y-21.9814
G01 X9.9454 Y-21.9858
G01 X9.9563 Y-21.9884
G01 X9.9658 Y-21.9891
G01 X11.2674 Y-21.9891
G01 X11.2769 Y-21.9881
G01 X11.2847 Y-21.9863
G01 X11.2921 Y-21.9835
G01 X11.3006 Y-21.9790
G01 X11.3070 Y-21.9743
G01 X11.3140 Y-21.9678
G01 X11.3189 Y-21.9615
G01 X11.3239 Y-21.9533
G01 X11.3270 Y-21.9460
G01 X11.3289 Y-21.9399
G01 X11.3303 Y-21.9321
G01 X11.3308 Y-21.9241
G01 X11.3308 Y-20.3241
G01 X11.3303 Y-20.3161
G01 X11.3292 Y-20.3099
G01 X11.3264 Y-20.3007
G01 X11.3224 Y-20.2921
G01 X11.3160 Y-20.2829
G01 X11.3095 Y-20.2759
G01 X11.3019 Y-20.2701
G01 X11.2921 Y-20.2647
G01 X11.2831 Y-20.2615
G01 X11.2738 Y-20.2596
G01 X11.2658 Y-20.2591
G01 X10.8727 Y-20.2591
G01 X10.8406 Y-19.7891
G01 X11.2690 Y-19.7890
G01 X11.2753 Y-19.7884
G01 X11.2816 Y-19.7872
G01 X11.2877 Y-19.7853
G01 X11.2936 Y-19.7829
G01 X11.2992 Y-19.7799
G01 X11.3045 Y-19.7763
G01 X11.3095 Y-19.7723
G01 X11.3140 Y-19.7678
G01 X11.3207 Y-19.7589
G01 X11.3259 Y-19.7490
G01 X11.3292 Y-19.7383
G01 X11.3303 Y-19.7321
G01 X11.3308 Y-19.7257
G01 X11.3308 Y-19.2435
G01 X12.2432 Y-19.2480
G01 X12.2432 Y-19.5866
G01 X12.2439 Y-19.5961
G01 X12.2465 Y-19.6070
G01 X12.2488 Y-19.6129
G01 X12.2516 Y-19.6186
G01 X12.2580 Y-19.6278
G01 X12.2657 Y-19.6358
G01 X12.2748 Y-19.6424
G01 X12.2848 Y-19.6472
G01 X12.2955 Y-19.6504
G01 X12.3066 Y-19.6516
G01 X13.7082 Y-19.6516
G01 X13.7193 Y-19.6506
G01 X13.7286 Y-19.6483
G01 X13.7374 Y-19.6447
G01 X13.7443 Y-19.6406
G01 X13.7519 Y-19.6348
G01 X13.7584 Y-19.6278
G01 X13.7640 Y-19.6200
G01 X13.7683 Y-19.6115
G01 X13.7713 Y-19.6024
G01 X13.7729 Y-19.5930
G01 X13.7732 Y-19.5866
G01 X13.7732 Y-19.1692
G01 X17.3120 Y-19.1692
G01 X17.3120 Y-19.4641
G01 X17.3125 Y-19.4721
G01 X17.3144 Y-19.4814
G01 X17.3176 Y-19.4904
G01 X17.3221 Y-19.4989
G01 X17.3278 Y-19.5066
G01 X17.3345 Y-19.5133
G01 X17.3422 Y-19.5190
G01 X17.3507 Y-19.5235
G01 X17.3597 Y-19.5267
G01 X17.3675 Y-19.5284
G01 X17.3770 Y-19.5291
G01 X18.4002 Y-19.5290
G01 X18.4112 Y-19.5275
G01 X18.4219 Y-19.5242
G01 X18.4318 Y-19.5190
G01 X18.4407 Y-19.5123
G01 X18.4482 Y-19.5041
G01 X18.4543 Y-19.4947
G01 X18.4587 Y-19.4845
G01 X18.4613 Y-19.4736
G01 X18.4620 Y-19.4641
G01 X18.4619 Y-18.2409
G01 X18.4604 Y-18.2299
G01 X18.4576 Y-18.2207
G01 X18.4528 Y-18.2107
G01 X18.4462 Y-18.2016
G01 X18.4382 Y-18.1939
G01 X18.4290 Y-18.1875
G01 X18.4204 Y-18.1835
G01 X18.4097 Y-18.1803
G01 X18.4034 Y-18.1794
G01 X18.3970 Y-18.1791
G01 X17.3770 Y-18.1791
G01 X17.3675 Y-18.1798
G01 X17.3566 Y-18.1824
G01 X17.3478 Y-18.1860
G01 X17.3396 Y-18.1910
G01 X17.3333 Y-18.1959
G01 X17.3268 Y-18.2029
G01 X17.3212 Y-18.2107
G01 X17.3169 Y-18.2192
G01 X17.3139 Y-18.2283
G01 X17.3125 Y-18.2361
G01 X17.3120 Y-18.2441
G01 X17.3120 Y-18.5390
G01 X13.7732 Y-18.5390
G01 X13.7732 Y-18.2866
G01 X13.7729 Y-18.2802
G01 X13.7720 Y-18.2739
G01 X13.7704 Y-18.2677
G01 X13.7683 Y-18.2617
G01 X13.7648 Y-18.2546
G01 X13.7613 Y-18.2492
G01 X13.7564 Y-18.2429
G01 X13.7507 Y-18.2374
G01 X13.7456 Y-18.2335
G01 X13.7374 Y-18.2285
G01 X13.7286 Y-18.2249
G01 X13.7193 Y-18.2226
G01 X13.7098 Y-18.2216
G01 X13.3233 Y-18.2216
G01 X13.3233 Y-17.7516
G01 X13.7082 Y-17.7516
G01 X13.7162 Y-17.7511
G01 X13.7255 Y-17.7492
G01 X13.7345 Y-17.7460
G01 X13.7430 Y-17.7415
G01 X13.7519 Y-17.7348
G01 X13.7594 Y-17.7266
G01 X13.7648 Y-17.7186
G01 X13.7688 Y-17.7100
G01 X13.7720 Y-17.6993
G01 X13.7729 Y-17.6930
G01 X13.7732 Y-17.6866
G01 X13.7731 Y-16.3834
G01 X13.7716 Y-16.3724
G01 X13.7683 Y-16.3617
G01 X13.7631 Y-16.3518
G01 X13.7564 Y-16.3429
G01 X13.7482 Y-16.3354
G01 X13.7388 Y-16.3293
G01 X13.7286 Y-16.3249
G01 X13.7177 Y-16.3223
G01 X13.7082 Y-16.3216
G01 X12.3066 Y-16.3216
G01 X12.2987 Y-16.3223
G01 X12.2909 Y-16.3240
G01 X12.2833 Y-16.3265
G01 X12.2762 Y-16.3300
G01 X12.2695 Y-16.3344
G01 X12.2634 Y-16.3395
G01 X12.2580 Y-16.3454
G01 X12.2533 Y-16.3518
G01 X12.2488 Y-16.3603
G01 X12.2460 Y-16.3677
G01 X12.2439 Y-16.3771
G01 X12.2432 Y-16.3866
G01 X12.2432 Y-17.6866
G01 X12.2435 Y-17.6930
G01 X12.2448 Y-17.7008
G01 X12.2481 Y-17.7115
G01 X12.2524 Y-17.7200
G01 X12.2580 Y-17.7278
G01 X12.2645 Y-17.7348
G01 X12.2721 Y-17.7406
G01 X12.2819 Y-17.7460
G01 X12.2909 Y-17.7492
G01 X12.3002 Y-17.7511
G01 X12.3082 Y-17.7516
G01 X12.6931 Y-17.7516
G01 X12.6931 Y-18.2216
G01 X12.3050 Y-18.2217
G01 X12.2940 Y-18.2232
G01 X12.2833 Y-18.2265
G01 X12.2748 Y-18.2308
G01 X12.2657 Y-18.2374
G01 X12.2611 Y-18.2418
G01 X12.2570 Y-18.2466
G01 X12.2533 Y-18.2518
G01 X12.2501 Y-18.2574
G01 X12.2470 Y-18.2647
G01 X12.2451 Y-18.2708
G01 X12.2439 Y-18.2771
G01 X12.2433 Y-18.2834
G01 X12.2432 Y-18.6177
G01 X11.3308 Y-18.6132
G01 X11.3308 Y-18.1241
G01 X11.3305 Y-18.1177
G01 X11.3289 Y-18.1083
G01 X11.3252 Y-18.0978
G01 X11.3207 Y-18.0893
G01 X11.3140 Y-18.0804
G01 X11.3058 Y-18.0729
G01 X11.2978 Y-18.0675
G01 X11.2877 Y-18.0629
G01 X11.2785 Y-18.0603
G01 X11.2722 Y-18.0594
G01 X11.2658 Y-18.0591
G01 X9.6626 Y-18.0592
G01 X9.6516 Y-18.0607
G01 X9.6454 Y-18.0624
G01 X9.6395 Y-18.0647
G01 X9.6338 Y-18.0675
G01 X9.6284 Y-18.0710
G01 X9.6233 Y-18.0749
G01 X9.6187 Y-18.0793
G01 X9.6146 Y-18.0841
G01 X9.6109 Y-18.0893
G01 X9.6057 Y-18.0992
G01 X9.6036 Y-18.1052
G01 X9.6020 Y-18.1114
G01 X9.6011 Y-18.1177
G01 X9.6008 Y-18.1241
G00 Z2.0000
G00 X7.8549 Y-18.4150
G01 F60.00
G01 Z-0.0560
G01 F120.00
G01 X7.8538 Y-18.4380
G01 X7.8504 Y-18.4608
G01 X7.8448 Y-18.4832
G01 X7.8370 Y-18.5049
G01 X7.8272 Y-18.5257
G01 X7.8153 Y-18.5455
G01 X7.8016 Y-18.5640
G01 X7.7861 Y-18.5811
G01 X7.7690 Y-18.5966
G01 X7.7505 Y-18.6103
G01 X7.7307 Y-18.6222
G01 X7.7099 Y-18.6320
G01 X7.6882 Y-18.6398
G01 X7.6658 Y-18.6454
G01 X7.6430 Y-18.6488
G01 X7.6200 Y-18.6499
G01 X7.5970 Y-18.6488
G01 X7.5742 Y-18.6454
G01 X7.5518 Y-18.6398
G01 X7.5301 Y-18.6320
G01 X7.5093 Y-18.6222
G01 X7.4895 Y-18.6103
G01 X7.4710 Y-18.5966
G01 X7.4539 Y-18.5811
G01 X7.4384 Y-18.5640
G01 X7.4247 Y-18.5455
G01 X7.4128 Y-18.5257
G01 X7.4030 Y-18.5049
G01 X7.3952 Y-18.4832
G01 X7.3896 Y-18.4608
G01 X7.3862 Y-18.4380
G01 X7.3851 Y-18.4150
G01 X7.3862 Y-18.3920
G01 X7.3896 Y-18.3692
G01 X7.3952 Y-18.3468
G01 X7.4030 Y-18.3251
G01 X7.4128 Y-18.3043
G01 X7.4247 Y-18.2845
G01 X7.4384 Y-18.2660
G01 X7.4539 Y-18.2489
G01 X7.4710 Y-18.2334
G01 X7.4895 Y-18.2197
G01 X7.5093 Y-18.2078
G01 X7.5301 Y-18.1980
G01 X7.5518 Y-18.1902
G01 X7.5742 Y-18.1846
G01 X7.5970 Y-18.1812
G01 X7.6200 Y-18.1801
G01 X7.6430 Y-18.1812
G01 X7.6658 Y-18.1846
G01 X7.6882 Y-18.1902
G01 X7.7099 Y-18.1980
G01 X7.7307 Y-18.2078
G01 X7.7505 Y-18.2197
G01 X7.7690 Y-18.2334
G01 X7.7861 Y-18.2489
G01 X7.8016 Y-18.2660
G01 X7.8153 Y-18.2845
G01 X7.8272 Y-18.3043
G01 X7.8370 Y-18.3251
G01 X7.8448 Y-18.3468
G01 X7.8504 Y-18.3692
G01 X7.8538 Y-18.3920
G01 X7.8549 Y-18.4150
G00 Z2.0000
G00 X7.7573 Y-18.4150
G01 F60.00
G01 Z-0.0560
G01 F120.00
G01 X7.7566 Y-18.4285
G01 X7.7547 Y-18.4418
G01 X7.7514 Y-18.4549
G01 X7.7469 Y-18.4675
G01 X7.7411 Y-18.4797
G01 X7.7342 Y-18.4913
G01 X7.7261 Y-18.5021
G01 X7.7171 Y-18.5121
G01 X7.7071 Y-18.5211
G01 X7.6963 Y-18.5292
G01 X7.6847 Y-18.5361
G01 X7.6725 Y-18.5419
G01 X7.6599 Y-18.5464
G01 X7.6468 Y-18.5497
G01 X7.6335 Y-18.5516
G01 X7.6200 Y-18.5523
G01 X7.6065 Y-18.5516
G01 X7.5932 Y-18.5497
G01 X7.5801 Y-18.5464
G01 X7.5675 Y-18.5419
G01 X7.5553 Y-18.5361
G01 X7.5437 Y-18.5292
G01 X7.5329 Y-18.5211
G01 X7.5229 Y-18.5121
G01 X7.5139 Y-18.5021
G01 X7.5058 Y-18.4913
G01 X7.4989 Y-18.4797
G01 X7.4931 Y-18.4675
G01 X7.4886 Y-18.4549
G01 X7.4853 Y-18.4418
G01 X7.4834 Y-18.4285
G01 X7.4827 Y-18.4150
G01 X7.4834 Y-18.4015
G01 X7.4853 Y-18.3882
G01 X7.4886 Y-18.3751
G01 X7.4931 Y-18.3625
G01 X7.4989 Y-18.3503
G01 X7.5058 Y-18.3387
G01 X7.5139 Y-18.3279
G01 X7.5229 Y-18.3179
G01 X7.5329 Y-18.3089
G01 X7.5437 Y-18.3008
G01 X7.5553 Y-18.2939
G01 X7.5675 Y-18.2881
G01 X7.5801 Y-18.2836
G01 X7.5932 Y-18.2803
G01 X7.6065 Y-18.2784
G01 X7.6200 Y-18.2777
G01 X7.6335 Y-18.2784
G01 X7.6468 Y-18.2803
G01 X7.6599 Y-18.2836
G01 X7.6725 Y-18.2881
G01 X7.6847 Y-18.2939
G01 X7.6963 Y-18.3008
G01 X7.7071 Y-18.3089
G01 X7.7171 Y-18.3179
G01 X7.7261 Y-18.3279
G01 X7.7342 Y-18.3387
G01 X7.7411 Y-18.3503
G01 X7.7469 Y-18.3625
G01 X7.7514 Y-18.3751
G01 X7.7547 Y-18.3882
G01 X7.7566 Y-18.4015
G01 X7.7573 Y-18.4150
G00 Z2.0000
G00 X7.6597 Y-18.4150
G01 F60.00
G01 Z-0.0560
G01 F120.00
G01 X7.6589 Y-18.4227
G01 X7.6567 Y-18.4302
G01 X7.6530 Y-18.4370
G01 X7.6481 Y-18.4431
G01 X7.6420 Y-18.4480
G01 X7.6352 Y-18.4517
G01 X7.6277 Y-18.4539
G01 X7.6200 Y-18.4547
G01 X7.6123 Y-18.4539
G01 X7.6048 Y-18.4517
G01 X7.5980 Y-18.4480
G01 X7.5919 Y-18.4431
G01 X7.5870 Y-18.4370
G01 X7.5833 Y-18.4302
G01 X7.5811 Y-18.4227
G01 X7.5803 Y-18.4150
G01 X7.5811 Y-18.4073
G01 X7.5833 Y-18.3998
G01 X7.5870 Y-18.3930
G01 X7.5919 Y-18.3869
G01 X7.5980 Y-18.3820
G01 X7.6048 Y-18.3783
G01 X7.6123 Y-18.3761
G01 X7.6200 Y-18.3753
G01 X7.6277 Y-18.3761
G01 X7.6352 Y-18.3783
G01 X7.6420 Y-18.3820
G01 X7.6481 Y-18.3869
G01 X7.6530 Y-18.3930
G01 X7.6567 Y-18.3998
G01 X7.6589 Y-18.4073
G01 X7.6597 Y-18.4150
G00 Z2.0000
G00 X6.5995 Y-16.7441
G01 F60.00
G01 Z-0.0560
G01 F120.00
G01 X7.6195 Y-16.7441
G01 X7.6290 Y-16.7434
G01 X7.6399 Y-16.7408
G01 X7.6487 Y-16.7372
G01 X7.6569 Y-16.7322
G01 X7.6632 Y-16.7273
G01 X7.6697 Y-16.7203
G01 X7.6753 Y-16.7125
G01 X7.6796 Y-16.7040
G01 X7.6826 Y-16.6949
G01 X7.6840 Y-16.6871
G01 X7.6845 Y-16.6791
G01 X7.6845 Y-16.3842
G01 X9.6008 Y-16.3842
G01 X9.6010 Y-16.9289
G01 X9.6024 Y-16.9383
G01 X9.6052 Y-16.9475
G01 X9.6092 Y-16.9561
G01 X9.6146 Y-16.9641
G01 X9.6210 Y-16.9712
G01 X9.6284 Y-16.9772
G01 X9.6352 Y-16.9814
G01 X9.6439 Y-16.9853
G01 X9.6547 Y-16.9881
G01 X9.6658 Y-16.9891
G01 X11.2658 Y-16.9891
G01 X11.2753 Y-16.9884
G01 X11.2847 Y-16.9863
G01 X11.2950 Y-16.9822
G01 X11.3032 Y-16.9772
G01 X11.3118 Y-16.9701
G01 X11.3180 Y-16.9628
G01 X11.3231 Y-16.9547
G01 X11.3270 Y-16.9460
G01 X11.3298 Y-16.9352
G01 X11.3308 Y-16.9257
G01 X11.3308 Y-15.3241
G01 X11.3301 Y-15.3146
G01 X11.3280 Y-15.3052
G01 X11.3246 Y-15.2963
G01 X11.3189 Y-15.2867
G01 X11.3129 Y-15.2793
G01 X11.3058 Y-15.2729
G01 X11.2978 Y-15.2675
G01 X11.2877 Y-15.2629
G01 X11.2769 Y-15.2601
G01 X11.2674 Y-15.2591
G01 X9.6658 Y-15.2591
G01 X9.6578 Y-15.2596
G01 X9.6500 Y-15.2610
G01 X9.6409 Y-15.2640
G01 X9.6324 Y-15.2683
G01 X9.6246 Y-15.2739
G01 X9.6166 Y-15.2816
G01 X9.6109 Y-15.2893
G01 X9.6057 Y-15.2992
G01 X9.6027 Y-15.3083
G01 X9.6011 Y-15.3177
G01 X9.6008 Y-15.3241
G01 X9.6008 Y-15.7540
G01 X7.6845 Y-15.7540
G01 X7.6845 Y-15.4591
G01 X7.6840 Y-15.4511
G01 X7.6821 Y-15.4418
G01 X7.6789 Y-15.4328
G01 X7.6744 Y-15.4243
G01 X7.6697 Y-15.4179
G01 X7.6632 Y-15.4109
G01 X7.6556 Y-15.4051
G01 X7.6487 Y-15.4010
G01 X7.6399 Y-15.3974
G01 X7.6290 Y-15.3948
G01 X7.6195 Y-15.3941
G01 X6.5995 Y-15.3941
G01 X6.5900 Y-15.3948
G01 X6.5806 Y-15.3969
G01 X6.5717 Y-15.4003
G01 X6.5634 Y-15.4051
G01 X6.5547 Y-15.4120
G01 X6.5483 Y-15.4191
G01 X6.5422 Y-15.4285
G01 X6.5383 Y-15.4372
G01 X6.5357 Y-15.4464
G01 X6.5345 Y-15.4575
G01 X6.5345 Y-16.6807
G01 X6.5350 Y-16.6871
G01 X6.5361 Y-16.6933
G01 X6.5378 Y-16.6995
G01 X6.5401 Y-16.7054
G01 X6.5429 Y-16.7111
G01 X6.5464 Y-16.7165
G01 X6.5503 Y-16.7216
G01 X6.5547 Y-16.7262
G01 X6.5595 Y-16.7303
G01 X6.5647 Y-16.7340
G01 X6.5703 Y-16.7372
G01 X6.5761 Y-16.7397
G01 X6.5822 Y-16.7417
G01 X6.5884 Y-16.7431
G01 X6.5995 Y-16.7441
G00 Z2.0000
G00 X4.8797 Y-19.2499
G01 F60.00
G01 Z-0.0560
G01 F120.00
G01 X3.5897 Y-19.2499
G01 X3.5897 Y-17.7599
G01 X3.7845 Y-17.7599
G01 X3.7924 Y-17.7594
G01 X3.7987 Y-17.7583
G01 X3.8079 Y-17.7555
G01 X3.8165 Y-17.7515
G01 X3.8257 Y-17.7451
G01 X3.8326 Y-17.7386
G01 X3.8385 Y-17.7310
G01 X3.8432 Y-17.7227
G01 X3.8471 Y-17.7122
G01 X3.8490 Y-17.7029
G01 X3.8495 Y-17.6949
G01 X3.8495 Y-15.6354
G01 X3.8514 Y-15.5960
G01 X3.8570 Y-15.5587
G01 X3.8661 Y-15.5220
G01 X3.8789 Y-15.4864
G01 X3.8950 Y-15.4522
G01 X3.9145 Y-15.4198
G01 X3.9370 Y-15.3895
G01 X3.9634 Y-15.3603
G01 X5.0496 Y-14.2741
G01 X5.0547 Y-14.2680
G01 X5.0591 Y-14.2614
G01 X5.0626 Y-14.2542
G01 X5.0652 Y-14.2467
G01 X5.0668 Y-14.2389
G01 X5.0675 Y-14.2309
G01 X5.0670 Y-14.2214
G01 X5.0656 Y-14.2135
G01 X5.0626 Y-14.2045
G01 X5.0591 Y-14.1973
G01 X5.0538 Y-14.1893
G01 X5.0485 Y-14.1834
G01 X5.0425 Y-14.1781
G01 X5.0359 Y-14.1736
G01 X5.0289 Y-14.1699
G01 X5.0199 Y-14.1667
G01 X5.0121 Y-14.1650
G01 X5.0041 Y-14.1643
G01 X4.8830 Y-14.1643
G01 X4.8436 Y-14.1624
G01 X4.8063 Y-14.1568
G01 X4.7696 Y-14.1477
G01 X4.7340 Y-14.1349
G01 X4.6998 Y-14.1188
G01 X4.6674 Y-14.0993
G01 X4.6371 Y-14.0768
G01 X4.6079 Y-14.0504
G01 X4.1511 Y-13.5935
G01 X4.1462 Y-13.5894
G01 X4.1397 Y-13.5848
G01 X4.1340 Y-13.5818
G01 X4.1266 Y-13.5789
G01 X4.1158 Y-13.5763
G01 X4.1062 Y-13.5756
G01 X3.0579 Y-13.5756
G01 X3.0579 Y-12.0056
G01 X4.7279 Y-12.0056
G01 X4.7279 Y-13.0538
G01 X4.7282 Y-13.0602
G01 X4.7295 Y-13.0681
G01 X4.7323 Y-13.0772
G01 X4.7363 Y-13.0859
G01 X4.7417 Y-13.0938
G01 X4.7469 Y-13.0998
G01 X5.0231 Y-13.3759
G01 X5.0292 Y-13.3811
G01 X5.0359 Y-13.3854
G01 X5.0430 Y-13.3889
G01 X5.0506 Y-13.3915
G01 X5.0599 Y-13.3934
G01 X5.0679 Y-13.3939
G01 X5.3827 Y-13.3938
G01 X5.3937 Y-13.3923
G01 X5.4044 Y-13.3889
G01 X5.4143 Y-13.3838
G01 X5.4232 Y-13.3770
G01 X5.4277 Y-13.3725
G01 X5.4317 Y-13.3676
G01 X5.4353 Y-13.3623
G01 X5.4383 Y-13.3567
G01 X5.4407 Y-13.3508
G01 X5.4426 Y-13.3447
G01 X5.4443 Y-13.3337
G01 X5.4445 Y-13.0341
G01 X6.7345 Y-13.0341
G01 X6.7345 Y-14.5241
G01 X5.9162 Y-14.5241
G01 X5.9082 Y-14.5246
G01 X5.8989 Y-14.5265
G01 X5.8913 Y-14.5290
G01 X5.8828 Y-14.5333
G01 X5.8762 Y-14.5379
G01 X5.8702 Y-14.5431
G01 X4.6390 Y-15.7743
G01 X4.6337 Y-15.7803
G01 X4.6292 Y-15.7869
G01 X4.6255 Y-15.7940
G01 X4.6227 Y-15.8014
G01 X4.6206 Y-15.8108
G01 X4.6199 Y-15.8203
G01 X4.6201 Y-17.6997
G01 X4.6219 Y-17.7107
G01 X4.6249 Y-17.7198
G01 X4.6292 Y-17.7283
G01 X4.6357 Y-17.7374
G01 X4.6437 Y-17.7451
G01 X4.6515 Y-17.7507
G01 X4.6601 Y-17.7550
G01 X4.6707 Y-17.7583
G01 X4.6770 Y-17.7594
G01 X4.6849 Y-17.7599
G01 X4.8797 Y-17.7599
G01 X4.8797 Y-19.2499
G00 Z2.0000
G00 X5.0198 Y-20.0500
G01 F60.00
G01 Z-0.0560
G01 F120.00
G01 X5.0198 Y-20.1200
G01 X4.7400 Y-20.1202
G01 X4.7337 Y-20.1210
G01 X4.7275 Y-20.1224
G01 X4.7199 Y-20.1249
G01 X4.7142 Y-20.1277
G01 X4.7087 Y-20.1310
G01 X4.7036 Y-20.1348
G01 X4.6988 Y-20.1390
G01 X4.6946 Y-20.1438
G01 X4.6882 Y-20.1530
G01 X4.6836 Y-20.1631
G01 X4.6808 Y-20.1739
G01 X4.6798 Y-20.1834
G01 X4.6798 Y-20.5599
G01 X4.6098 Y-20.5599
G01 X4.6098 Y-20.0500
G01 X5.0198 Y-20.0500
G00 Z2.0000
G00 X5.8998 Y-20.5600
G01 F60.00
G01 Z-0.0560
G01 F120.00
G01 X5.8298 Y-20.5600
G01 X5.8298 Y-20.1834
G01 X5.8286 Y-20.1723
G01 X5.8260 Y-20.1631
G01 X5.8214 Y-20.1530
G01 X5.8150 Y-20.1438
G01 X5.8108 Y-20.1390
G01 X5.8048 Y-20.1338
G01 X5.7996 Y-20.1301
G01 X5.7940 Y-20.1269
G01 X5.7882 Y-20.1244
G01 X5.7821 Y-20.1224
G01 X5.7759 Y-20.1210
G01 X5.7696 Y-20.1202
G01 X5.4898 Y-20.1200
G01 X5.4898 Y-20.0500
G01 X5.8998 Y-20.0500
G01 X5.8998 Y-20.5600
G00 Z2.0000
G00 X5.8998 Y-21.5400
G01 F60.00
G01 Z-0.0560
G01 F120.00
G01 X5.4898 Y-21.5400
G01 X5.4898 Y-21.4700
G01 X5.7648 Y-21.4700
G01 X5.7712 Y-21.4697
G01 X5.7775 Y-21.4688
G01 X5.7852 Y-21.4667
G01 X5.7911 Y-21.4644
G01 X5.7982 Y-21.4608
G01 X5.8035 Y-21.4572
G01 X5.8096 Y-21.4521
G01 X5.8150 Y-21.4462
G01 X5.8188 Y-21.4411
G01 X5.8229 Y-21.4342
G01 X5.8265 Y-21.4254
G01 X5.8288 Y-21.4161
G01 X5.8298 Y-21.4066
G01 X5.8298 Y-21.0300
G01 X5.8998 Y-21.0300
G01 X5.8998 Y-21.5400
G00 Z2.0000
G00 X5.0231 Y-22.0699
G01 F60.00
G01 Z-0.0560
G01 F120.00
G01 X5.0231 Y-22.1399
G01 X4.6547 Y-22.1399
G01 X4.6452 Y-22.1406
G01 X4.6343 Y-22.1432
G01 X4.6241 Y-22.1476
G01 X4.6186 Y-22.1509
G01 X4.6135 Y-22.1547
G01 X4.6055 Y-22.1624
G01 X4.5989 Y-22.1715
G01 X4.5941 Y-22.1815
G01 X4.5921 Y-22.1876
G01 X4.5907 Y-22.1938
G01 X4.5897 Y-22.2049
G01 X4.5897 Y-23.8049
G01 X4.5902 Y-23.8129
G01 X4.5916 Y-23.8207
G01 X4.5953 Y-23.8312
G01 X4.5998 Y-23.8397
G01 X4.6055 Y-23.8474
G01 X4.6122 Y-23.8541
G01 X4.6199 Y-23.8598
G01 X4.6284 Y-23.8643
G01 X4.6374 Y-23.8675
G01 X4.6467 Y-23.8694
G01 X4.6547 Y-23.8699
G01 X5.0231 Y-23.8699
G01 X5.0231 Y-23.9399
G01 X4.5197 Y-23.9399
G01 X4.5197 Y-22.0699
G01 X5.0231 Y-22.0699
G00 Z2.0000
G00 X4.6098 Y-21.0299
G01 F60.00
G01 Z-0.0560
G01 F120.00
G01 X4.6798 Y-21.0299
G01 X4.6798 Y-21.4066
G01 X4.6810 Y-21.4177
G01 X4.6842 Y-21.4284
G01 X4.6890 Y-21.4384
G01 X4.6946 Y-21.4462
G01 X4.6988 Y-21.4510
G01 X4.7036 Y-21.4552
G01 X4.7087 Y-21.4590
G01 X4.7142 Y-21.4623
G01 X4.7199 Y-21.4651
G01 X4.7259 Y-21.4672
G01 X4.7337 Y-21.4690
G01 X4.7400 Y-21.4698
G01 X5.0198 Y-21.4700
G01 X5.0198 Y-21.5400
G01 X4.6098 Y-21.5400
G01 X4.6098 Y-21.0299
G00 Z2.0000
G00 X2.7047 Y-21.4699
G01 F60.00
G01 Z-0.0560
G01 F120.00
G01 X2.8996 Y-21.4699
G01 X2.8996 Y-22.1399
G01 X2.7531 Y-22.1399
G01 X2.7452 Y-22.1406
G01 X2.7358 Y-22.1427
G01 X2.7255 Y-22.1468
G01 X2.7173 Y-22.1518
G01 X2.7087 Y-22.1589
G01 X2.7025 Y-22.1662
G01 X2.6966 Y-22.1757
G01 X2.6930 Y-22.1845
G01 X2.6904 Y-22.1954
G01 X2.6897 Y-22.2049
G01 X2.6897 Y-23.8049
G01 X2.6900 Y-23.8113
G01 X2.6916 Y-23.8207
G01 X2.6946 Y-23.8298
G01 X2.6989 Y-23.8383
G01 X2.7045 Y-23.8461
G01 X2.7110 Y-23.8531
G01 X2.7186 Y-23.8589
G01 X2.7284 Y-23.8643
G01 X2.7374 Y-23.8675
G01 X2.7452 Y-23.8692
G01 X2.7531 Y-23.8699
G01 X2.8996 Y-23.8699
G01 X2.8996 Y-24.3399
G01 X2.7531 Y-24.3399
G01 X2.7452 Y-24.3406
G01 X2.7374 Y-24.3423
G01 X2.7284 Y-24.3455
G01 X2.7199 Y-24.3500
G01 X2.7122 Y-24.3557
G01 X2.7055 Y-24.3624
G01 X2.6998 Y-24.3701
G01 X2.6959 Y-24.3771
G01 X2.6925 Y-24.3860
G01 X2.6904 Y-24.3954
G01 X2.6897 Y-24.4049
G01 X2.6897 Y-25.7049
G01 X2.6907 Y-25.7160
G01 X2.6930 Y-25.7253
G01 X2.6966 Y-25.7341
G01 X2.7016 Y-25.7423
G01 X2.7087 Y-25.7509
G01 X2.7160 Y-25.7571
G01 X2.7255 Y-25.7630
G01 X2.7343 Y-25.7666
G01 X2.7436 Y-25.7689
G01 X2.7531 Y-25.7699
G01 X4.1547 Y-25.7699
G01 X4.1642 Y-25.7692
G01 X4.1751 Y-25.7666
G01 X4.1839 Y-25.7630
G01 X4.1921 Y-25.7580
G01 X4.1995 Y-25.7520
G01 X4.2069 Y-25.7436
G01 X4.2120 Y-25.7355
G01 X4.2159 Y-25.7268
G01 X4.2187 Y-25.7160
G01 X4.2197 Y-25.7065
G01 X4.2197 Y-24.4049
G01 X4.2192 Y-24.3969
G01 X4.2181 Y-24.3907
G01 X4.2164 Y-24.3845
G01 X4.2141 Y-24.3786
G01 X4.2096 Y-24.3701
G01 X4.2049 Y-24.3637
G01 X4.1995 Y-24.3578
G01 X4.1921 Y-24.3518
G01 X4.1839 Y-24.3468
G01 X4.1766 Y-24.3437
G01 X4.1674 Y-24.3411
G01 X4.1579 Y-24.3400
G01 X3.5298 Y-24.3399
G01 X3.5298 Y-23.8699
G01 X4.0547 Y-23.8699
G01 X4.0611 Y-23.8696
G01 X4.0674 Y-23.8687
G01 X4.0736 Y-23.8671
G01 X4.0839 Y-23.8630
G01 X4.0934 Y-23.8571
G01 X4.1018 Y-23.8497
G01 X4.1087 Y-23.8410
G01 X4.1141 Y-23.8312
G01 X4.1164 Y-23.8253
G01 X4.1181 Y-23.8191
G01 X4.1196 Y-23.8081
G01 X4.1197 Y-22.2049
G01 X4.1187 Y-22.1938
G01 X4.1159 Y-22.1830
G01 X4.1120 Y-22.1743
G01 X4.1069 Y-22.1662
G01 X4.1007 Y-22.1589
G01 X4.0934 Y-22.1527
G01 X4.0867 Y-22.1483
G01 X4.0781 Y-22.1443
G01 X4.0689 Y-22.1415
G01 X4.0595 Y-22.1401
G01 X3.5298 Y-22.1399
G01 X3.5298 Y-21.4699
G01 X3.7247 Y-21.4699
G01 X3.7327 Y-21.4694
G01 X3.7389 Y-21.4683
G01 X3.7481 Y-21.4655
G01 X3.7567 Y-21.4615
G01 X3.7647 Y-21.4561
G01 X3.7729 Y-21.4486
G01 X3.7796 Y-21.4397
G01 X3.7841 Y-21.4312
G01 X3.7873 Y-21.4222
G01 X3.7892 Y-21.4129
G01 X3.7897 Y-21.4049
G01 X3.7897 Y-20.1833
G01 X3.7890 Y-20.1754
G01 X3.7878 Y-20.1691
G01 X3.7853 Y-20.1615
G01 X3.7828 Y-20.1557
G01 X3.7796 Y-20.1501
G01 X3.7749 Y-20.1437
G01 X3.7707 Y-20.1389
G01 X3.7647 Y-20.1337
G01 X3.7553 Y-20.1276
G01 X3.7466 Y-20.1237
G01 X3.7374 Y-20.1211
G01 X3.7263 Y-20.1199
G01 X2.7047 Y-20.1199
G01 X2.6967 Y-20.1204
G01 X2.6905 Y-20.1215
G01 X2.6843 Y-20.1232
G01 X2.6769 Y-20.1261
G01 X2.6699 Y-20.1300
G01 X2.6635 Y-20.1347
G01 X2.6576 Y-20.1401
G01 X2.6535 Y-20.1449
G01 X2.6474 Y-20.1543
G01 X2.6430 Y-20.1645
G01 X2.6404 Y-20.1754
G01 X2.6397 Y-20.1849
G01 X2.6398 Y-21.4081
G01 X2.6404 Y-21.4144
G01 X2.6416 Y-21.4207
G01 X2.6435 Y-21.4268
G01 X2.6459 Y-21.4327
G01 X2.6516 Y-21.4423
G01 X2.6555 Y-21.4474
G01 X2.6599 Y-21.4520
G01 X2.6647 Y-21.4561
G01 X2.6699 Y-21.4598
G01 X2.6798 Y-21.4650
G01 X2.6858 Y-21.4671
G01 X2.6920 Y-21.4687
G01 X2.6983 Y-21.4696
G01 X2.7047 Y-21.4699
G00 Z2.0000
G00 X6.0897 Y-22.7232
G01 F60.00
G01 Z-0.0560
G01 F120.00
G01 X6.0197 Y-22.7232
G01 X6.0197 Y-22.2033
G01 X6.0187 Y-22.1938
G01 X6.0159 Y-22.1830
G01 X6.0113 Y-22.1729
G01 X6.0059 Y-22.1649
G01 X6.0018 Y-22.1601
G01 X5.9972 Y-22.1557
G01 X5.9908 Y-22.1509
G01 X5.9853 Y-22.1476
G01 X5.9781 Y-22.1443
G01 X5.9720 Y-22.1423
G01 X5.9658 Y-22.1409
G01 X5.9579 Y-22.1400
G01 X5.5864 Y-22.1399
G01 X5.5864 Y-22.0699
G01 X6.0897 Y-22.0699
G01 X6.0897 Y-22.7232
G00 Z2.0000
G00 X6.0897 Y-23.9399
G01 F60.00
G01 Z-0.0560
G01 F120.00
G01 X5.5864 Y-23.9399
G01 X5.5864 Y-23.8699
G01 X5.9595 Y-23.8697
G01 X5.9674 Y-23.8687
G01 X5.9751 Y-23.8666
G01 X5.9825 Y-23.8637
G01 X5.9881 Y-23.8607
G01 X5.9934 Y-23.8571
G01 X5.9995 Y-23.8520
G01 X6.0039 Y-23.8474
G01 X6.0087 Y-23.8410
G01 X6.0135 Y-23.8327
G01 X6.0164 Y-23.8253
G01 X6.0187 Y-23.8160
G01 X6.0197 Y-23.8065
G01 X6.0197 Y-23.2865
G01 X6.0897 Y-23.2865
G01 X6.0897 Y-23.9399
G00 Z2.0000
G00 X4.2897 Y-25.8399
G01 F60.00
G01 Z-0.0560
G01 F120.00
G01 X2.6197 Y-25.8399
G01 X2.6197 Y-24.2699
G01 X2.7661 Y-24.2699
G01 X2.7756 Y-24.2689
G01 X2.7833 Y-24.2671
G01 X2.7923 Y-24.2637
G01 X2.8019 Y-24.2580
G01 X2.8104 Y-24.2509
G01 X2.8167 Y-24.2436
G01 X2.8218 Y-24.2355
G01 X2.8262 Y-24.2253
G01 X2.8288 Y-24.2144
G01 X2.8295 Y-24.2049
G01 X2.8294 Y-24.0017
G01 X2.8279 Y-23.9907
G01 X2.8251 Y-23.9815
G01 X2.8210 Y-23.9729
G01 X2.8157 Y-23.9649
G01 X2.8116 Y-23.9601
G01 X2.8069 Y-23.9557
G01 X2.8019 Y-23.9518
G01 X2.7965 Y-23.9483
G01 X2.7908 Y-23.9455
G01 X2.7849 Y-23.9432
G01 X2.7787 Y-23.9415
G01 X2.7724 Y-23.9404
G01 X2.7645 Y-23.9399
G01 X2.6197 Y-23.9399
G01 X2.6197 Y-22.0699
G01 X2.7645 Y-22.0699
G01 X2.7708 Y-22.0696
G01 X2.7772 Y-22.0687
G01 X2.7849 Y-22.0666
G01 X2.7923 Y-22.0637
G01 X2.7992 Y-22.0598
G01 X2.8057 Y-22.0551
G01 X2.8116 Y-22.0497
G01 X2.8167 Y-22.0436
G01 X2.8202 Y-22.0383
G01 X2.8239 Y-22.0312
G01 X2.8262 Y-22.0253
G01 X2.8279 Y-22.0191
G01 X2.8290 Y-22.0129
G01 X2.8295 Y-22.0065
G01 X2.8295 Y-21.6049
G01 X2.8288 Y-21.5954
G01 X2.8262 Y-21.5845
G01 X2.8218 Y-21.5743
G01 X2.8157 Y-21.5649
G01 X2.8081 Y-21.5567
G01 X2.7992 Y-21.5500
G01 X2.7908 Y-21.5455
G01 X2.7803 Y-21.5418
G01 X2.7724 Y-21.5404
G01 X2.7645 Y-21.5399
G01 X2.5697 Y-21.5399
G01 X2.5697 Y-20.0499
G01 X3.8597 Y-20.0499
G01 X3.8597 Y-21.5399
G01 X3.6649 Y-21.5399
G01 X3.6570 Y-21.5404
G01 X3.6507 Y-21.5415
G01 X3.6430 Y-21.5437
G01 X3.6357 Y-21.5468
G01 X3.6288 Y-21.5509
G01 X3.6225 Y-21.5557
G01 X3.6168 Y-21.5612
G01 X3.6127 Y-21.5662
G01 X3.6084 Y-21.5729
G01 X3.6049 Y-21.5800
G01 X3.6023 Y-21.5876
G01 X3.6006 Y-21.5954
G01 X3.5999 Y-21.6033
G01 X3.6001 Y-22.0097
G01 X3.6019 Y-22.0207
G01 X3.6055 Y-22.0312
G01 X3.6109 Y-22.0410
G01 X3.6178 Y-22.0497
G01 X3.6262 Y-22.0571
G01 X3.6315 Y-22.0607
G01 X3.6371 Y-22.0637
G01 X3.6476 Y-22.0675
G01 X3.6586 Y-22.0696
G01 X3.6649 Y-22.0699
G01 X4.1897 Y-22.0699
G01 X4.1897 Y-23.9399
G01 X3.6649 Y-23.9399
G01 X3.6586 Y-23.9402
G01 X3.6507 Y-23.9415
G01 X3.6445 Y-23.9432
G01 X3.6386 Y-23.9455
G01 X3.6302 Y-23.9500
G01 X3.6237 Y-23.9547
G01 X3.6178 Y-23.9601
G01 X3.6127 Y-23.9662
G01 X3.6084 Y-23.9729
G01 X3.6049 Y-23.9800
G01 X3.6023 Y-23.9876
G01 X3.6006 Y-23.9954
G01 X3.5999 Y-24.0049
G01 X3.6001 Y-24.2097
G01 X3.6019 Y-24.2207
G01 X3.6055 Y-24.2312
G01 X3.6084 Y-24.2369
G01 X3.6118 Y-24.2423
G01 X3.6190 Y-24.2509
G01 X3.6275 Y-24.2580
G01 X3.6371 Y-24.2637
G01 X3.6476 Y-24.2675
G01 X3.6586 Y-24.2696
G01 X3.6649 Y-24.2699
G01 X4.2897 Y-24.2699
G01 X4.2897 Y-25.8399
G00 Z2.0000
G00 X2.6897 Y-26.3049
G01 F60.00
G01 Z-0.0560
G01 F120.00
G01 X2.6897 Y-27.6049
G01 X2.6904 Y-27.6144
G01 X2.6930 Y-27.6253
G01 X2.6966 Y-27.6341
G01 X2.7007 Y-27.6410
G01 X2.7065 Y-27.6486
G01 X2.7135 Y-27.6551
G01 X2.7213 Y-27.6607
G01 X2.7298 Y-27.6650
G01 X2.7389 Y-27.6680
G01 X2.7483 Y-27.6696
G01 X2.7547 Y-27.6699
G01 X3.1377 Y-27.6699
G01 X3.1377 Y-32.5438
G01 X3.1392 Y-32.5747
G01 X3.1434 Y-32.6037
G01 X3.1504 Y-32.6322
G01 X3.1522 Y-32.6383
G01 X3.1617 Y-32.6644
G01 X3.1749 Y-32.6923
G01 X3.1891 Y-32.7162
G01 X3.1926 Y-32.7215
G01 X3.2092 Y-32.7437
G01 X3.2278 Y-32.7643
G01 X3.9650 Y-33.5016
G01 X3.9650 Y-34.0869
G01 X3.7511 Y-34.0869
G01 X3.7447 Y-34.0872
G01 X3.7384 Y-34.0881
G01 X3.7292 Y-34.0907
G01 X3.7205 Y-34.0946
G01 X3.7124 Y-34.0997
G01 X3.7040 Y-34.1071
G01 X3.6971 Y-34.1158
G01 X3.6923 Y-34.1241
G01 X3.6889 Y-34.1330
G01 X3.6868 Y-34.1424
G01 X3.6861 Y-34.1519
G01 X3.6861 Y-35.3719
G01 X3.6866 Y-35.3799
G01 X3.6877 Y-35.3861
G01 X3.6905 Y-35.3953
G01 X3.6953 Y-35.4053
G01 X3.7019 Y-35.4144
G01 X3.7086 Y-35.4211
G01 X3.7177 Y-35.4277
G01 X3.7277 Y-35.4325
G01 X3.7384 Y-35.4357
G01 X3.7479 Y-35.4368
G01 X4.7711 Y-35.4369
G01 X4.7806 Y-35.4362
G01 X4.7915 Y-35.4336
G01 X4.8017 Y-35.4292
G01 X4.8111 Y-35.4231
G01 X4.8193 Y-35.4156
G01 X4.8260 Y-35.4067
G01 X4.8312 Y-35.3968
G01 X4.8345 Y-35.3861
G01 X4.8360 Y-35.3751
G01 X4.8361 Y-34.1519
G01 X4.8358 Y-34.1455
G01 X4.8342 Y-34.1361
G01 X4.8305 Y-34.1256
G01 X4.8260 Y-34.1171
G01 X4.8203 Y-34.1094
G01 X4.8136 Y-34.1027
G01 X4.8045 Y-34.0961
G01 X4.7960 Y-34.0918
G01 X4.7869 Y-34.0888
G01 X4.7791 Y-34.0874
G01 X4.7711 Y-34.0869
G01 X4.5952 Y-34.0869
G01 X4.5952 Y-33.5124
G01 X5.0906 Y-33.0170
G01 X7.2961 Y-33.0170
G01 X7.2961 Y-33.3519
G01 X7.2971 Y-33.3630
G01 X7.2999 Y-33.3738
G01 X7.3045 Y-33.3839
G01 X7.3080 Y-33.3893
G01 X7.3119 Y-33.3944
G01 X7.3199 Y-33.4021
G01 X7.3291 Y-33.4085
G01 X7.3392 Y-33.4131
G01 X7.3500 Y-33.4159
G01 X7.3611 Y-33.4169
G01 X8.7611 Y-33.4169
G01 X8.7675 Y-33.4166
G01 X8.7738 Y-33.4157
G01 X8.7845 Y-33.4125
G01 X8.7931 Y-33.4085
G01 X8.8011 Y-33.4031
G01 X8.8093 Y-33.3956
G01 X8.8160 Y-33.3867
G01 X8.8205 Y-33.3782
G01 X8.8237 Y-33.3692
G01 X8.8256 Y-33.3599
G01 X8.8261 Y-33.3519
G01 X8.8261 Y-33.0170
G01 X9.2961 Y-33.0170
G01 X9.2961 Y-33.3519
G01 X9.2966 Y-33.3599
G01 X9.2985 Y-33.3692
G01 X9.3017 Y-33.3782
G01 X9.3062 Y-33.3867
G01 X9.3129 Y-33.3956
G01 X9.3199 Y-33.4021
G01 X9.3277 Y-33.4077
G01 X9.3362 Y-33.4120
G01 X9.3453 Y-33.4150
G01 X9.3531 Y-33.4164
G01 X9.3611 Y-33.4169
G01 X10.9627 Y-33.4169
G01 X10.9738 Y-33.4157
G01 X10.9800 Y-33.4141
G01 X10.9860 Y-33.4120
G01 X10.9959 Y-33.4068
G01 X11.0048 Y-33.4001
G01 X11.0123 Y-33.3919
G01 X11.0184 Y-33.3825
G01 X11.0228 Y-33.3723
G01 X11.0254 Y-33.3614
G01 X11.0261 Y-33.3519
G01 X11.0261 Y-32.9588
G01 X11.4961 Y-32.9267
G01 X11.4961 Y-33.3519
G01 X11.4964 Y-33.3583
G01 X11.4980 Y-33.3677
G01 X11.5010 Y-33.3768
G01 X11.5053 Y-33.3853
G01 X11.5109 Y-33.3931
G01 X11.5174 Y-33.4001
G01 X11.5250 Y-33.4059
G01 X11.5333 Y-33.4107
G01 X11.5422 Y-33.4141
G01 X11.5516 Y-33.4162
G01 X11.5611 Y-33.4169
G01 X13.1611 Y-33.4169
G01 X13.1706 Y-33.4162
G01 X13.1815 Y-33.4136
G01 X13.1917 Y-33.4092
G01 X13.1972 Y-33.4059
G01 X13.2023 Y-33.4021
G01 X13.2103 Y-33.3944
G01 X13.2169 Y-33.3853
G01 X13.2217 Y-33.3753
G01 X13.2249 Y-33.3646
G01 X13.2261 Y-33.3535
G01 X13.2259 Y-31.7471
G01 X13.2242 Y-31.7361
G01 X13.2223 Y-31.7300
G01 X13.2199 Y-31.7241
G01 X13.2142 Y-31.7145
G01 X13.2103 Y-31.7094
G01 X13.2059 Y-31.7048
G01 X13.1972 Y-31.6979
G01 X13.1917 Y-31.6946
G01 X13.1860 Y-31.6918
G01 X13.1753 Y-31.6885
G01 X13.1691 Y-31.6874
G01 X13.1627 Y-31.6869
G01 X11.5611 Y-31.6869
G01 X11.5516 Y-31.6876
G01 X11.5438 Y-31.6893
G01 X11.5348 Y-31.6925
G01 X11.5263 Y-31.6970
G01 X11.5186 Y-31.7027
G01 X11.5109 Y-31.7107
G01 X11.5053 Y-31.7185
G01 X11.5010 Y-31.7270
G01 X11.4977 Y-31.7377
G01 X11.4963 Y-31.7471
G01 X11.4961 Y-32.2950
G01 X11.0261 Y-32.3271
G01 X11.0261 Y-32.0519
G01 X11.0251 Y-32.0408
G01 X11.0223 Y-32.0300
G01 X11.0177 Y-32.0199
G01 X11.0113 Y-32.0107
G01 X11.0048 Y-32.0037
G01 X10.9959 Y-31.9970
G01 X10.9874 Y-31.9925
G01 X10.9769 Y-31.9888
G01 X10.9675 Y-31.9872
G01 X10.9611 Y-31.9869
G01 X9.3611 Y-31.9869
G01 X9.3531 Y-31.9874
G01 X9.3453 Y-31.9888
G01 X9.3362 Y-31.9918
G01 X9.3263 Y-31.9970
G01 X9.3186 Y-32.0027
G01 X9.3119 Y-32.0094
G01 X9.3062 Y-32.0171
G01 X9.3017 Y-32.0256
G01 X9.2985 Y-32.0346
G01 X9.2966 Y-32.0439
G01 X9.2961 Y-32.0519
G01 X9.2961 Y-32.3868
G01 X8.8261 Y-32.3868
G01 X8.8261 Y-32.0519
G01 X8.8256 Y-32.0439
G01 X8.8237 Y-32.0346
G01 X8.8199 Y-32.0241
G01 X8.8142 Y-32.0145
G01 X8.8082 Y-32.0071
G01 X8.7998 Y-31.9997
G01 X8.7917 Y-31.9946
G01 X8.7830 Y-31.9907
G01 X8.7738 Y-31.9881
G01 X8.7675 Y-31.9872
G01 X8.7611 Y-31.9869
G01 X7.3611 Y-31.9869
G01 X7.3531 Y-31.9874
G01 X7.3422 Y-31.9897
G01 X7.3319 Y-31.9938
G01 X7.3237 Y-31.9988
G01 X7.3151 Y-32.0059
G01 X7.3080 Y-32.0145
G01 X7.3030 Y-32.0227
G01 X7.2994 Y-32.0315
G01 X7.2968 Y-32.0424
G01 X7.2961 Y-32.0519
G01 X7.2961 Y-32.3868
G01 X4.9601 Y-32.3868
G01 X4.9292 Y-32.3883
G01 X4.9002 Y-32.3925
G01 X4.8717 Y-32.3995
G01 X4.8656 Y-32.4013
G01 X4.8395 Y-32.4108
G01 X4.8144 Y-32.4226
G01 X4.8088 Y-32.4256
G01 X4.7850 Y-32.4399
G01 X4.7590 Y-32.4593
G01 X4.7373 Y-32.4791
G01 X4.2855 Y-32.9308
G01 X3.7679 Y-32.4133
G01 X3.7679 Y-27.6699
G01 X4.1579 Y-27.6698
G01 X4.1689 Y-27.6683
G01 X4.1796 Y-27.6650
G01 X4.1895 Y-27.6598
G01 X4.1984 Y-27.6531
G01 X4.2029 Y-27.6486
G01 X4.2069 Y-27.6436
G01 X4.2105 Y-27.6383
G01 X4.2135 Y-27.6327
G01 X4.2159 Y-27.6268
G01 X4.2178 Y-27.6207
G01 X4.2190 Y-27.6144
G01 X4.2196 Y-27.6081
G01 X4.2197 Y-27.2629
G01 X18.4944 Y-27.2629
G01 X18.5255 Y-27.2614
G01 X18.5563 Y-27.2568
G01 X18.5866 Y-27.2491
G01 X18.6159 Y-27.2386
G01 X18.6440 Y-27.2251
G01 X18.6707 Y-27.2090
G01 X23.4723 Y-23.9689
G01 X24.6369 Y-23.9689
G01 X24.6369 Y-24.2883
G01 X24.6376 Y-24.2978
G01 X24.6402 Y-24.3087
G01 X24.6438 Y-24.3175
G01 X24.6497 Y-24.3270
G01 X24.6559 Y-24.3343
G01 X24.6645 Y-24.3414
G01 X24.6727 Y-24.3464
G01 X24.6815 Y-24.3500
G01 X24.6924 Y-24.3526
G01 X24.7019 Y-24.3533
G01 X26.1019 Y-24.3533
G01 X26.1099 Y-24.3528
G01 X26.1192 Y-24.3509
G01 X26.1268 Y-24.3484
G01 X26.1339 Y-24.3449
G01 X26.1406 Y-24.3405
G01 X26.1467 Y-24.3354
G01 X26.1531 Y-24.3283
G01 X26.1577 Y-24.3217
G01 X26.1613 Y-24.3146
G01 X26.1641 Y-24.3072
G01 X26.1659 Y-24.2994
G01 X26.1669 Y-24.2899
G01 X26.1669 Y-22.9883
G01 X26.1662 Y-22.9788
G01 X26.1636 Y-22.9679
G01 X26.1592 Y-22.9577
G01 X26.1531 Y-22.9483
G01 X26.1456 Y-22.9401
G01 X26.1367 Y-22.9334
G01 X26.1268 Y-22.9282
G01 X26.1161 Y-22.9249
G01 X26.1051 Y-22.9234
G01 X24.7019 Y-22.9233
G01 X24.6939 Y-22.9238
G01 X24.6846 Y-22.9257
G01 X24.6741 Y-22.9295
G01 X24.6645 Y-22.9352
G01 X24.6571 Y-22.9412
G01 X24.6507 Y-22.9483
G01 X24.6446 Y-22.9577
G01 X24.6402 Y-22.9679
G01 X24.6376 Y-22.9788
G01 X24.6369 Y-22.9883
G01 X24.6369 Y-23.3387
G01 X23.3743 Y-23.3387
G01 X23.3448 Y-23.3402
G01 X23.3140 Y-23.3448
G01 X23.2837 Y-23.3525
G01 X23.2574 Y-23.3619
G01 X23.2515 Y-23.3643
G01 X23.2263 Y-23.3765
G01 X23.1996 Y-23.3926
G01 X18.3980 Y-26.6327
G01 X4.2197 Y-26.6327
G01 X4.2197 Y-26.3049
G01 X4.2192 Y-26.2969
G01 X4.2173 Y-26.2876
G01 X4.2141 Y-26.2786
G01 X4.2096 Y-26.2701
G01 X4.2029 Y-26.2612
G01 X4.1959 Y-26.2547
G01 X4.1867 Y-26.2483
G01 X4.1781 Y-26.2443
G01 X4.1689 Y-26.2415
G01 X4.1611 Y-26.2402
G01 X4.1547 Y-26.2399
G01 X2.7515 Y-26.2400
G01 X2.7452 Y-26.2406
G01 X2.7389 Y-26.2418
G01 X2.7328 Y-26.2437
G01 X2.7269 Y-26.2461
G01 X2.7173 Y-26.2518
G01 X2.7122 Y-26.2557
G01 X2.7076 Y-26.2601
G01 X2.7035 Y-26.2649
G01 X2.6998 Y-26.2701
G01 X2.6966 Y-26.2757
G01 X2.6941 Y-26.2815
G01 X2.6909 Y-26.2922
G01 X2.6900 Y-26.2985
G01 X2.6897 Y-26.3049
G00 Z2.0000
G00 X5.5563 Y-30.5594
G01 F60.00
G01 Z-0.0560
G01 F120.00
G01 X5.5555 Y-30.5671
G01 X5.5533 Y-30.5746
G01 X5.5496 Y-30.5814
G01 X5.5447 Y-30.5875
G01 X5.5386 Y-30.5924
G01 X5.5318 Y-30.5961
G01 X5.5243 Y-30.5983
G01 X5.5166 Y-30.5991
G01 X5.5089 Y-30.5983
G01 X5.5014 Y-30.5961
G01 X5.4946 Y-30.5924
G01 X5.4885 Y-30.5875
G01 X5.4836 Y-30.5814
G01 X5.4799 Y-30.5746
G01 X5.4777 Y-30.5671
G01 X5.4769 Y-30.5594
G01 X5.4777 Y-30.5517
G01 X5.4799 Y-30.5442
G01 X5.4836 Y-30.5374
G01 X5.4885 Y-30.5313
G01 X5.4946 Y-30.5264
G01 X5.5014 Y-30.5227
G01 X5.5089 Y-30.5205
G01 X5.5166 Y-30.5197
G01 X5.5243 Y-30.5205
G01 X5.5318 Y-30.5227
G01 X5.5386 Y-30.5264
G01 X5.5447 Y-30.5313
G01 X5.5496 Y-30.5374
G01 X5.5533 Y-30.5442
G01 X5.5555 Y-30.5517
G01 X5.5563 Y-30.5594
G00 Z2.0000
G00 X5.6539 Y-30.5594
G01 F60.00
G01 Z-0.0560
G01 F120.00
G01 X5.6532 Y-30.5729
G01 X5.6513 Y-30.5862
G01 X5.6480 Y-30.5993
G01 X5.6435 Y-30.6119
G01 X5.6377 Y-30.6241
G01 X5.6308 Y-30.6357
G01 X5.6227 Y-30.6465
G01 X5.6137 Y-30.6565
G01 X5.6037 Y-30.6655
G01 X5.5929 Y-30.6736
G01 X5.5813 Y-30.6805
G01 X5.5691 Y-30.6863
G01 X5.5565 Y-30.6908
G01 X5.5434 Y-30.6941
G01 X5.5301 Y-30.6960
G01 X5.5166 Y-30.6967
G01 X5.5031 Y-30.6960
G01 X5.4898 Y-30.6941
G01 X5.4767 Y-30.6908
G01 X5.4641 Y-30.6863
G01 X5.4519 Y-30.6805
G01 X5.4403 Y-30.6736
G01 X5.4295 Y-30.6655
G01 X5.4195 Y-30.6565
G01 X5.4105 Y-30.6465
G01 X5.4024 Y-30.6357
G01 X5.3955 Y-30.6241
G01 X5.3897 Y-30.6119
G01 X5.3852 Y-30.5993
G01 X5.3819 Y-30.5862
G01 X5.3800 Y-30.5729
G01 X5.3793 Y-30.5594
G01 X5.3800 Y-30.5459
G01 X5.3819 Y-30.5326
G01 X5.3852 Y-30.5195
G01 X5.3897 Y-30.5069
G01 X5.3955 Y-30.4947
G01 X5.4024 Y-30.4831
G01 X5.4105 Y-30.4723
G01 X5.4195 Y-30.4623
G01 X5.4295 Y-30.4533
G01 X5.4403 Y-30.4452
G01 X5.4519 Y-30.4383
G01 X5.4641 Y-30.4325
G01 X5.4767 Y-30.4280
G01 X5.4898 Y-30.4247
G01 X5.5031 Y-30.4228
G01 X5.5166 Y-30.4221
G01 X5.5301 Y-30.4228
G01 X5.5434 Y-30.4247
G01 X5.5565 Y-30.4280
G01 X5.5691 Y-30.4325
G01 X5.5813 Y-30.4383
G01 X5.5929 Y-30.4452
G01 X5.6037 Y-30.4533
G01 X5.6137 Y-30.4623
G01 X5.6227 Y-30.4723
G01 X5.6308 Y-30.4831
G01 X5.6377 Y-30.4947
G01 X5.6435 Y-30.5069
G01 X5.6480 Y-30.5195
G01 X5.6513 Y-30.5326
G01 X5.6532 Y-30.5459
G01 X5.6539 Y-30.5594
G00 Z2.0000
G00 X5.7515 Y-30.5594
G01 F60.00
G01 Z-0.0560
G01 F120.00
G01 X5.7504 Y-30.5824
G01 X5.7470 Y-30.6052
G01 X5.7414 Y-30.6276
G01 X5.7336 Y-30.6493
G01 X5.7238 Y-30.6701
G01 X5.7119 Y-30.6899
G01 X5.6982 Y-30.7084
G01 X5.6827 Y-30.7255
G01 X5.6656 Y-30.7410
G01 X5.6471 Y-30.7547
G01 X5.6273 Y-30.7666
G01 X5.6065 Y-30.7764
G01 X5.5848 Y-30.7842
G01 X5.5624 Y-30.7898
G01 X5.5396 Y-30.7932
G01 X5.5166 Y-30.7943
G01 X5.4936 Y-30.7932
G01 X5.4708 Y-30.7898
G01 X5.4484 Y-30.7842
G01 X5.4267 Y-30.7764
G01 X5.4059 Y-30.7666
G01 X5.3861 Y-30.7547
G01 X5.3676 Y-30.7410
G01 X5.3505 Y-30.7255
G01 X5.3350 Y-30.7084
G01 X5.3213 Y-30.6899
G01 X5.3094 Y-30.6701
G01 X5.2996 Y-30.6493
G01 X5.2918 Y-30.6276
G01 X5.2862 Y-30.6052
G01 X5.2828 Y-30.5824
G01 X5.2817 Y-30.5594
G01 X5.2828 Y-30.5364
G01 X5.2862 Y-30.5136
G01 X5.2918 Y-30.4912
G01 X5.2996 Y-30.4695
G01 X5.3094 Y-30.4487
G01 X5.3213 Y-30.4289
G01 X5.3350 Y-30.4104
G01 X5.3505 Y-30.3933
G01 X5.3676 Y-30.3778
G01 X5.3861 Y-30.3641
G01 X5.4059 Y-30.3522
G01 X5.4267 Y-30.3424
G01 X5.4484 Y-30.3346
G01 X5.4708 Y-30.3290
G01 X5.4936 Y-30.3256
G01 X5.5166 Y-30.3245
G01 X5.5396 Y-30.3256
G01 X5.5624 Y-30.3290
G01 X5.5848 Y-30.3346
G01 X5.6065 Y-30.3424
G01 X5.6273 Y-30.3522
G01 X5.6471 Y-30.3641
G01 X5.6656 Y-30.3778
G01 X5.6827 Y-30.3933
G01 X5.6982 Y-30.4104
G01 X5.7119 Y-30.4289
G01 X5.7238 Y-30.4487
G01 X5.7336 Y-30.4695
G01 X5.7414 Y-30.4912
G01 X5.7470 Y-30.5136
G01 X5.7504 Y-30.5364
G01 X5.7515 Y-30.5594
G00 Z2.0000
G00 X7.2260 Y-31.0836
G01 F60.00
G01 Z-0.0560
G01 F120.00
G01 X7.2960 Y-31.0836
G01 X7.2961 Y-31.4551
G01 X7.2967 Y-31.4614
G01 X7.2979 Y-31.4677
G01 X7.2998 Y-31.4738
G01 X7.3022 Y-31.4797
G01 X7.3052 Y-31.4853
G01 X7.3088 Y-31.4906
G01 X7.3128 Y-31.4956
G01 X7.3173 Y-31.5001
G01 X7.3262 Y-31.5068
G01 X7.3361 Y-31.5120
G01 X7.3468 Y-31.5153
G01 X7.3530 Y-31.5164
G01 X7.3594 Y-31.5169
G01 X7.7794 Y-31.5169
G01 X7.7794 Y-31.5869
G01 X7.2260 Y-31.5869
G01 X7.2260 Y-31.0836
G00 Z2.0000
G00 X7.7794 Y-30.0169
G01 F60.00
G01 Z-0.0560
G01 F120.00
G01 X7.7794 Y-30.0869
G01 X7.3594 Y-30.0869
G01 X7.3483 Y-30.0881
G01 X7.3421 Y-30.0897
G01 X7.3361 Y-30.0918
G01 X7.3262 Y-30.0970
G01 X7.3173 Y-30.1037
G01 X7.3128 Y-30.1082
G01 X7.3088 Y-30.1132
G01 X7.3052 Y-30.1185
G01 X7.3022 Y-30.1241
G01 X7.2998 Y-30.1300
G01 X7.2979 Y-30.1361
G01 X7.2967 Y-30.1424
G01 X7.2961 Y-30.1487
G01 X7.2960 Y-30.5203
G01 X7.2260 Y-30.5203
G01 X7.2260 Y-30.0169
G01 X7.7794 Y-30.0169
G00 Z2.0000
G00 X8.8960 Y-30.5202
G01 F60.00
G01 Z-0.0560
G01 F120.00
G01 X8.8260 Y-30.5202
G01 X8.8259 Y-30.1487
G01 X8.8253 Y-30.1424
G01 X8.8241 Y-30.1361
G01 X8.8222 Y-30.1300
G01 X8.8198 Y-30.1241
G01 X8.8168 Y-30.1185
G01 X8.8132 Y-30.1132
G01 X8.8092 Y-30.1082
G01 X8.8047 Y-30.1037
G01 X8.7958 Y-30.0970
G01 X8.7859 Y-30.0918
G01 X8.7752 Y-30.0885
G01 X8.7690 Y-30.0874
G01 X8.7626 Y-30.0869
G01 X8.3427 Y-30.0869
G01 X8.3427 Y-30.0169
G01 X8.8960 Y-30.0169
G01 X8.8960 Y-30.5202
G00 Z2.0000
G00 X8.8960 Y-31.5869
G01 F60.00
G01 Z-0.0560
G01 F120.00
G01 X8.3427 Y-31.5869
G01 X8.3427 Y-31.5169
G01 X8.7626 Y-31.5169
G01 X8.7737 Y-31.5157
G01 X8.7829 Y-31.5131
G01 X8.7916 Y-31.5092
G01 X8.8010 Y-31.5031
G01 X8.8058 Y-31.4990
G01 X8.8112 Y-31.4931
G01 X8.8159 Y-31.4867
G01 X8.8191 Y-31.4811
G01 X8.8222 Y-31.4738
G01 X8.8241 Y-31.4677
G01 X8.8253 Y-31.4614
G01 X8.8259 Y-31.4551
G01 X8.8260 Y-31.0836
G01 X8.8960 Y-31.0836
G01 X8.8960 Y-31.5869
G00 Z2.0000
G00 X9.8794 Y-30.0169
G01 F60.00
G01 Z-0.0560
G01 F120.00
G01 X9.8794 Y-30.0869
G01 X9.3594 Y-30.0869
G01 X9.3499 Y-30.0879
G01 X9.3391 Y-30.0907
G01 X9.3290 Y-30.0953
G01 X9.3210 Y-30.1007
G01 X9.3162 Y-30.1048
G01 X9.3118 Y-30.1094
G01 X9.3079 Y-30.1145
G01 X9.3037 Y-30.1213
G01 X9.3004 Y-30.1285
G01 X9.2984 Y-30.1346
G01 X9.2967 Y-30.1424
G01 X9.2961 Y-30.1487
G01 X9.2960 Y-30.5203
G01 X9.2260 Y-30.5203
G01 X9.2260 Y-30.0169
G01 X9.8794 Y-30.0169
G00 Z2.0000
G00 X11.0960 Y-30.5203
G01 F60.00
G01 Z-0.0560
G01 F120.00
G01 X11.0260 Y-30.5203
G01 X11.0259 Y-30.1487
G01 X11.0250 Y-30.1408
G01 X11.0236 Y-30.1346
G01 X11.0216 Y-30.1285
G01 X11.0183 Y-30.1213
G01 X11.0150 Y-30.1158
G01 X11.0102 Y-30.1094
G01 X11.0058 Y-30.1048
G01 X11.0010 Y-30.1007
G01 X10.9930 Y-30.0953
G01 X10.9829 Y-30.0907
G01 X10.9721 Y-30.0879
G01 X10.9626 Y-30.0869
G01 X10.4427 Y-30.0869
G01 X10.4427 Y-30.0169
G01 X11.0960 Y-30.0169
G01 X11.0960 Y-30.5203
G00 Z2.0000
G00 X11.0960 Y-31.5869
G01 F60.00
G01 Z-0.0560
G01 F120.00
G01 X9.2260 Y-31.5869
G01 X9.2260 Y-31.0836
G01 X9.2960 Y-31.0836
G01 X9.2960 Y-31.4519
G01 X9.2967 Y-31.4614
G01 X9.2993 Y-31.4723
G01 X9.3037 Y-31.4825
G01 X9.3098 Y-31.4919
G01 X9.3139 Y-31.4967
G01 X9.3185 Y-31.5011
G01 X9.3236 Y-31.5050
G01 X9.3290 Y-31.5085
G01 X9.3391 Y-31.5131
G01 X9.3499 Y-31.5159
G01 X9.3610 Y-31.5169
G01 X10.9610 Y-31.5169
G01 X10.9690 Y-31.5164
G01 X10.9768 Y-31.5150
G01 X10.9859 Y-31.5120
G01 X10.9958 Y-31.5068
G01 X11.0035 Y-31.5011
G01 X11.0102 Y-31.4944
G01 X11.0159 Y-31.4867
G01 X11.0204 Y-31.4782
G01 X11.0236 Y-31.4692
G01 X11.0255 Y-31.4599
G01 X11.0260 Y-31.4519
G01 X11.0260 Y-31.0836
G01 X11.0960 Y-31.0836
G01 X11.0960 Y-31.5869
G00 Z2.0000
G00 X11.4260 Y-36.0170
G01 F60.00
G01 Z-0.0560
G01 F120.00
G01 X12.0294 Y-36.0170
G01 X12.0294 Y-36.0870
G01 X11.5594 Y-36.0870
G01 X11.5483 Y-36.0882
G01 X11.5376 Y-36.0914
G01 X11.5276 Y-36.0962
G01 X11.5185 Y-36.1028
G01 X11.5139 Y-36.1072
G01 X11.5098 Y-36.1120
G01 X11.5061 Y-36.1172
G01 X11.5029 Y-36.1228
G01 X11.4998 Y-36.1301
G01 X11.4979 Y-36.1362
G01 X11.4967 Y-36.1425
G01 X11.4961 Y-36.1488
G01 X11.4960 Y-36.6203
G01 X11.4260 Y-36.6203
G01 X11.4260 Y-36.0170
G00 Z2.0000
G00 X11.0961 Y-36.2203
G01 F60.00
G01 Z-0.0560
G01 F120.00
G01 X11.0261 Y-36.2203
G01 X11.0261 Y-35.8519
G01 X11.0254 Y-35.8424
G01 X11.0228 Y-35.8315
G01 X11.0205 Y-35.8256
G01 X11.0177 Y-35.8199
G01 X11.0113 Y-35.8107
G01 X11.0036 Y-35.8027
G01 X10.9945 Y-35.7961
G01 X10.9845 Y-35.7913
G01 X10.9738 Y-35.7881
G01 X10.9675 Y-35.7872
G01 X10.9611 Y-35.7869
G01 X9.3611 Y-35.7869
G01 X9.3531 Y-35.7874
G01 X9.3453 Y-35.7888
G01 X9.3362 Y-35.7918
G01 X9.3277 Y-35.7961
G01 X9.3199 Y-35.8017
G01 X9.3129 Y-35.8082
G01 X9.3071 Y-35.8158
G01 X9.3023 Y-35.8241
G01 X9.2989 Y-35.8330
G01 X9.2966 Y-35.8439
G01 X9.2961 Y-35.8519
G01 X9.2961 Y-36.2203
G01 X9.2261 Y-36.2203
G01 X9.2261 Y-35.7169
G01 X11.0961 Y-35.7169
G01 X11.0961 Y-36.2203
G00 Z2.0000
G00 X11.0961 Y-37.2869
G01 F60.00
G01 Z-0.0560
G01 F120.00
G01 X10.4427 Y-37.2869
G01 X10.4427 Y-37.2169
G01 X10.9627 Y-37.2169
G01 X10.9722 Y-37.2159
G01 X10.9815 Y-37.2136
G01 X10.9903 Y-37.2100
G01 X10.9972 Y-37.2059
G01 X11.0036 Y-37.2011
G01 X11.0082 Y-37.1967
G01 X11.0133 Y-37.1906
G01 X11.0169 Y-37.1853
G01 X11.0199 Y-37.1797
G01 X11.0228 Y-37.1723
G01 X11.0249 Y-37.1646
G01 X11.0259 Y-37.1567
G01 X11.0261 Y-36.7836
G01 X11.0961 Y-36.7836
G01 X11.0961 Y-37.2869
G00 Z2.0000
G00 X11.4261 Y-37.2836
G01 F60.00
G01 Z-0.0560
G01 F120.00
G01 X11.4961 Y-37.2836
G01 X11.4962 Y-37.7552
G01 X11.4977 Y-37.7662
G01 X11.4994 Y-37.7724
G01 X11.5017 Y-37.7783
G01 X11.5045 Y-37.7840
G01 X11.5080 Y-37.7894
G01 X11.5151 Y-37.7980
G01 X11.5199 Y-37.8022
G01 X11.5250 Y-37.8060
G01 X11.5348 Y-37.8114
G01 X11.5453 Y-37.8151
G01 X11.5516 Y-37.8163
G01 X11.5579 Y-37.8169
G01 X12.0294 Y-37.8170
G01 X12.0294 Y-37.8870
G01 X11.4261 Y-37.8870
G01 X11.4261 Y-37.2836
G00 Z2.0000
G00 X12.6927 Y-37.8869
G01 F60.00
G01 Z-0.0560
G01 F120.00
G01 X12.6927 Y-37.8169
G01 X13.1643 Y-37.8168
G01 X13.1706 Y-37.8162
G01 X13.1769 Y-37.8150
G01 X13.1874 Y-37.8113
G01 X13.1931 Y-37.8085
G01 X13.1985 Y-37.8050
G01 X13.2071 Y-37.7979
G01 X13.2142 Y-37.7893
G01 X13.2177 Y-37.7839
G01 X13.2205 Y-37.7782
G01 X13.2228 Y-37.7723
G01 X13.2245 Y-37.7661
G01 X13.2260 Y-37.7551
G01 X13.2261 Y-37.2836
G01 X13.2961 Y-37.2836
G01 X13.2961 Y-37.8869
G01 X12.6927 Y-37.8869
G00 Z2.0000
G00 X13.2960 Y-36.6203
G01 F60.00
G01 Z-0.0560
G01 F120.00
G01 X13.2260 Y-36.6203
G01 X13.2259 Y-36.1487
G01 X13.2244 Y-36.1377
G01 X13.2227 Y-36.1315
G01 X13.2204 Y-36.1256
G01 X13.2150 Y-36.1158
G01 X13.2112 Y-36.1107
G01 X13.2070 Y-36.1059
G01 X13.1984 Y-36.0988
G01 X13.1930 Y-36.0953
G01 X13.1873 Y-36.0925
G01 X13.1768 Y-36.0888
G01 X13.1705 Y-36.0876
G01 X13.1642 Y-36.0870
G01 X12.6927 Y-36.0869
G01 X12.6927 Y-36.0169
G01 X13.2960 Y-36.0169
G01 X13.2960 Y-36.6203
G00 Z2.0000
G00 X14.2960 Y-36.1519
G01 F60.00
G01 Z-0.0560
G01 F120.00
G01 X14.2960 Y-37.7519
G01 X14.2963 Y-37.7583
G01 X14.2972 Y-37.7646
G01 X14.2988 Y-37.7708
G01 X14.3009 Y-37.7768
G01 X14.3037 Y-37.7825
G01 X14.3079 Y-37.7893
G01 X14.3118 Y-37.7944
G01 X14.3162 Y-37.7990
G01 X14.3210 Y-37.8031
G01 X14.3262 Y-37.8068
G01 X14.3318 Y-37.8100
G01 X14.3376 Y-37.8125
G01 X14.3437 Y-37.8145
G01 X14.3499 Y-37.8159
G01 X14.3610 Y-37.8169
G01 X15.9610 Y-37.8169
G01 X15.9674 Y-37.8166
G01 X15.9737 Y-37.8157
G01 X15.9799 Y-37.8141
G01 X15.9859 Y-37.8120
G01 X15.9916 Y-37.8092
G01 X15.9971 Y-37.8059
G01 X16.0022 Y-37.8021
G01 X16.0081 Y-37.7967
G01 X16.0150 Y-37.7880
G01 X16.0183 Y-37.7825
G01 X16.0211 Y-37.7768
G01 X16.0232 Y-37.7708
G01 X16.0248 Y-37.7646
G01 X16.0257 Y-37.7583
G01 X16.0260 Y-37.7519
G01 X16.0260 Y-36.1519
G01 X16.0255 Y-36.1439
G01 X16.0241 Y-36.1361
G01 X16.0211 Y-36.1270
G01 X16.0159 Y-36.1171
G01 X16.0102 Y-36.1094
G01 X16.0035 Y-36.1027
G01 X15.9958 Y-36.0970
G01 X15.9873 Y-36.0925
G01 X15.9783 Y-36.0893
G01 X15.9674 Y-36.0872
G01 X15.9610 Y-36.0869
G01 X15.4761 Y-36.0869
G01 X15.4762 Y-35.6169
G01 X15.9659 Y-35.6167
G01 X15.9753 Y-35.6153
G01 X15.9845 Y-35.6125
G01 X15.9931 Y-35.6085
G01 X16.0011 Y-35.6031
G01 X16.0082 Y-35.5967
G01 X16.0142 Y-35.5893
G01 X16.0192 Y-35.5811
G01 X16.0228 Y-35.5723
G01 X16.0251 Y-35.5630
G01 X16.0261 Y-35.5519
G01 X16.0261 Y-33.9519
G01 X16.0256 Y-33.9439
G01 X16.0233 Y-33.9330
G01 X16.0192 Y-33.9227
G01 X16.0142 Y-33.9145
G01 X16.0071 Y-33.9059
G01 X15.9985 Y-33.8988
G01 X15.9889 Y-33.8931
G01 X15.9784 Y-33.8893
G01 X15.9675 Y-33.8872
G01 X15.9611 Y-33.8869
G01 X15.4762 Y-33.8869
G01 X15.4762 Y-33.4169
G01 X15.9643 Y-33.4168
G01 X15.9706 Y-33.4162
G01 X15.9769 Y-33.4150
G01 X15.9874 Y-33.4113
G01 X15.9931 Y-33.4085
G01 X15.9985 Y-33.4050
G01 X16.0036 Y-33.4011
G01 X16.0082 Y-33.3967
G01 X16.0123 Y-33.3919
G01 X16.0160 Y-33.3867
G01 X16.0212 Y-33.3768
G01 X16.0233 Y-33.3708
G01 X16.0249 Y-33.3646
G01 X16.0261 Y-33.3535
G01 X16.0261 Y-32.8252
G01 X16.4961 Y-32.8023
G01 X16.4961 Y-33.1519
G01 X16.4966 Y-33.1599
G01 X16.4985 Y-33.1692
G01 X16.5017 Y-33.1782
G01 X16.5071 Y-33.1880
G01 X16.5129 Y-33.1956
G01 X16.5211 Y-33.2031
G01 X16.5291 Y-33.2085
G01 X16.5377 Y-33.2125
G01 X16.5484 Y-33.2157
G01 X16.5547 Y-33.2166
G01 X16.5611 Y-33.2169
G01 X17.8611 Y-33.2169
G01 X17.8706 Y-33.2162
G01 X17.8815 Y-33.2136
G01 X17.8903 Y-33.2100
G01 X17.8985 Y-33.2050
G01 X17.9048 Y-33.2001
G01 X17.9103 Y-33.1944
G01 X17.9151 Y-33.1880
G01 X17.9192 Y-33.1811
G01 X17.9223 Y-33.1738
G01 X17.9245 Y-33.1661
G01 X17.9256 Y-33.1599
G01 X17.9261 Y-33.1519
G01 X17.9261 Y-31.7503
G01 X17.9256 Y-31.7439
G01 X17.9242 Y-31.7361
G01 X17.9217 Y-31.7285
G01 X17.9192 Y-31.7227
G01 X17.9151 Y-31.7158
G01 X17.9113 Y-31.7107
G01 X17.9071 Y-31.7059
G01 X17.9023 Y-31.7017
G01 X17.8931 Y-31.6953
G01 X17.8830 Y-31.6907
G01 X17.8722 Y-31.6879
G01 X17.8611 Y-31.6869
G01 X16.5611 Y-31.6869
G01 X16.5531 Y-31.6874
G01 X16.5453 Y-31.6888
G01 X16.5362 Y-31.6918
G01 X16.5277 Y-31.6961
G01 X16.5186 Y-31.7027
G01 X16.5119 Y-31.7094
G01 X16.5053 Y-31.7185
G01 X16.5010 Y-31.7270
G01 X16.4980 Y-31.7361
G01 X16.4964 Y-31.7455
G01 X16.4961 Y-31.7519
G01 X16.4961 Y-32.1713
G01 X16.0261 Y-32.1942
G01 X16.0261 Y-31.7519
G01 X16.0258 Y-31.7455
G01 X16.0242 Y-31.7361
G01 X16.0212 Y-31.7270
G01 X16.0169 Y-31.7185
G01 X16.0113 Y-31.7107
G01 X16.0048 Y-31.7037
G01 X15.9972 Y-31.6979
G01 X15.9889 Y-31.6931
G01 X15.9784 Y-31.6893
G01 X15.9706 Y-31.6876
G01 X15.9611 Y-31.6869
G01 X14.3595 Y-31.6869
G01 X14.3516 Y-31.6876
G01 X14.3453 Y-31.6888
G01 X14.3377 Y-31.6913
G01 X14.3319 Y-31.6938
G01 X14.3263 Y-31.6970
G01 X14.3211 Y-31.7007
G01 X14.3151 Y-31.7059
G01 X14.3109 Y-31.7107
G01 X14.3045 Y-31.7199
G01 X14.2999 Y-31.7300
G01 X14.2971 Y-31.7408
G01 X14.2961 Y-31.7519
G01 X14.2961 Y-33.3519
G01 X14.2966 Y-33.3599
G01 X14.2980 Y-33.3677
G01 X14.3017 Y-33.3782
G01 X14.3062 Y-33.3867
G01 X14.3119 Y-33.3944
G01 X14.3186 Y-33.4011
G01 X14.3263 Y-33.4068
G01 X14.3348 Y-33.4113
G01 X14.3438 Y-33.4145
G01 X14.3547 Y-33.4166
G01 X14.3611 Y-33.4169
G01 X14.8460 Y-33.4169
G01 X14.8459 Y-33.8869
G01 X14.3563 Y-33.8871
G01 X14.3469 Y-33.8885
G01 X14.3377 Y-33.8913
G01 X14.3291 Y-33.8953
G01 X14.3211 Y-33.9007
G01 X14.3140 Y-33.9071
G01 X14.3080 Y-33.9145
G01 X14.3030 Y-33.9227
G01 X14.2994 Y-33.9315
G01 X14.2968 Y-33.9424
G01 X14.2961 Y-33.9519
G01 X14.2961 Y-35.5519
G01 X14.2966 Y-35.5599
G01 X14.2989 Y-35.5708
G01 X14.3030 Y-35.5811
G01 X14.3089 Y-35.5906
G01 X14.3163 Y-35.5990
G01 X14.3237 Y-35.6050
G01 X14.3333 Y-35.6107
G01 X14.3438 Y-35.6145
G01 X14.3547 Y-35.6166
G01 X14.3611 Y-35.6169
G01 X14.8459 Y-35.6169
G01 X14.8459 Y-36.0869
G01 X14.3610 Y-36.0869
G01 X14.3530 Y-36.0874
G01 X14.3468 Y-36.0885
G01 X14.3406 Y-36.0902
G01 X14.3304 Y-36.0946
G01 X14.3210 Y-36.1007
G01 X14.3128 Y-36.1082
G01 X14.3061 Y-36.1171
G01 X14.3029 Y-36.1227
G01 X14.3004 Y-36.1285
G01 X14.2972 Y-36.1392
G01 X14.2963 Y-36.1455
G01 X14.2960 Y-36.1519
G00 Z2.0000
G00 X16.0960 Y-37.8869
G01 F60.00
G01 Z-0.0560
G01 F120.00
G01 X14.2260 Y-37.8869
G01 X14.2260 Y-36.0169
G01 X14.7108 Y-36.0169
G01 X14.7188 Y-36.0164
G01 X14.7297 Y-36.0141
G01 X14.7400 Y-36.0100
G01 X14.7495 Y-36.0041
G01 X14.7544 Y-36.0001
G01 X14.7590 Y-35.9956
G01 X14.7630 Y-35.9906
G01 X14.7665 Y-35.9853
G01 X14.7714 Y-35.9753
G01 X14.7745 Y-35.9646
G01 X14.7755 Y-35.9583
G01 X14.7758 Y-35.9519
G01 X14.7758 Y-35.7519
G01 X14.7751 Y-35.7424
G01 X14.7734 Y-35.7346
G01 X14.7709 Y-35.7270
G01 X14.7674 Y-35.7199
G01 X14.7630 Y-35.7132
G01 X14.7579 Y-35.7071
G01 X14.7520 Y-35.7017
G01 X14.7456 Y-35.6970
G01 X14.7386 Y-35.6931
G01 X14.7327 Y-35.6907
G01 X14.7250 Y-35.6885
G01 X14.7188 Y-35.6874
G01 X14.7108 Y-35.6869
G01 X14.2261 Y-35.6869
G01 X14.2261 Y-33.8169
G01 X14.7108 Y-33.8169
G01 X14.7188 Y-33.8164
G01 X14.7251 Y-33.8153
G01 X14.7312 Y-33.8136
G01 X14.7386 Y-33.8107
G01 X14.7456 Y-33.8068
G01 X14.7521 Y-33.8021
G01 X14.7579 Y-33.7967
G01 X14.7631 Y-33.7906
G01 X14.7674 Y-33.7839
G01 X14.7709 Y-33.7768
G01 X14.7735 Y-33.7692
G01 X14.7751 Y-33.7614
G01 X14.7758 Y-33.7519
G01 X14.7759 Y-33.5519
G01 X14.7749 Y-33.5408
G01 X14.7735 Y-33.5346
G01 X14.7715 Y-33.5285
G01 X14.7666 Y-33.5185
G01 X14.7601 Y-33.5094
G01 X14.7521 Y-33.5017
G01 X14.7470 Y-33.4979
G01 X14.7415 Y-33.4946
G01 X14.7357 Y-33.4918
G01 X14.7297 Y-33.4897
G01 X14.7188 Y-33.4874
G01 X14.7109 Y-33.4869
G01 X14.2261 Y-33.4869
G01 X14.2261 Y-31.6169
G01 X16.0961 Y-31.6169
G01 X16.0961 Y-32.0524
G01 X16.0966 Y-32.0603
G01 X16.0989 Y-32.0712
G01 X16.1010 Y-32.0772
G01 X16.1038 Y-32.0830
G01 X16.1071 Y-32.0885
G01 X16.1108 Y-32.0936
G01 X16.1186 Y-32.1016
G01 X16.1277 Y-32.1081
G01 X16.1333 Y-32.1111
G01 X16.1392 Y-32.1136
G01 X16.1500 Y-32.1164
G01 X16.1611 Y-32.1174
G01 X16.3643 Y-32.1075
G01 X16.3722 Y-32.1066
G01 X16.3800 Y-32.1048
G01 X16.3860 Y-32.1027
G01 X16.3917 Y-32.0999
G01 X16.3985 Y-32.0958
G01 X16.4047 Y-32.0908
G01 X16.4103 Y-32.0851
G01 X16.4142 Y-32.0800
G01 X16.4184 Y-32.0733
G01 X16.4211 Y-32.0675
G01 X16.4237 Y-32.0599
G01 X16.4254 Y-32.0521
G01 X16.4261 Y-32.0442
G01 X16.4261 Y-31.6169
G01 X17.9961 Y-31.6169
G01 X17.9961 Y-33.2869
G01 X16.4261 Y-33.2869
G01 X16.4261 Y-32.9425
G01 X16.4254 Y-32.9346
G01 X16.4233 Y-32.9253
G01 X16.4199 Y-32.9163
G01 X16.4151 Y-32.9080
G01 X16.4114 Y-32.9029
G01 X16.4059 Y-32.8971
G01 X16.4011 Y-32.8929
G01 X16.3945 Y-32.8884
G01 X16.3875 Y-32.8847
G01 X16.3800 Y-32.8819
G01 X16.3738 Y-32.8804
G01 X16.3659 Y-32.8793
G01 X16.3579 Y-32.8792
G01 X16.1548 Y-32.8892
G01 X16.1438 Y-32.8912
G01 X16.1333 Y-32.8951
G01 X16.1237 Y-32.9007
G01 X16.1151 Y-32.9079
G01 X16.1080 Y-32.9164
G01 X16.1023 Y-32.9261
G01 X16.0985 Y-32.9365
G01 X16.0964 Y-32.9475
G01 X16.0961 Y-32.9539
G01 X16.0961 Y-33.4869
G01 X15.6065 Y-33.4871
G01 X15.5971 Y-33.4885
G01 X15.5879 Y-33.4913
G01 X15.5793 Y-33.4953
G01 X15.5701 Y-33.5017
G01 X15.5631 Y-33.5082
G01 X15.5573 Y-33.5158
G01 X15.5525 Y-33.5241
G01 X15.5491 Y-33.5330
G01 X15.5470 Y-33.5424
G01 X15.5463 Y-33.5519
G01 X15.5463 Y-33.7519
G01 X15.5468 Y-33.7599
G01 X15.5482 Y-33.7677
G01 X15.5507 Y-33.7753
G01 X15.5532 Y-33.7811
G01 X15.5573 Y-33.7880
G01 X15.5621 Y-33.7944
G01 X15.5676 Y-33.8001
G01 X15.5739 Y-33.8050
G01 X15.5807 Y-33.8092
G01 X15.5864 Y-33.8120
G01 X15.5940 Y-33.8145
G01 X15.6018 Y-33.8162
G01 X15.6097 Y-33.8169
G01 X16.0961 Y-33.8169
G01 X16.0961 Y-35.6869
G01 X15.6113 Y-35.6869
G01 X15.6033 Y-35.6874
G01 X15.5924 Y-35.6897
G01 X15.5820 Y-35.6938
G01 X15.5725 Y-35.6997
G01 X15.5676 Y-35.7037
G01 X15.5631 Y-35.7082
G01 X15.5590 Y-35.7132
G01 X15.5555 Y-35.7185
G01 X15.5506 Y-35.7285
G01 X15.5475 Y-35.7392
G01 X15.5466 Y-35.7455
G01 X15.5463 Y-35.7519
G01 X15.5462 Y-35.9519
G01 X15.5470 Y-35.9614
G01 X15.5486 Y-35.9692
G01 X15.5512 Y-35.9768
G01 X15.5547 Y-35.9839
G01 X15.5590 Y-35.9906
G01 X15.5642 Y-35.9967
G01 X15.5700 Y-36.0021
G01 X15.5765 Y-36.0068
